N0010 (Filename: spacer.ngc)
N0020 (Post processor: LinuxCNC.scpost)
N0030 (Date: 18.12.2019)
N0040 G21 (Units: Metric)
N0050 G40 G90
N0060 F1
N0070 (Part: spacer)
N0080 (Operation: Innen Versatz, Loecher, T1: Fräser/Gravierer, 7 mm Durchmesser, 23 mm Tiefe)
N0090 M6 T1  (Fräser/Gravierer, 7 mm Durchmesser)
N0100 G43 H1
N0110 G00 Z10.0000
N0120 M03 S1000
N0130 X115.0000 Y-118.0000
N0140 Z0.5000
N0150 G01 Z0.0000 F1200
N0160 G02 X115.0000 Y-118.0000 Z-6.8607 I0.0000 J3.0000 F1200.0
N0170 X112.9145 Y-117.1565 Z-7.7000 I0.0000 J3.0000
N0180 X112.0000 Y-115.0000 I2.0855 J2.1565
N0190 X112.0000 Y-115.0000 Z-14.5607 I3.0000 J0.0000
N0200 X112.8435 Y-112.9145 Z-15.4000 I3.0000 J0.0000
N0210 X115.0000 Y-112.0000 I2.1565 J-2.0855
N0220 X115.0000 Y-112.0000 Z-22.2607 I0.0000 J-3.0000
N0230 X116.8796 Y-112.6618 Z-23.0000 I0.0000 J-3.0000
N0240 X116.8796 Y-112.6618 I-1.8796 J-2.3382
N0250 G00 Z10.0000
N0260 X132.0000 Y-118.0000
N0270 Z0.5000
N0280 G01 Z0.0000 F1200
N0290 G02 X132.0000 Y-118.0000 Z-6.8607 I0.0000 J3.0000 F1200.0
N0300 X129.9145 Y-117.1565 Z-7.7000 I0.0000 J3.0000
N0310 X129.0000 Y-115.0000 I2.0855 J2.1565
N0320 X129.0000 Y-115.0000 Z-14.5607 I3.0000 J0.0000
N0330 X129.8435 Y-112.9145 Z-15.4000 I3.0000 J0.0000
N0340 X132.0000 Y-112.0000 I2.1565 J-2.0855
N0350 X132.0000 Y-112.0000 Z-22.2607 I0.0000 J-3.0000
N0360 X133.8796 Y-112.6618 Z-23.0000 I0.0000 J-3.0000
N0370 X133.8796 Y-112.6618 I-1.8796 J-2.3382
N0380 G00 Z10.0000
N0390 X149.0000 Y-118.0000
N0400 Z0.5000
N0410 G01 Z0.0000 F1200
N0420 G02 X149.0000 Y-118.0000 Z-6.8607 I0.0000 J3.0000 F1200.0
N0430 X146.9145 Y-117.1565 Z-7.7000 I0.0000 J3.0000
N0440 X146.0000 Y-115.0000 I2.0855 J2.1565
N0450 X146.0000 Y-115.0000 Z-14.5607 I3.0000 J0.0000
N0460 X146.8435 Y-112.9145 Z-15.4000 I3.0000 J0.0000
N0470 X149.0000 Y-112.0000 I2.1565 J-2.0855
N0480 X149.0000 Y-112.0000 Z-22.2607 I0.0000 J-3.0000
N0490 X150.8796 Y-112.6618 Z-23.0000 I0.0000 J-3.0000
N0500 X150.8796 Y-112.6618 I-1.8796 J-2.3382
N0510 G00 Z10.0000
N0520 X166.0000 Y-118.0000
N0530 Z0.5000
N0540 G01 Z0.0000 F1200
N0550 G02 X166.0000 Y-118.0000 Z-6.8607 I0.0000 J3.0000 F1200.0
N0560 X163.9145 Y-117.1565 Z-7.7000 I0.0000 J3.0000
N0570 X163.0000 Y-115.0000 I2.0855 J2.1565
N0580 X163.0000 Y-115.0000 Z-14.5607 I3.0000 J0.0000
N0590 X163.8435 Y-112.9145 Z-15.4000 I3.0000 J0.0000
N0600 X166.0000 Y-112.0000 I2.1565 J-2.0855
N0610 X166.0000 Y-112.0000 Z-22.2607 I0.0000 J-3.0000
N0620 X167.8796 Y-112.6618 Z-23.0000 I0.0000 J-3.0000
N0630 X167.8796 Y-112.6618 I-1.8796 J-2.3382
N0640 G00 Z10.0000
N0650 X183.0000 Y-118.0000
N0660 Z0.5000
N0670 G01 Z0.0000 F1200
N0680 G02 X183.0000 Y-118.0000 Z-6.8607 I0.0000 J3.0000 F1200.0
N0690 X180.9145 Y-117.1565 Z-7.7000 I0.0000 J3.0000
N0700 X180.0000 Y-115.0000 I2.0855 J2.1565
N0710 X180.0000 Y-115.0000 Z-14.5607 I3.0000 J0.0000
N0720 X180.8435 Y-112.9145 Z-15.4000 I3.0000 J0.0000
N0730 X183.0000 Y-112.0000 I2.1565 J-2.0855
N0740 X183.0000 Y-112.0000 Z-22.2607 I0.0000 J-3.0000
N0750 X184.8796 Y-112.6618 Z-23.0000 I0.0000 J-3.0000
N0760 X184.8796 Y-112.6618 I-1.8796 J-2.3382
N0770 G00 Z10.0000
N0780 X200.0000 Y-118.0000
N0790 Z0.5000
N0800 G01 Z0.0000 F1200
N0810 G02 X200.0000 Y-118.0000 Z-6.8607 I0.0000 J3.0000 F1200.0
N0820 X197.9145 Y-117.1565 Z-7.7000 I0.0000 J3.0000
N0830 X197.0000 Y-115.0000 I2.0855 J2.1565
N0840 X197.0000 Y-115.0000 Z-14.5607 I3.0000 J0.0000
N0850 X197.8435 Y-112.9145 Z-15.4000 I3.0000 J0.0000
N0860 X200.0000 Y-112.0000 I2.1565 J-2.0855
N0870 X200.0000 Y-112.0000 Z-22.2607 I0.0000 J-3.0000
N0880 X201.8796 Y-112.6618 Z-23.0000 I0.0000 J-3.0000
N0890 X201.8796 Y-112.6618 I-1.8796 J-2.3382
N0900 G00 Z10.0000
N0910 X200.0000 Y-135.0000
N0920 Z0.5000
N0930 G01 Z0.0000 F1200
N0940 G02 X200.0000 Y-135.0000 Z-6.8607 I0.0000 J3.0000 F1200.0
N0950 X197.9145 Y-134.1565 Z-7.7000 I0.0000 J3.0000
N0960 X197.0000 Y-132.0000 I2.0855 J2.1565
N0970 X197.0000 Y-132.0000 Z-14.5607 I3.0000 J0.0000
N0980 X197.8435 Y-129.9145 Z-15.4000 I3.0000 J0.0000
N0990 X200.0000 Y-129.0000 I2.1565 J-2.0855
N1000 X200.0000 Y-129.0000 Z-22.2607 I0.0000 J-3.0000
N1010 X201.8796 Y-129.6618 Z-23.0000 I0.0000 J-3.0000
N1020 X201.8796 Y-129.6618 I-1.8796 J-2.3382
N1030 G00 Z10.0000
N1040 X200.0000 Y-152.0000
N1050 Z0.5000
N1060 G01 Z0.0000 F1200
N1070 G02 X200.0000 Y-152.0000 Z-6.8607 I0.0000 J3.0000 F1200.0
N1080 X197.9145 Y-151.1565 Z-7.7000 I0.0000 J3.0000
N1090 X197.0000 Y-149.0000 I2.0855 J2.1565
N1100 X197.0000 Y-149.0000 Z-14.5607 I3.0000 J0.0000
N1110 X197.8435 Y-146.9145 Z-15.4000 I3.0000 J0.0000
N1120 X200.0000 Y-146.0000 I2.1565 J-2.0855
N1130 X200.0000 Y-146.0000 Z-22.2607 I0.0000 J-3.0000
N1140 X201.8796 Y-146.6618 Z-23.0000 I0.0000 J-3.0000
N1150 X201.8796 Y-146.6618 I-1.8796 J-2.3382
N1160 G00 Z10.0000
N1170 X200.0000 Y-169.0000
N1180 Z0.5000
N1190 G01 Z0.0000 F1200
N1200 G02 X200.0000 Y-169.0000 Z-6.8607 I0.0000 J3.0000 F1200.0
N1210 X197.9145 Y-168.1565 Z-7.7000 I0.0000 J3.0000
N1220 X197.0000 Y-166.0000 I2.0855 J2.1565
N1230 X197.0000 Y-166.0000 Z-14.5607 I3.0000 J0.0000
N1240 X197.8435 Y-163.9145 Z-15.4000 I3.0000 J0.0000
N1250 X200.0000 Y-163.0000 I2.1565 J-2.0855
N1260 X200.0000 Y-163.0000 Z-22.2607 I0.0000 J-3.0000
N1270 X201.8796 Y-163.6618 Z-23.0000 I0.0000 J-3.0000
N1280 X201.8796 Y-163.6618 I-1.8796 J-2.3382
N1290 G00 Z10.0000
N1300 X200.0000 Y-186.0000
N1310 Z0.5000
N1320 G01 Z0.0000 F1200
N1330 G02 X200.0000 Y-186.0000 Z-6.8607 I0.0000 J3.0000 F1200.0
N1340 X197.9145 Y-185.1565 Z-7.7000 I0.0000 J3.0000
N1350 X197.0000 Y-183.0000 I2.0855 J2.1565
N1360 X197.0000 Y-183.0000 Z-14.5607 I3.0000 J0.0000
N1370 X197.8435 Y-180.9145 Z-15.4000 I3.0000 J0.0000
N1380 X200.0000 Y-180.0000 I2.1565 J-2.0855
N1390 X200.0000 Y-180.0000 Z-22.2607 I0.0000 J-3.0000
N1400 X201.8796 Y-180.6618 Z-23.0000 I0.0000 J-3.0000
N1410 X201.8796 Y-180.6618 I-1.8796 J-2.3382
N1420 G00 Z10.0000
N1430 X200.0000 Y-203.0000
N1440 Z0.5000
N1450 G01 Z0.0000 F1200
N1460 G02 X200.0000 Y-203.0000 Z-6.8607 I0.0000 J3.0000 F1200.0
N1470 X197.9145 Y-202.1565 Z-7.7000 I0.0000 J3.0000
N1480 X197.0000 Y-200.0000 I2.0855 J2.1565
N1490 X197.0000 Y-200.0000 Z-14.5607 I3.0000 J0.0000
N1500 X197.8435 Y-197.9145 Z-15.4000 I3.0000 J0.0000
N1510 X200.0000 Y-197.0000 I2.1565 J-2.0855
N1520 X200.0000 Y-197.0000 Z-22.2607 I0.0000 J-3.0000
N1530 X201.8796 Y-197.6618 Z-23.0000 I0.0000 J-3.0000
N1540 X201.8796 Y-197.6618 I-1.8796 J-2.3382
N1550 G00 Z10.0000
N1560 X183.0000 Y-203.0000
N1570 Z0.5000
N1580 G01 Z0.0000 F1200
N1590 G02 X183.0000 Y-203.0000 Z-6.8607 I0.0000 J3.0000 F1200.0
N1600 X180.9145 Y-202.1565 Z-7.7000 I0.0000 J3.0000
N1610 X180.0000 Y-200.0000 I2.0855 J2.1565
N1620 X180.0000 Y-200.0000 Z-14.5607 I3.0000 J0.0000
N1630 X180.8435 Y-197.9145 Z-15.4000 I3.0000 J0.0000
N1640 X183.0000 Y-197.0000 I2.1565 J-2.0855
N1650 X183.0000 Y-197.0000 Z-22.2607 I0.0000 J-3.0000
N1660 X184.8796 Y-197.6618 Z-23.0000 I0.0000 J-3.0000
N1670 X184.8796 Y-197.6618 I-1.8796 J-2.3382
N1680 G00 Z10.0000
N1690 X183.0000 Y-186.0000
N1700 Z0.5000
N1710 G01 Z0.0000 F1200
N1720 G02 X183.0000 Y-186.0000 Z-6.8607 I0.0000 J3.0000 F1200.0
N1730 X180.9145 Y-185.1565 Z-7.7000 I0.0000 J3.0000
N1740 X180.0000 Y-183.0000 I2.0855 J2.1565
N1750 X180.0000 Y-183.0000 Z-14.5607 I3.0000 J0.0000
N1760 X180.8435 Y-180.9145 Z-15.4000 I3.0000 J0.0000
N1770 X183.0000 Y-180.0000 I2.1565 J-2.0855
N1780 X183.0000 Y-180.0000 Z-22.2607 I0.0000 J-3.0000
N1790 X184.8796 Y-180.6618 Z-23.0000 I0.0000 J-3.0000
N1800 X184.8796 Y-180.6618 I-1.8796 J-2.3382
N1810 G00 Z10.0000
N1820 X183.0000 Y-169.0000
N1830 Z0.5000
N1840 G01 Z0.0000 F1200
N1850 G02 X183.0000 Y-169.0000 Z-6.8607 I0.0000 J3.0000 F1200.0
N1860 X180.9145 Y-168.1565 Z-7.7000 I0.0000 J3.0000
N1870 X180.0000 Y-166.0000 I2.0855 J2.1565
N1880 X180.0000 Y-166.0000 Z-14.5607 I3.0000 J0.0000
N1890 X180.8435 Y-163.9145 Z-15.4000 I3.0000 J0.0000
N1900 X183.0000 Y-163.0000 I2.1565 J-2.0855
N1910 X183.0000 Y-163.0000 Z-22.2607 I0.0000 J-3.0000
N1920 X184.8796 Y-163.6618 Z-23.0000 I0.0000 J-3.0000
N1930 X184.8796 Y-163.6618 I-1.8796 J-2.3382
N1940 G00 Z10.0000
N1950 X183.0000 Y-152.0000
N1960 Z0.5000
N1970 G01 Z0.0000 F1200
N1980 G02 X183.0000 Y-152.0000 Z-6.8607 I0.0000 J3.0000 F1200.0
N1990 X180.9145 Y-151.1565 Z-7.7000 I0.0000 J3.0000
N2000 X180.0000 Y-149.0000 I2.0855 J2.1565
N2010 X180.0000 Y-149.0000 Z-14.5607 I3.0000 J0.0000
N2020 X180.8435 Y-146.9145 Z-15.4000 I3.0000 J0.0000
N2030 X183.0000 Y-146.0000 I2.1565 J-2.0855
N2040 X183.0000 Y-146.0000 Z-22.2607 I0.0000 J-3.0000
N2050 X184.8796 Y-146.6618 Z-23.0000 I0.0000 J-3.0000
N2060 X184.8796 Y-146.6618 I-1.8796 J-2.3382
N2070 G00 Z10.0000
N2080 X183.0000 Y-135.0000
N2090 Z0.5000
N2100 G01 Z0.0000 F1200
N2110 G02 X183.0000 Y-135.0000 Z-6.8607 I0.0000 J3.0000 F1200.0
N2120 X180.9145 Y-134.1565 Z-7.7000 I0.0000 J3.0000
N2130 X180.0000 Y-132.0000 I2.0855 J2.1565
N2140 X180.0000 Y-132.0000 Z-14.5607 I3.0000 J0.0000
N2150 X180.8435 Y-129.9145 Z-15.4000 I3.0000 J0.0000
N2160 X183.0000 Y-129.0000 I2.1565 J-2.0855
N2170 X183.0000 Y-129.0000 Z-22.2607 I0.0000 J-3.0000
N2180 X184.8796 Y-129.6618 Z-23.0000 I0.0000 J-3.0000
N2190 X184.8796 Y-129.6618 I-1.8796 J-2.3382
N2200 G00 Z10.0000
N2210 X166.0000 Y-135.0000
N2220 Z0.5000
N2230 G01 Z0.0000 F1200
N2240 G02 X166.0000 Y-135.0000 Z-6.8607 I0.0000 J3.0000 F1200.0
N2250 X163.9145 Y-134.1565 Z-7.7000 I0.0000 J3.0000
N2260 X163.0000 Y-132.0000 I2.0855 J2.1565
N2270 X163.0000 Y-132.0000 Z-14.5607 I3.0000 J0.0000
N2280 X163.8435 Y-129.9145 Z-15.4000 I3.0000 J0.0000
N2290 X166.0000 Y-129.0000 I2.1565 J-2.0855
N2300 X166.0000 Y-129.0000 Z-22.2607 I0.0000 J-3.0000
N2310 X167.8796 Y-129.6618 Z-23.0000 I0.0000 J-3.0000
N2320 X167.8796 Y-129.6618 I-1.8796 J-2.3382
N2330 G00 Z10.0000
N2340 X166.0000 Y-152.0000
N2350 Z0.5000
N2360 G01 Z0.0000 F1200
N2370 G02 X166.0000 Y-152.0000 Z-6.8607 I0.0000 J3.0000 F1200.0
N2380 X163.9145 Y-151.1565 Z-7.7000 I0.0000 J3.0000
N2390 X163.0000 Y-149.0000 I2.0855 J2.1565
N2400 X163.0000 Y-149.0000 Z-14.5607 I3.0000 J0.0000
N2410 X163.8435 Y-146.9145 Z-15.4000 I3.0000 J0.0000
N2420 X166.0000 Y-146.0000 I2.1565 J-2.0855
N2430 X166.0000 Y-146.0000 Z-22.2607 I0.0000 J-3.0000
N2440 X167.8796 Y-146.6618 Z-23.0000 I0.0000 J-3.0000
N2450 X167.8796 Y-146.6618 I-1.8796 J-2.3382
N2460 G00 Z10.0000
N2470 X166.0000 Y-169.0000
N2480 Z0.5000
N2490 G01 Z0.0000 F1200
N2500 G02 X166.0000 Y-169.0000 Z-6.8607 I0.0000 J3.0000 F1200.0
N2510 X163.9145 Y-168.1565 Z-7.7000 I0.0000 J3.0000
N2520 X163.0000 Y-166.0000 I2.0855 J2.1565
N2530 X163.0000 Y-166.0000 Z-14.5607 I3.0000 J0.0000
N2540 X163.8435 Y-163.9145 Z-15.4000 I3.0000 J0.0000
N2550 X166.0000 Y-163.0000 I2.1565 J-2.0855
N2560 X166.0000 Y-163.0000 Z-22.2607 I0.0000 J-3.0000
N2570 X167.8796 Y-163.6618 Z-23.0000 I0.0000 J-3.0000
N2580 X167.8796 Y-163.6618 I-1.8796 J-2.3382
N2590 G00 Z10.0000
N2600 X166.0000 Y-186.0000
N2610 Z0.5000
N2620 G01 Z0.0000 F1200
N2630 G02 X166.0000 Y-186.0000 Z-6.8607 I0.0000 J3.0000 F1200.0
N2640 X163.9145 Y-185.1565 Z-7.7000 I0.0000 J3.0000
N2650 X163.0000 Y-183.0000 I2.0855 J2.1565
N2660 X163.0000 Y-183.0000 Z-14.5607 I3.0000 J0.0000
N2670 X163.8435 Y-180.9145 Z-15.4000 I3.0000 J0.0000
N2680 X166.0000 Y-180.0000 I2.1565 J-2.0855
N2690 X166.0000 Y-180.0000 Z-22.2607 I0.0000 J-3.0000
N2700 X167.8796 Y-180.6618 Z-23.0000 I0.0000 J-3.0000
N2710 X167.8796 Y-180.6618 I-1.8796 J-2.3382
N2720 G00 Z10.0000
N2730 X166.0000 Y-203.0000
N2740 Z0.5000
N2750 G01 Z0.0000 F1200
N2760 G02 X166.0000 Y-203.0000 Z-6.8607 I0.0000 J3.0000 F1200.0
N2770 X163.9145 Y-202.1565 Z-7.7000 I0.0000 J3.0000
N2780 X163.0000 Y-200.0000 I2.0855 J2.1565
N2790 X163.0000 Y-200.0000 Z-14.5607 I3.0000 J0.0000
N2800 X163.8435 Y-197.9145 Z-15.4000 I3.0000 J0.0000
N2810 X166.0000 Y-197.0000 I2.1565 J-2.0855
N2820 X166.0000 Y-197.0000 Z-22.2607 I0.0000 J-3.0000
N2830 X167.8796 Y-197.6618 Z-23.0000 I0.0000 J-3.0000
N2840 X167.8796 Y-197.6618 I-1.8796 J-2.3382
N2850 G00 Z10.0000
N2860 X149.0000 Y-203.0000
N2870 Z0.5000
N2880 G01 Z0.0000 F1200
N2890 G02 X149.0000 Y-203.0000 Z-6.8607 I0.0000 J3.0000 F1200.0
N2900 X146.9145 Y-202.1565 Z-7.7000 I0.0000 J3.0000
N2910 X146.0000 Y-200.0000 I2.0855 J2.1565
N2920 X146.0000 Y-200.0000 Z-14.5607 I3.0000 J0.0000
N2930 X146.8435 Y-197.9145 Z-15.4000 I3.0000 J0.0000
N2940 X149.0000 Y-197.0000 I2.1565 J-2.0855
N2950 X149.0000 Y-197.0000 Z-22.2607 I0.0000 J-3.0000
N2960 X150.8796 Y-197.6618 Z-23.0000 I0.0000 J-3.0000
N2970 X150.8796 Y-197.6618 I-1.8796 J-2.3382
N2980 G00 Z10.0000
N2990 X149.0000 Y-186.0000
N3000 Z0.5000
N3010 G01 Z0.0000 F1200
N3020 G02 X149.0000 Y-186.0000 Z-6.8607 I0.0000 J3.0000 F1200.0
N3030 X146.9145 Y-185.1565 Z-7.7000 I0.0000 J3.0000
N3040 X146.0000 Y-183.0000 I2.0855 J2.1565
N3050 X146.0000 Y-183.0000 Z-14.5607 I3.0000 J0.0000
N3060 X146.8435 Y-180.9145 Z-15.4000 I3.0000 J0.0000
N3070 X149.0000 Y-180.0000 I2.1565 J-2.0855
N3080 X149.0000 Y-180.0000 Z-22.2607 I0.0000 J-3.0000
N3090 X150.8796 Y-180.6618 Z-23.0000 I0.0000 J-3.0000
N3100 X150.8796 Y-180.6618 I-1.8796 J-2.3382
N3110 G00 Z10.0000
N3120 X149.0000 Y-169.0000
N3130 Z0.5000
N3140 G01 Z0.0000 F1200
N3150 G02 X149.0000 Y-169.0000 Z-6.8607 I0.0000 J3.0000 F1200.0
N3160 X146.9145 Y-168.1565 Z-7.7000 I0.0000 J3.0000
N3170 X146.0000 Y-166.0000 I2.0855 J2.1565
N3180 X146.0000 Y-166.0000 Z-14.5607 I3.0000 J0.0000
N3190 X146.8435 Y-163.9145 Z-15.4000 I3.0000 J0.0000
N3200 X149.0000 Y-163.0000 I2.1565 J-2.0855
N3210 X149.0000 Y-163.0000 Z-22.2607 I0.0000 J-3.0000
N3220 X150.8796 Y-163.6618 Z-23.0000 I0.0000 J-3.0000
N3230 X150.8796 Y-163.6618 I-1.8796 J-2.3382
N3240 G00 Z10.0000
N3250 X149.0000 Y-152.0000
N3260 Z0.5000
N3270 G01 Z0.0000 F1200
N3280 G02 X149.0000 Y-152.0000 Z-6.8607 I0.0000 J3.0000 F1200.0
N3290 X146.9145 Y-151.1565 Z-7.7000 I0.0000 J3.0000
N3300 X146.0000 Y-149.0000 I2.0855 J2.1565
N3310 X146.0000 Y-149.0000 Z-14.5607 I3.0000 J0.0000
N3320 X146.8435 Y-146.9145 Z-15.4000 I3.0000 J0.0000
N3330 X149.0000 Y-146.0000 I2.1565 J-2.0855
N3340 X149.0000 Y-146.0000 Z-22.2607 I0.0000 J-3.0000
N3350 X150.8796 Y-146.6618 Z-23.0000 I0.0000 J-3.0000
N3360 X150.8796 Y-146.6618 I-1.8796 J-2.3382
N3370 G00 Z10.0000
N3380 X149.0000 Y-135.0000
N3390 Z0.5000
N3400 G01 Z0.0000 F1200
N3410 G02 X149.0000 Y-135.0000 Z-6.8607 I0.0000 J3.0000 F1200.0
N3420 X146.9145 Y-134.1565 Z-7.7000 I0.0000 J3.0000
N3430 X146.0000 Y-132.0000 I2.0855 J2.1565
N3440 X146.0000 Y-132.0000 Z-14.5607 I3.0000 J0.0000
N3450 X146.8435 Y-129.9145 Z-15.4000 I3.0000 J0.0000
N3460 X149.0000 Y-129.0000 I2.1565 J-2.0855
N3470 X149.0000 Y-129.0000 Z-22.2607 I0.0000 J-3.0000
N3480 X150.8796 Y-129.6618 Z-23.0000 I0.0000 J-3.0000
N3490 X150.8796 Y-129.6618 I-1.8796 J-2.3382
N3500 G00 Z10.0000
N3510 X132.0000 Y-135.0000
N3520 Z0.5000
N3530 G01 Z0.0000 F1200
N3540 G02 X132.0000 Y-135.0000 Z-6.8607 I0.0000 J3.0000 F1200.0
N3550 X129.9145 Y-134.1565 Z-7.7000 I0.0000 J3.0000
N3560 X129.0000 Y-132.0000 I2.0855 J2.1565
N3570 X129.0000 Y-132.0000 Z-14.5607 I3.0000 J0.0000
N3580 X129.8435 Y-129.9145 Z-15.4000 I3.0000 J0.0000
N3590 X132.0000 Y-129.0000 I2.1565 J-2.0855
N3600 X132.0000 Y-129.0000 Z-22.2607 I0.0000 J-3.0000
N3610 X133.8796 Y-129.6618 Z-23.0000 I0.0000 J-3.0000
N3620 X133.8796 Y-129.6618 I-1.8796 J-2.3382
N3630 G00 Z10.0000
N3640 X132.0000 Y-152.0000
N3650 Z0.5000
N3660 G01 Z0.0000 F1200
N3670 G02 X132.0000 Y-152.0000 Z-6.8607 I0.0000 J3.0000 F1200.0
N3680 X129.9145 Y-151.1565 Z-7.7000 I0.0000 J3.0000
N3690 X129.0000 Y-149.0000 I2.0855 J2.1565
N3700 X129.0000 Y-149.0000 Z-14.5607 I3.0000 J0.0000
N3710 X129.8435 Y-146.9145 Z-15.4000 I3.0000 J0.0000
N3720 X132.0000 Y-146.0000 I2.1565 J-2.0855
N3730 X132.0000 Y-146.0000 Z-22.2607 I0.0000 J-3.0000
N3740 X133.8796 Y-146.6618 Z-23.0000 I0.0000 J-3.0000
N3750 X133.8796 Y-146.6618 I-1.8796 J-2.3382
N3760 G00 Z10.0000
N3770 X132.0000 Y-169.0000
N3780 Z0.5000
N3790 G01 Z0.0000 F1200
N3800 G02 X132.0000 Y-169.0000 Z-6.8607 I0.0000 J3.0000 F1200.0
N3810 X129.9145 Y-168.1565 Z-7.7000 I0.0000 J3.0000
N3820 X129.0000 Y-166.0000 I2.0855 J2.1565
N3830 X129.0000 Y-166.0000 Z-14.5607 I3.0000 J0.0000
N3840 X129.8435 Y-163.9145 Z-15.4000 I3.0000 J0.0000
N3850 X132.0000 Y-163.0000 I2.1565 J-2.0855
N3860 X132.0000 Y-163.0000 Z-22.2607 I0.0000 J-3.0000
N3870 X133.8796 Y-163.6618 Z-23.0000 I0.0000 J-3.0000
N3880 X133.8796 Y-163.6618 I-1.8796 J-2.3382
N3890 G00 Z10.0000
N3900 X132.0000 Y-186.0000
N3910 Z0.5000
N3920 G01 Z0.0000 F1200
N3930 G02 X132.0000 Y-186.0000 Z-6.8607 I0.0000 J3.0000 F1200.0
N3940 X129.9145 Y-185.1565 Z-7.7000 I0.0000 J3.0000
N3950 X129.0000 Y-183.0000 I2.0855 J2.1565
N3960 X129.0000 Y-183.0000 Z-14.5607 I3.0000 J0.0000
N3970 X129.8435 Y-180.9145 Z-15.4000 I3.0000 J0.0000
N3980 X132.0000 Y-180.0000 I2.1565 J-2.0855
N3990 X132.0000 Y-180.0000 Z-22.2607 I0.0000 J-3.0000
N4000 X133.8796 Y-180.6618 Z-23.0000 I0.0000 J-3.0000
N4010 X133.8796 Y-180.6618 I-1.8796 J-2.3382
N4020 G00 Z10.0000
N4030 X132.0000 Y-203.0000
N4040 Z0.5000
N4050 G01 Z0.0000 F1200
N4060 G02 X132.0000 Y-203.0000 Z-6.8607 I0.0000 J3.0000 F1200.0
N4070 X129.9145 Y-202.1565 Z-7.7000 I0.0000 J3.0000
N4080 X129.0000 Y-200.0000 I2.0855 J2.1565
N4090 X129.0000 Y-200.0000 Z-14.5607 I3.0000 J0.0000
N4100 X129.8435 Y-197.9145 Z-15.4000 I3.0000 J0.0000
N4110 X132.0000 Y-197.0000 I2.1565 J-2.0855
N4120 X132.0000 Y-197.0000 Z-22.2607 I0.0000 J-3.0000
N4130 X133.8796 Y-197.6618 Z-23.0000 I0.0000 J-3.0000
N4140 X133.8796 Y-197.6618 I-1.8796 J-2.3382
N4150 G00 Z10.0000
N4160 X115.0000 Y-203.0000
N4170 Z0.5000
N4180 G01 Z0.0000 F1200
N4190 G02 X115.0000 Y-203.0000 Z-6.8607 I0.0000 J3.0000 F1200.0
N4200 X112.9145 Y-202.1565 Z-7.7000 I0.0000 J3.0000
N4210 X112.0000 Y-200.0000 I2.0855 J2.1565
N4220 X112.0000 Y-200.0000 Z-14.5607 I3.0000 J0.0000
N4230 X112.8435 Y-197.9145 Z-15.4000 I3.0000 J0.0000
N4240 X115.0000 Y-197.0000 I2.1565 J-2.0855
N4250 X115.0000 Y-197.0000 Z-22.2607 I0.0000 J-3.0000
N4260 X116.8796 Y-197.6618 Z-23.0000 I0.0000 J-3.0000
N4270 X116.8796 Y-197.6618 I-1.8796 J-2.3382
N4280 G00 Z10.0000
N4290 X115.0000 Y-186.0000
N4300 Z0.5000
N4310 G01 Z0.0000 F1200
N4320 G02 X115.0000 Y-186.0000 Z-6.8607 I0.0000 J3.0000 F1200.0
N4330 X112.9145 Y-185.1565 Z-7.7000 I0.0000 J3.0000
N4340 X112.0000 Y-183.0000 I2.0855 J2.1565
N4350 X112.0000 Y-183.0000 Z-14.5607 I3.0000 J0.0000
N4360 X112.8435 Y-180.9145 Z-15.4000 I3.0000 J0.0000
N4370 X115.0000 Y-180.0000 I2.1565 J-2.0855
N4380 X115.0000 Y-180.0000 Z-22.2607 I0.0000 J-3.0000
N4390 X116.8796 Y-180.6618 Z-23.0000 I0.0000 J-3.0000
N4400 X116.8796 Y-180.6618 I-1.8796 J-2.3382
N4410 G00 Z10.0000
N4420 X115.0000 Y-169.0000
N4430 Z0.5000
N4440 G01 Z0.0000 F1200
N4450 G02 X115.0000 Y-169.0000 Z-6.8607 I0.0000 J3.0000 F1200.0
N4460 X112.9145 Y-168.1565 Z-7.7000 I0.0000 J3.0000
N4470 X112.0000 Y-166.0000 I2.0855 J2.1565
N4480 X112.0000 Y-166.0000 Z-14.5607 I3.0000 J0.0000
N4490 X112.8435 Y-163.9145 Z-15.4000 I3.0000 J0.0000
N4500 X115.0000 Y-163.0000 I2.1565 J-2.0855
N4510 X115.0000 Y-163.0000 Z-22.2607 I0.0000 J-3.0000
N4520 X116.8796 Y-163.6618 Z-23.0000 I0.0000 J-3.0000
N4530 X116.8796 Y-163.6618 I-1.8796 J-2.3382
N4540 G00 Z10.0000
N4550 X115.0000 Y-152.0000
N4560 Z0.5000
N4570 G01 Z0.0000 F1200
N4580 G02 X115.0000 Y-152.0000 Z-6.8607 I0.0000 J3.0000 F1200.0
N4590 X112.9145 Y-151.1565 Z-7.7000 I0.0000 J3.0000
N4600 X112.0000 Y-149.0000 I2.0855 J2.1565
N4610 X112.0000 Y-149.0000 Z-14.5607 I3.0000 J0.0000
N4620 X112.8435 Y-146.9145 Z-15.4000 I3.0000 J0.0000
N4630 X115.0000 Y-146.0000 I2.1565 J-2.0855
N4640 X115.0000 Y-146.0000 Z-22.2607 I0.0000 J-3.0000
N4650 X116.8796 Y-146.6618 Z-23.0000 I0.0000 J-3.0000
N4660 X116.8796 Y-146.6618 I-1.8796 J-2.3382
N4670 G00 Z10.0000
N4680 X115.0000 Y-135.0000
N4690 Z0.5000
N4700 G01 Z0.0000 F1200
N4710 G02 X115.0000 Y-135.0000 Z-6.8607 I0.0000 J3.0000 F1200.0
N4720 X112.9145 Y-134.1565 Z-7.7000 I0.0000 J3.0000
N4730 X112.0000 Y-132.0000 I2.0855 J2.1565
N4740 X112.0000 Y-132.0000 Z-14.5607 I3.0000 J0.0000
N4750 X112.8435 Y-129.9145 Z-15.4000 I3.0000 J0.0000
N4760 X115.0000 Y-129.0000 I2.1565 J-2.0855
N4770 X115.0000 Y-129.0000 Z-22.2607 I0.0000 J-3.0000
N4780 X116.8796 Y-129.6618 Z-23.0000 I0.0000 J-3.0000
N4790 X116.8796 Y-129.6618 I-1.8796 J-2.3382
N4800 G00 Z10.0000
N4810 X98.0000 Y-135.0000
N4820 Z0.5000
N4830 G01 Z0.0000 F1200
N4840 G02 X98.0000 Y-135.0000 Z-6.8607 I0.0000 J3.0000 F1200.0
N4850 X95.9145 Y-134.1565 Z-7.7000 I0.0000 J3.0000
N4860 X95.0000 Y-132.0000 I2.0855 J2.1565
N4870 X95.0000 Y-132.0000 Z-14.5607 I3.0000 J0.0000
N4880 X95.8435 Y-129.9145 Z-15.4000 I3.0000 J0.0000
N4890 X98.0000 Y-129.0000 I2.1565 J-2.0855
N4900 X98.0000 Y-129.0000 Z-22.2607 I0.0000 J-3.0000
N4910 X99.8796 Y-129.6618 Z-23.0000 I0.0000 J-3.0000
N4920 X99.8796 Y-129.6618 I-1.8796 J-2.3382
N4930 G00 Z10.0000
N4940 X98.0000 Y-152.0000
N4950 Z0.5000
N4960 G01 Z0.0000 F1200
N4970 G02 X98.0000 Y-152.0000 Z-6.8607 I0.0000 J3.0000 F1200.0
N4980 X95.9145 Y-151.1565 Z-7.7000 I0.0000 J3.0000
N4990 X95.0000 Y-149.0000 I2.0855 J2.1565
N5000 X95.0000 Y-149.0000 Z-14.5607 I3.0000 J0.0000
N5010 X95.8435 Y-146.9145 Z-15.4000 I3.0000 J0.0000
N5020 X98.0000 Y-146.0000 I2.1565 J-2.0855
N5030 X98.0000 Y-146.0000 Z-22.2607 I0.0000 J-3.0000
N5040 X99.8796 Y-146.6618 Z-23.0000 I0.0000 J-3.0000
N5050 X99.8796 Y-146.6618 I-1.8796 J-2.3382
N5060 G00 Z10.0000
N5070 X98.0000 Y-169.0000
N5080 Z0.5000
N5090 G01 Z0.0000 F1200
N5100 G02 X98.0000 Y-169.0000 Z-6.8607 I0.0000 J3.0000 F1200.0
N5110 X95.9145 Y-168.1565 Z-7.7000 I0.0000 J3.0000
N5120 X95.0000 Y-166.0000 I2.0855 J2.1565
N5130 X95.0000 Y-166.0000 Z-14.5607 I3.0000 J0.0000
N5140 X95.8435 Y-163.9145 Z-15.4000 I3.0000 J0.0000
N5150 X98.0000 Y-163.0000 I2.1565 J-2.0855
N5160 X98.0000 Y-163.0000 Z-22.2607 I0.0000 J-3.0000
N5170 X99.8796 Y-163.6618 Z-23.0000 I0.0000 J-3.0000
N5180 X99.8796 Y-163.6618 I-1.8796 J-2.3382
N5190 G00 Z10.0000
N5200 X98.0000 Y-186.0000
N5210 Z0.5000
N5220 G01 Z0.0000 F1200
N5230 G02 X98.0000 Y-186.0000 Z-6.8607 I0.0000 J3.0000 F1200.0
N5240 X95.9145 Y-185.1565 Z-7.7000 I0.0000 J3.0000
N5250 X95.0000 Y-183.0000 I2.0855 J2.1565
N5260 X95.0000 Y-183.0000 Z-14.5607 I3.0000 J0.0000
N5270 X95.8435 Y-180.9145 Z-15.4000 I3.0000 J0.0000
N5280 X98.0000 Y-180.0000 I2.1565 J-2.0855
N5290 X98.0000 Y-180.0000 Z-22.2607 I0.0000 J-3.0000
N5300 X99.8796 Y-180.6618 Z-23.0000 I0.0000 J-3.0000
N5310 X99.8796 Y-180.6618 I-1.8796 J-2.3382
N5320 G00 Z10.0000
N5330 X98.0000 Y-203.0000
N5340 Z0.5000
N5350 G01 Z0.0000 F1200
N5360 G02 X98.0000 Y-203.0000 Z-6.8607 I0.0000 J3.0000 F1200.0
N5370 X95.9145 Y-202.1565 Z-7.7000 I0.0000 J3.0000
N5380 X95.0000 Y-200.0000 I2.0855 J2.1565
N5390 X95.0000 Y-200.0000 Z-14.5607 I3.0000 J0.0000
N5400 X95.8435 Y-197.9145 Z-15.4000 I3.0000 J0.0000
N5410 X98.0000 Y-197.0000 I2.1565 J-2.0855
N5420 X98.0000 Y-197.0000 Z-22.2607 I0.0000 J-3.0000
N5430 X99.8796 Y-197.6618 Z-23.0000 I0.0000 J-3.0000
N5440 X99.8796 Y-197.6618 I-1.8796 J-2.3382
N5450 G00 Z10.0000
N5460 X81.0000 Y-203.0000
N5470 Z0.5000
N5480 G01 Z0.0000 F1200
N5490 G02 X81.0000 Y-203.0000 Z-6.8607 I0.0000 J3.0000 F1200.0
N5500 X78.9145 Y-202.1565 Z-7.7000 I0.0000 J3.0000
N5510 X78.0000 Y-200.0000 I2.0855 J2.1565
N5520 X78.0000 Y-200.0000 Z-14.5607 I3.0000 J0.0000
N5530 X78.8435 Y-197.9145 Z-15.4000 I3.0000 J0.0000
N5540 X81.0000 Y-197.0000 I2.1565 J-2.0855
N5550 X81.0000 Y-197.0000 Z-22.2607 I0.0000 J-3.0000
N5560 X82.8796 Y-197.6618 Z-23.0000 I0.0000 J-3.0000
N5570 X82.8796 Y-197.6618 I-1.8796 J-2.3382
N5580 G00 Z10.0000
N5590 X81.0000 Y-186.0000
N5600 Z0.5000
N5610 G01 Z0.0000 F1200
N5620 G02 X81.0000 Y-186.0000 Z-6.8607 I0.0000 J3.0000 F1200.0
N5630 X78.9145 Y-185.1565 Z-7.7000 I0.0000 J3.0000
N5640 X78.0000 Y-183.0000 I2.0855 J2.1565
N5650 X78.0000 Y-183.0000 Z-14.5607 I3.0000 J0.0000
N5660 X78.8435 Y-180.9145 Z-15.4000 I3.0000 J0.0000
N5670 X81.0000 Y-180.0000 I2.1565 J-2.0855
N5680 X81.0000 Y-180.0000 Z-22.2607 I0.0000 J-3.0000
N5690 X82.8796 Y-180.6618 Z-23.0000 I0.0000 J-3.0000
N5700 X82.8796 Y-180.6618 I-1.8796 J-2.3382
N5710 G00 Z10.0000
N5720 X81.0000 Y-169.0000
N5730 Z0.5000
N5740 G01 Z0.0000 F1200
N5750 G02 X81.0000 Y-169.0000 Z-6.8607 I0.0000 J3.0000 F1200.0
N5760 X78.9145 Y-168.1565 Z-7.7000 I0.0000 J3.0000
N5770 X78.0000 Y-166.0000 I2.0855 J2.1565
N5780 X78.0000 Y-166.0000 Z-14.5607 I3.0000 J0.0000
N5790 X78.8435 Y-163.9145 Z-15.4000 I3.0000 J0.0000
N5800 X81.0000 Y-163.0000 I2.1565 J-2.0855
N5810 X81.0000 Y-163.0000 Z-22.2607 I0.0000 J-3.0000
N5820 X82.8796 Y-163.6618 Z-23.0000 I0.0000 J-3.0000
N5830 X82.8796 Y-163.6618 I-1.8796 J-2.3382
N5840 G00 Z10.0000
N5850 X64.0000 Y-169.0000
N5860 Z0.5000
N5870 G01 Z0.0000 F1200
N5880 G02 X64.0000 Y-169.0000 Z-6.8607 I0.0000 J3.0000 F1200.0
N5890 X61.9145 Y-168.1565 Z-7.7000 I0.0000 J3.0000
N5900 X61.0000 Y-166.0000 I2.0855 J2.1565
N5910 X61.0000 Y-166.0000 Z-14.5607 I3.0000 J0.0000
N5920 X61.8435 Y-163.9145 Z-15.4000 I3.0000 J0.0000
N5930 X64.0000 Y-163.0000 I2.1565 J-2.0855
N5940 X64.0000 Y-163.0000 Z-22.2607 I0.0000 J-3.0000
N5950 X65.8796 Y-163.6618 Z-23.0000 I0.0000 J-3.0000
N5960 X65.8796 Y-163.6618 I-1.8796 J-2.3382
N5970 G00 Z10.0000
N5980 X64.0000 Y-186.0000
N5990 Z0.5000
N6000 G01 Z0.0000 F1200
N6010 G02 X64.0000 Y-186.0000 Z-6.8607 I0.0000 J3.0000 F1200.0
N6020 X61.9145 Y-185.1565 Z-7.7000 I0.0000 J3.0000
N6030 X61.0000 Y-183.0000 I2.0855 J2.1565
N6040 X61.0000 Y-183.0000 Z-14.5607 I3.0000 J0.0000
N6050 X61.8435 Y-180.9145 Z-15.4000 I3.0000 J0.0000
N6060 X64.0000 Y-180.0000 I2.1565 J-2.0855
N6070 X64.0000 Y-180.0000 Z-22.2607 I0.0000 J-3.0000
N6080 X65.8796 Y-180.6618 Z-23.0000 I0.0000 J-3.0000
N6090 X65.8796 Y-180.6618 I-1.8796 J-2.3382
N6100 G00 Z10.0000
N6110 X64.0000 Y-203.0000
N6120 Z0.5000
N6130 G01 Z0.0000 F1200
N6140 G02 X64.0000 Y-203.0000 Z-6.8607 I0.0000 J3.0000 F1200.0
N6150 X61.9145 Y-202.1565 Z-7.7000 I0.0000 J3.0000
N6160 X61.0000 Y-200.0000 I2.0855 J2.1565
N6170 X61.0000 Y-200.0000 Z-14.5607 I3.0000 J0.0000
N6180 X61.8435 Y-197.9145 Z-15.4000 I3.0000 J0.0000
N6190 X64.0000 Y-197.0000 I2.1565 J-2.0855
N6200 X64.0000 Y-197.0000 Z-22.2607 I0.0000 J-3.0000
N6210 X65.8796 Y-197.6618 Z-23.0000 I0.0000 J-3.0000
N6220 X65.8796 Y-197.6618 I-1.8796 J-2.3382
N6230 G00 Z10.0000
N6240 X47.0000 Y-203.0000
N6250 Z0.5000
N6260 G01 Z0.0000 F1200
N6270 G02 X47.0000 Y-203.0000 Z-6.8607 I0.0000 J3.0000 F1200.0
N6280 X44.9145 Y-202.1565 Z-7.7000 I0.0000 J3.0000
N6290 X44.0000 Y-200.0000 I2.0855 J2.1565
N6300 X44.0000 Y-200.0000 Z-14.5607 I3.0000 J0.0000
N6310 X44.8435 Y-197.9145 Z-15.4000 I3.0000 J0.0000
N6320 X47.0000 Y-197.0000 I2.1565 J-2.0855
N6330 X47.0000 Y-197.0000 Z-22.2607 I0.0000 J-3.0000
N6340 X48.8796 Y-197.6618 Z-23.0000 I0.0000 J-3.0000
N6350 X48.8796 Y-197.6618 I-1.8796 J-2.3382
N6360 G00 Z10.0000
N6370 X47.0000 Y-186.0000
N6380 Z0.5000
N6390 G01 Z0.0000 F1200
N6400 G02 X47.0000 Y-186.0000 Z-6.8607 I0.0000 J3.0000 F1200.0
N6410 X44.9145 Y-185.1565 Z-7.7000 I0.0000 J3.0000
N6420 X44.0000 Y-183.0000 I2.0855 J2.1565
N6430 X44.0000 Y-183.0000 Z-14.5607 I3.0000 J0.0000
N6440 X44.8435 Y-180.9145 Z-15.4000 I3.0000 J0.0000
N6450 X47.0000 Y-180.0000 I2.1565 J-2.0855
N6460 X47.0000 Y-180.0000 Z-22.2607 I0.0000 J-3.0000
N6470 X48.8796 Y-180.6618 Z-23.0000 I0.0000 J-3.0000
N6480 X48.8796 Y-180.6618 I-1.8796 J-2.3382
N6490 G00 Z10.0000
N6500 X47.0000 Y-169.0000
N6510 Z0.5000
N6520 G01 Z0.0000 F1200
N6530 G02 X47.0000 Y-169.0000 Z-6.8607 I0.0000 J3.0000 F1200.0
N6540 X44.9145 Y-168.1565 Z-7.7000 I0.0000 J3.0000
N6550 X44.0000 Y-166.0000 I2.0855 J2.1565
N6560 X44.0000 Y-166.0000 Z-14.5607 I3.0000 J0.0000
N6570 X44.8435 Y-163.9145 Z-15.4000 I3.0000 J0.0000
N6580 X47.0000 Y-163.0000 I2.1565 J-2.0855
N6590 X47.0000 Y-163.0000 Z-22.2607 I0.0000 J-3.0000
N6600 X48.8796 Y-163.6618 Z-23.0000 I0.0000 J-3.0000
N6610 X48.8796 Y-163.6618 I-1.8796 J-2.3382
N6620 G00 Z10.0000
N6630 X47.0000 Y-152.0000
N6640 Z0.5000
N6650 G01 Z0.0000 F1200
N6660 G02 X47.0000 Y-152.0000 Z-6.8607 I0.0000 J3.0000 F1200.0
N6670 X44.9145 Y-151.1565 Z-7.7000 I0.0000 J3.0000
N6680 X44.0000 Y-149.0000 I2.0855 J2.1565
N6690 X44.0000 Y-149.0000 Z-14.5607 I3.0000 J0.0000
N6700 X44.8435 Y-146.9145 Z-15.4000 I3.0000 J0.0000
N6710 X47.0000 Y-146.0000 I2.1565 J-2.0855
N6720 X47.0000 Y-146.0000 Z-22.2607 I0.0000 J-3.0000
N6730 X48.8796 Y-146.6618 Z-23.0000 I0.0000 J-3.0000
N6740 X48.8796 Y-146.6618 I-1.8796 J-2.3382
N6750 G00 Z10.0000
N6760 X64.0000 Y-152.0000
N6770 Z0.5000
N6780 G01 Z0.0000 F1200
N6790 G02 X64.0000 Y-152.0000 Z-6.8607 I0.0000 J3.0000 F1200.0
N6800 X61.9145 Y-151.1565 Z-7.7000 I0.0000 J3.0000
N6810 X61.0000 Y-149.0000 I2.0855 J2.1565
N6820 X61.0000 Y-149.0000 Z-14.5607 I3.0000 J0.0000
N6830 X61.8435 Y-146.9145 Z-15.4000 I3.0000 J0.0000
N6840 X64.0000 Y-146.0000 I2.1565 J-2.0855
N6850 X64.0000 Y-146.0000 Z-22.2607 I0.0000 J-3.0000
N6860 X65.8796 Y-146.6618 Z-23.0000 I0.0000 J-3.0000
N6870 X65.8796 Y-146.6618 I-1.8796 J-2.3382
N6880 G00 Z10.0000
N6890 X81.0000 Y-152.0000
N6900 Z0.5000
N6910 G01 Z0.0000 F1200
N6920 G02 X81.0000 Y-152.0000 Z-6.8607 I0.0000 J3.0000 F1200.0
N6930 X78.9145 Y-151.1565 Z-7.7000 I0.0000 J3.0000
N6940 X78.0000 Y-149.0000 I2.0855 J2.1565
N6950 X78.0000 Y-149.0000 Z-14.5607 I3.0000 J0.0000
N6960 X78.8435 Y-146.9145 Z-15.4000 I3.0000 J0.0000
N6970 X81.0000 Y-146.0000 I2.1565 J-2.0855
N6980 X81.0000 Y-146.0000 Z-22.2607 I0.0000 J-3.0000
N6990 X82.8796 Y-146.6618 Z-23.0000 I0.0000 J-3.0000
N7000 X82.8796 Y-146.6618 I-1.8796 J-2.3382
N7010 G00 Z10.0000
N7020 X81.0000 Y-135.0000
N7030 Z0.5000
N7040 G01 Z0.0000 F1200
N7050 G02 X81.0000 Y-135.0000 Z-6.8607 I0.0000 J3.0000 F1200.0
N7060 X78.9145 Y-134.1565 Z-7.7000 I0.0000 J3.0000
N7070 X78.0000 Y-132.0000 I2.0855 J2.1565
N7080 X78.0000 Y-132.0000 Z-14.5607 I3.0000 J0.0000
N7090 X78.8435 Y-129.9145 Z-15.4000 I3.0000 J0.0000
N7100 X81.0000 Y-129.0000 I2.1565 J-2.0855
N7110 X81.0000 Y-129.0000 Z-22.2607 I0.0000 J-3.0000
N7120 X82.8796 Y-129.6618 Z-23.0000 I0.0000 J-3.0000
N7130 X82.8796 Y-129.6618 I-1.8796 J-2.3382
N7140 G00 Z10.0000
N7150 X81.0000 Y-118.0000
N7160 Z0.5000
N7170 G01 Z0.0000 F1200
N7180 G02 X81.0000 Y-118.0000 Z-6.8607 I0.0000 J3.0000 F1200.0
N7190 X78.9145 Y-117.1565 Z-7.7000 I0.0000 J3.0000
N7200 X78.0000 Y-115.0000 I2.0855 J2.1565
N7210 X78.0000 Y-115.0000 Z-14.5607 I3.0000 J0.0000
N7220 X78.8435 Y-112.9145 Z-15.4000 I3.0000 J0.0000
N7230 X81.0000 Y-112.0000 I2.1565 J-2.0855
N7240 X81.0000 Y-112.0000 Z-22.2607 I0.0000 J-3.0000
N7250 X82.8796 Y-112.6618 Z-23.0000 I0.0000 J-3.0000
N7260 X82.8796 Y-112.6618 I-1.8796 J-2.3382
N7270 G00 Z10.0000
N7280 X98.0000 Y-118.0000
N7290 Z0.5000
N7300 G01 Z0.0000 F1200
N7310 G02 X98.0000 Y-118.0000 Z-6.8607 I0.0000 J3.0000 F1200.0
N7320 X95.9145 Y-117.1565 Z-7.7000 I0.0000 J3.0000
N7330 X95.0000 Y-115.0000 I2.0855 J2.1565
N7340 X95.0000 Y-115.0000 Z-14.5607 I3.0000 J0.0000
N7350 X95.8435 Y-112.9145 Z-15.4000 I3.0000 J0.0000
N7360 X98.0000 Y-112.0000 I2.1565 J-2.0855
N7370 X98.0000 Y-112.0000 Z-22.2607 I0.0000 J-3.0000
N7380 X99.8796 Y-112.6618 Z-23.0000 I0.0000 J-3.0000
N7390 X99.8796 Y-112.6618 I-1.8796 J-2.3382
N7400 G00 Z10.0000
N7410 X98.0000 Y-101.0000
N7420 Z0.5000
N7430 G01 Z0.0000 F1200
N7440 G02 X98.0000 Y-101.0000 Z-6.8607 I0.0000 J3.0000 F1200.0
N7450 X95.9145 Y-100.1565 Z-7.7000 I0.0000 J3.0000
N7460 X95.0000 Y-98.0000 I2.0855 J2.1565
N7470 X95.0000 Y-98.0000 Z-14.5607 I3.0000 J0.0000
N7480 X95.8435 Y-95.9145 Z-15.4000 I3.0000 J0.0000
N7490 X98.0000 Y-95.0000 I2.1565 J-2.0855
N7500 X98.0000 Y-95.0000 Z-22.2607 I0.0000 J-3.0000
N7510 X99.8796 Y-95.6618 Z-23.0000 I0.0000 J-3.0000
N7520 X99.8796 Y-95.6618 I-1.8796 J-2.3382
N7530 G00 Z10.0000
N7540 X98.0000 Y-84.0000
N7550 Z0.5000
N7560 G01 Z0.0000 F1200
N7570 G02 X98.0000 Y-84.0000 Z-6.8607 I0.0000 J3.0000 F1200.0
N7580 X95.9145 Y-83.1565 Z-7.7000 I0.0000 J3.0000
N7590 X95.0000 Y-81.0000 I2.0855 J2.1565
N7600 X95.0000 Y-81.0000 Z-14.5607 I3.0000 J0.0000
N7610 X95.8435 Y-78.9145 Z-15.4000 I3.0000 J0.0000
N7620 X98.0000 Y-78.0000 I2.1565 J-2.0855
N7630 X98.0000 Y-78.0000 Z-22.2607 I0.0000 J-3.0000
N7640 X99.8796 Y-78.6618 Z-23.0000 I0.0000 J-3.0000
N7650 X99.8796 Y-78.6618 I-1.8796 J-2.3382
N7660 G00 Z10.0000
N7670 X98.0000 Y-67.0000
N7680 Z0.5000
N7690 G01 Z0.0000 F1200
N7700 G02 X98.0000 Y-67.0000 Z-6.8607 I0.0000 J3.0000 F1200.0
N7710 X95.9145 Y-66.1565 Z-7.7000 I0.0000 J3.0000
N7720 X95.0000 Y-64.0000 I2.0855 J2.1565
N7730 X95.0000 Y-64.0000 Z-14.5607 I3.0000 J0.0000
N7740 X95.8435 Y-61.9145 Z-15.4000 I3.0000 J0.0000
N7750 X98.0000 Y-61.0000 I2.1565 J-2.0855
N7760 X98.0000 Y-61.0000 Z-22.2607 I0.0000 J-3.0000
N7770 X99.8796 Y-61.6618 Z-23.0000 I0.0000 J-3.0000
N7780 X99.8796 Y-61.6618 I-1.8796 J-2.3382
N7790 G00 Z10.0000
N7800 X98.0000 Y-50.0000
N7810 Z0.5000
N7820 G01 Z0.0000 F1200
N7830 G02 X98.0000 Y-50.0000 Z-6.8607 I0.0000 J3.0000 F1200.0
N7840 X95.9145 Y-49.1565 Z-7.7000 I0.0000 J3.0000
N7850 X95.0000 Y-47.0000 I2.0855 J2.1565
N7860 X95.0000 Y-47.0000 Z-14.5607 I3.0000 J0.0000
N7870 X95.8435 Y-44.9145 Z-15.4000 I3.0000 J0.0000
N7880 X98.0000 Y-44.0000 I2.1565 J-2.0855
N7890 X98.0000 Y-44.0000 Z-22.2607 I0.0000 J-3.0000
N7900 X99.8796 Y-44.6618 Z-23.0000 I0.0000 J-3.0000
N7910 X99.8796 Y-44.6618 I-1.8796 J-2.3382
N7920 G00 Z10.0000
N7930 X98.0000 Y-33.0000
N7940 Z0.5000
N7950 G01 Z0.0000 F1200
N7960 G02 X98.0000 Y-33.0000 Z-6.8607 I0.0000 J3.0000 F1200.0
N7970 X95.9145 Y-32.1565 Z-7.7000 I0.0000 J3.0000
N7980 X95.0000 Y-30.0000 I2.0855 J2.1565
N7990 X95.0000 Y-30.0000 Z-14.5607 I3.0000 J0.0000
N8000 X95.8435 Y-27.9145 Z-15.4000 I3.0000 J0.0000
N8010 X98.0000 Y-27.0000 I2.1565 J-2.0855
N8020 X98.0000 Y-27.0000 Z-22.2607 I0.0000 J-3.0000
N8030 X99.8796 Y-27.6618 Z-23.0000 I0.0000 J-3.0000
N8040 X99.8796 Y-27.6618 I-1.8796 J-2.3382
N8050 G00 Z10.0000
N8060 X81.0000 Y-33.0000
N8070 Z0.5000
N8080 G01 Z0.0000 F1200
N8090 G02 X81.0000 Y-33.0000 Z-6.8607 I0.0000 J3.0000 F1200.0
N8100 X78.9145 Y-32.1565 Z-7.7000 I0.0000 J3.0000
N8110 X78.0000 Y-30.0000 I2.0855 J2.1565
N8120 X78.0000 Y-30.0000 Z-14.5607 I3.0000 J0.0000
N8130 X78.8435 Y-27.9145 Z-15.4000 I3.0000 J0.0000
N8140 X81.0000 Y-27.0000 I2.1565 J-2.0855
N8150 X81.0000 Y-27.0000 Z-22.2607 I0.0000 J-3.0000
N8160 X82.8796 Y-27.6618 Z-23.0000 I0.0000 J-3.0000
N8170 X82.8796 Y-27.6618 I-1.8796 J-2.3382
N8180 G00 Z10.0000
N8190 X81.0000 Y-50.0000
N8200 Z0.5000
N8210 G01 Z0.0000 F1200
N8220 G02 X81.0000 Y-50.0000 Z-6.8607 I0.0000 J3.0000 F1200.0
N8230 X78.9145 Y-49.1565 Z-7.7000 I0.0000 J3.0000
N8240 X78.0000 Y-47.0000 I2.0855 J2.1565
N8250 X78.0000 Y-47.0000 Z-14.5607 I3.0000 J0.0000
N8260 X78.8435 Y-44.9145 Z-15.4000 I3.0000 J0.0000
N8270 X81.0000 Y-44.0000 I2.1565 J-2.0855
N8280 X81.0000 Y-44.0000 Z-22.2607 I0.0000 J-3.0000
N8290 X82.8796 Y-44.6618 Z-23.0000 I0.0000 J-3.0000
N8300 X82.8796 Y-44.6618 I-1.8796 J-2.3382
N8310 G00 Z10.0000
N8320 X81.0000 Y-67.0000
N8330 Z0.5000
N8340 G01 Z0.0000 F1200
N8350 G02 X81.0000 Y-67.0000 Z-6.8607 I0.0000 J3.0000 F1200.0
N8360 X78.9145 Y-66.1565 Z-7.7000 I0.0000 J3.0000
N8370 X78.0000 Y-64.0000 I2.0855 J2.1565
N8380 X78.0000 Y-64.0000 Z-14.5607 I3.0000 J0.0000
N8390 X78.8435 Y-61.9145 Z-15.4000 I3.0000 J0.0000
N8400 X81.0000 Y-61.0000 I2.1565 J-2.0855
N8410 X81.0000 Y-61.0000 Z-22.2607 I0.0000 J-3.0000
N8420 X82.8796 Y-61.6618 Z-23.0000 I0.0000 J-3.0000
N8430 X82.8796 Y-61.6618 I-1.8796 J-2.3382
N8440 G00 Z10.0000
N8450 X81.0000 Y-84.0000
N8460 Z0.5000
N8470 G01 Z0.0000 F1200
N8480 G02 X81.0000 Y-84.0000 Z-6.8607 I0.0000 J3.0000 F1200.0
N8490 X78.9145 Y-83.1565 Z-7.7000 I0.0000 J3.0000
N8500 X78.0000 Y-81.0000 I2.0855 J2.1565
N8510 X78.0000 Y-81.0000 Z-14.5607 I3.0000 J0.0000
N8520 X78.8435 Y-78.9145 Z-15.4000 I3.0000 J0.0000
N8530 X81.0000 Y-78.0000 I2.1565 J-2.0855
N8540 X81.0000 Y-78.0000 Z-22.2607 I0.0000 J-3.0000
N8550 X82.8796 Y-78.6618 Z-23.0000 I0.0000 J-3.0000
N8560 X82.8796 Y-78.6618 I-1.8796 J-2.3382
N8570 G00 Z10.0000
N8580 X81.0000 Y-101.0000
N8590 Z0.5000
N8600 G01 Z0.0000 F1200
N8610 G02 X81.0000 Y-101.0000 Z-6.8607 I0.0000 J3.0000 F1200.0
N8620 X78.9145 Y-100.1565 Z-7.7000 I0.0000 J3.0000
N8630 X78.0000 Y-98.0000 I2.0855 J2.1565
N8640 X78.0000 Y-98.0000 Z-14.5607 I3.0000 J0.0000
N8650 X78.8435 Y-95.9145 Z-15.4000 I3.0000 J0.0000
N8660 X81.0000 Y-95.0000 I2.1565 J-2.0855
N8670 X81.0000 Y-95.0000 Z-22.2607 I0.0000 J-3.0000
N8680 X82.8796 Y-95.6618 Z-23.0000 I0.0000 J-3.0000
N8690 X82.8796 Y-95.6618 I-1.8796 J-2.3382
N8700 G00 Z10.0000
N8710 X64.0000 Y-101.0000
N8720 Z0.5000
N8730 G01 Z0.0000 F1200
N8740 G02 X64.0000 Y-101.0000 Z-6.8607 I0.0000 J3.0000 F1200.0
N8750 X61.9145 Y-100.1565 Z-7.7000 I0.0000 J3.0000
N8760 X61.0000 Y-98.0000 I2.0855 J2.1565
N8770 X61.0000 Y-98.0000 Z-14.5607 I3.0000 J0.0000
N8780 X61.8435 Y-95.9145 Z-15.4000 I3.0000 J0.0000
N8790 X64.0000 Y-95.0000 I2.1565 J-2.0855
N8800 X64.0000 Y-95.0000 Z-22.2607 I0.0000 J-3.0000
N8810 X65.8796 Y-95.6618 Z-23.0000 I0.0000 J-3.0000
N8820 X65.8796 Y-95.6618 I-1.8796 J-2.3382
N8830 G00 Z10.0000
N8840 X64.0000 Y-118.0000
N8850 Z0.5000
N8860 G01 Z0.0000 F1200
N8870 G02 X64.0000 Y-118.0000 Z-6.8607 I0.0000 J3.0000 F1200.0
N8880 X61.9145 Y-117.1565 Z-7.7000 I0.0000 J3.0000
N8890 X61.0000 Y-115.0000 I2.0855 J2.1565
N8900 X61.0000 Y-115.0000 Z-14.5607 I3.0000 J0.0000
N8910 X61.8435 Y-112.9145 Z-15.4000 I3.0000 J0.0000
N8920 X64.0000 Y-112.0000 I2.1565 J-2.0855
N8930 X64.0000 Y-112.0000 Z-22.2607 I0.0000 J-3.0000
N8940 X65.8796 Y-112.6618 Z-23.0000 I0.0000 J-3.0000
N8950 X65.8796 Y-112.6618 I-1.8796 J-2.3382
N8960 G00 Z10.0000
N8970 X64.0000 Y-135.0000
N8980 Z0.5000
N8990 G01 Z0.0000 F1200
N9000 G02 X64.0000 Y-135.0000 Z-6.8607 I0.0000 J3.0000 F1200.0
N9010 X61.9145 Y-134.1565 Z-7.7000 I0.0000 J3.0000
N9020 X61.0000 Y-132.0000 I2.0855 J2.1565
N9030 X61.0000 Y-132.0000 Z-14.5607 I3.0000 J0.0000
N9040 X61.8435 Y-129.9145 Z-15.4000 I3.0000 J0.0000
N9050 X64.0000 Y-129.0000 I2.1565 J-2.0855
N9060 X64.0000 Y-129.0000 Z-22.2607 I0.0000 J-3.0000
N9070 X65.8796 Y-129.6618 Z-23.0000 I0.0000 J-3.0000
N9080 X65.8796 Y-129.6618 I-1.8796 J-2.3382
N9090 G00 Z10.0000
N9100 X47.0000 Y-135.0000
N9110 Z0.5000
N9120 G01 Z0.0000 F1200
N9130 G02 X47.0000 Y-135.0000 Z-6.8607 I0.0000 J3.0000 F1200.0
N9140 X44.9145 Y-134.1565 Z-7.7000 I0.0000 J3.0000
N9150 X44.0000 Y-132.0000 I2.0855 J2.1565
N9160 X44.0000 Y-132.0000 Z-14.5607 I3.0000 J0.0000
N9170 X44.8435 Y-129.9145 Z-15.4000 I3.0000 J0.0000
N9180 X47.0000 Y-129.0000 I2.1565 J-2.0855
N9190 X47.0000 Y-129.0000 Z-22.2607 I0.0000 J-3.0000
N9200 X48.8796 Y-129.6618 Z-23.0000 I0.0000 J-3.0000
N9210 X48.8796 Y-129.6618 I-1.8796 J-2.3382
N9220 G00 Z10.0000
N9230 X47.0000 Y-118.0000
N9240 Z0.5000
N9250 G01 Z0.0000 F1200
N9260 G02 X47.0000 Y-118.0000 Z-6.8607 I0.0000 J3.0000 F1200.0
N9270 X44.9145 Y-117.1565 Z-7.7000 I0.0000 J3.0000
N9280 X44.0000 Y-115.0000 I2.0855 J2.1565
N9290 X44.0000 Y-115.0000 Z-14.5607 I3.0000 J0.0000
N9300 X44.8435 Y-112.9145 Z-15.4000 I3.0000 J0.0000
N9310 X47.0000 Y-112.0000 I2.1565 J-2.0855
N9320 X47.0000 Y-112.0000 Z-22.2607 I0.0000 J-3.0000
N9330 X48.8796 Y-112.6618 Z-23.0000 I0.0000 J-3.0000
N9340 X48.8796 Y-112.6618 I-1.8796 J-2.3382
N9350 G00 Z10.0000
N9360 X47.0000 Y-101.0000
N9370 Z0.5000
N9380 G01 Z0.0000 F1200
N9390 G02 X47.0000 Y-101.0000 Z-6.8607 I0.0000 J3.0000 F1200.0
N9400 X44.9145 Y-100.1565 Z-7.7000 I0.0000 J3.0000
N9410 X44.0000 Y-98.0000 I2.0855 J2.1565
N9420 X44.0000 Y-98.0000 Z-14.5607 I3.0000 J0.0000
N9430 X44.8435 Y-95.9145 Z-15.4000 I3.0000 J0.0000
N9440 X47.0000 Y-95.0000 I2.1565 J-2.0855
N9450 X47.0000 Y-95.0000 Z-22.2607 I0.0000 J-3.0000
N9460 X48.8796 Y-95.6618 Z-23.0000 I0.0000 J-3.0000
N9470 X48.8796 Y-95.6618 I-1.8796 J-2.3382
N9480 G00 Z10.0000
N9490 X47.0000 Y-84.0000
N9500 Z0.5000
N9510 G01 Z0.0000 F1200
N9520 G02 X47.0000 Y-84.0000 Z-6.8607 I0.0000 J3.0000 F1200.0
N9530 X44.9145 Y-83.1565 Z-7.7000 I0.0000 J3.0000
N9540 X44.0000 Y-81.0000 I2.0855 J2.1565
N9550 X44.0000 Y-81.0000 Z-14.5607 I3.0000 J0.0000
N9560 X44.8435 Y-78.9145 Z-15.4000 I3.0000 J0.0000
N9570 X47.0000 Y-78.0000 I2.1565 J-2.0855
N9580 X47.0000 Y-78.0000 Z-22.2607 I0.0000 J-3.0000
N9590 X48.8796 Y-78.6618 Z-23.0000 I0.0000 J-3.0000
N9600 X48.8796 Y-78.6618 I-1.8796 J-2.3382
N9610 G00 Z10.0000
N9620 X64.0000 Y-84.0000
N9630 Z0.5000
N9640 G01 Z0.0000 F1200
N9650 G02 X64.0000 Y-84.0000 Z-6.8607 I0.0000 J3.0000 F1200.0
N9660 X61.9145 Y-83.1565 Z-7.7000 I0.0000 J3.0000
N9670 X61.0000 Y-81.0000 I2.0855 J2.1565
N9680 X61.0000 Y-81.0000 Z-14.5607 I3.0000 J0.0000
N9690 X61.8435 Y-78.9145 Z-15.4000 I3.0000 J0.0000
N9700 X64.0000 Y-78.0000 I2.1565 J-2.0855
N9710 X64.0000 Y-78.0000 Z-22.2607 I0.0000 J-3.0000
N9720 X65.8796 Y-78.6618 Z-23.0000 I0.0000 J-3.0000
N9730 X65.8796 Y-78.6618 I-1.8796 J-2.3382
N9740 G00 Z10.0000
N9750 X64.0000 Y-67.0000
N9760 Z0.5000
N9770 G01 Z0.0000 F1200
N9780 G02 X64.0000 Y-67.0000 Z-6.8607 I0.0000 J3.0000 F1200.0
N9790 X61.9145 Y-66.1565 Z-7.7000 I0.0000 J3.0000
N9800 X61.0000 Y-64.0000 I2.0855 J2.1565
N9810 X61.0000 Y-64.0000 Z-14.5607 I3.0000 J0.0000
N9820 X61.8435 Y-61.9145 Z-15.4000 I3.0000 J0.0000
N9830 X64.0000 Y-61.0000 I2.1565 J-2.0855
N9840 X64.0000 Y-61.0000 Z-22.2607 I0.0000 J-3.0000
N9850 X65.8796 Y-61.6618 Z-23.0000 I0.0000 J-3.0000
N9860 X65.8796 Y-61.6618 I-1.8796 J-2.3382
N9870 G00 Z10.0000
N9880 X64.0000 Y-50.0000
N9890 Z0.5000
N9900 G01 Z0.0000 F1200
N9910 G02 X64.0000 Y-50.0000 Z-6.8607 I0.0000 J3.0000 F1200.0
N9920 X61.9145 Y-49.1565 Z-7.7000 I0.0000 J3.0000
N9930 X61.0000 Y-47.0000 I2.0855 J2.1565
N9940 X61.0000 Y-47.0000 Z-14.5607 I3.0000 J0.0000
N9950 X61.8435 Y-44.9145 Z-15.4000 I3.0000 J0.0000
N9960 X64.0000 Y-44.0000 I2.1565 J-2.0855
N9970 X64.0000 Y-44.0000 Z-22.2607 I0.0000 J-3.0000
N9980 X65.8796 Y-44.6618 Z-23.0000 I0.0000 J-3.0000
N9990 X65.8796 Y-44.6618 I-1.8796 J-2.3382
N10000 G00 Z10.0000
N10010 X64.0000 Y-33.0000
N10020 Z0.5000
N10030 G01 Z0.0000 F1200
N10040 G02 X64.0000 Y-33.0000 Z-6.8607 I0.0000 J3.0000 F1200.0
N10050 X61.9145 Y-32.1565 Z-7.7000 I0.0000 J3.0000
N10060 X61.0000 Y-30.0000 I2.0855 J2.1565
N10070 X61.0000 Y-30.0000 Z-14.5607 I3.0000 J0.0000
N10080 X61.8435 Y-27.9145 Z-15.4000 I3.0000 J0.0000
N10090 X64.0000 Y-27.0000 I2.1565 J-2.0855
N10100 X64.0000 Y-27.0000 Z-22.2607 I0.0000 J-3.0000
N10110 X65.8796 Y-27.6618 Z-23.0000 I0.0000 J-3.0000
N10120 X65.8796 Y-27.6618 I-1.8796 J-2.3382
N10130 G00 Z10.0000
N10140 X47.0000 Y-33.0000
N10150 Z0.5000
N10160 G01 Z0.0000 F1200
N10170 G02 X47.0000 Y-33.0000 Z-6.8607 I0.0000 J3.0000 F1200.0
N10180 X44.9145 Y-32.1565 Z-7.7000 I0.0000 J3.0000
N10190 X44.0000 Y-30.0000 I2.0855 J2.1565
N10200 X44.0000 Y-30.0000 Z-14.5607 I3.0000 J0.0000
N10210 X44.8435 Y-27.9145 Z-15.4000 I3.0000 J0.0000
N10220 X47.0000 Y-27.0000 I2.1565 J-2.0855
N10230 X47.0000 Y-27.0000 Z-22.2607 I0.0000 J-3.0000
N10240 X48.8796 Y-27.6618 Z-23.0000 I0.0000 J-3.0000
N10250 X48.8796 Y-27.6618 I-1.8796 J-2.3382
N10260 G00 Z10.0000
N10270 X47.0000 Y-50.0000
N10280 Z0.5000
N10290 G01 Z0.0000 F1200
N10300 G02 X47.0000 Y-50.0000 Z-6.8607 I0.0000 J3.0000 F1200.0
N10310 X44.9145 Y-49.1565 Z-7.7000 I0.0000 J3.0000
N10320 X44.0000 Y-47.0000 I2.0855 J2.1565
N10330 X44.0000 Y-47.0000 Z-14.5607 I3.0000 J0.0000
N10340 X44.8435 Y-44.9145 Z-15.4000 I3.0000 J0.0000
N10350 X47.0000 Y-44.0000 I2.1565 J-2.0855
N10360 X47.0000 Y-44.0000 Z-22.2607 I0.0000 J-3.0000
N10370 X48.8796 Y-44.6618 Z-23.0000 I0.0000 J-3.0000
N10380 X48.8796 Y-44.6618 I-1.8796 J-2.3382
N10390 G00 Z10.0000
N10400 X47.0000 Y-67.0000
N10410 Z0.5000
N10420 G01 Z0.0000 F1200
N10430 G02 X47.0000 Y-67.0000 Z-6.8607 I0.0000 J3.0000 F1200.0
N10440 X44.9145 Y-66.1565 Z-7.7000 I0.0000 J3.0000
N10450 X44.0000 Y-64.0000 I2.0855 J2.1565
N10460 X44.0000 Y-64.0000 Z-14.5607 I3.0000 J0.0000
N10470 X44.8435 Y-61.9145 Z-15.4000 I3.0000 J0.0000
N10480 X47.0000 Y-61.0000 I2.1565 J-2.0855
N10490 X47.0000 Y-61.0000 Z-22.2607 I0.0000 J-3.0000
N10500 X48.8796 Y-61.6618 Z-23.0000 I0.0000 J-3.0000
N10510 X48.8796 Y-61.6618 I-1.8796 J-2.3382
N10520 G00 Z10.0000
N10530 X30.0000 Y-67.0000
N10540 Z0.5000
N10550 G01 Z0.0000 F1200
N10560 G02 X30.0000 Y-67.0000 Z-6.8607 I0.0000 J3.0000 F1200.0
N10570 X27.9145 Y-66.1565 Z-7.7000 I0.0000 J3.0000
N10580 X27.0000 Y-64.0000 I2.0855 J2.1565
N10590 X27.0000 Y-64.0000 Z-14.5607 I3.0000 J0.0000
N10600 X27.8435 Y-61.9145 Z-15.4000 I3.0000 J0.0000
N10610 X30.0000 Y-61.0000 I2.1565 J-2.0855
N10620 X30.0000 Y-61.0000 Z-22.2607 I0.0000 J-3.0000
N10630 X31.8796 Y-61.6618 Z-23.0000 I0.0000 J-3.0000
N10640 X31.8796 Y-61.6618 I-1.8796 J-2.3382
N10650 G00 Z10.0000
N10660 X30.0000 Y-84.0000
N10670 Z0.5000
N10680 G01 Z0.0000 F1200
N10690 G02 X30.0000 Y-84.0000 Z-6.8607 I0.0000 J3.0000 F1200.0
N10700 X27.9145 Y-83.1565 Z-7.7000 I0.0000 J3.0000
N10710 X27.0000 Y-81.0000 I2.0855 J2.1565
N10720 X27.0000 Y-81.0000 Z-14.5607 I3.0000 J0.0000
N10730 X27.8435 Y-78.9145 Z-15.4000 I3.0000 J0.0000
N10740 X30.0000 Y-78.0000 I2.1565 J-2.0855
N10750 X30.0000 Y-78.0000 Z-22.2607 I0.0000 J-3.0000
N10760 X31.8796 Y-78.6618 Z-23.0000 I0.0000 J-3.0000
N10770 X31.8796 Y-78.6618 I-1.8796 J-2.3382
N10780 G00 Z10.0000
N10790 X30.0000 Y-101.0000
N10800 Z0.5000
N10810 G01 Z0.0000 F1200
N10820 G02 X30.0000 Y-101.0000 Z-6.8607 I0.0000 J3.0000 F1200.0
N10830 X27.9145 Y-100.1565 Z-7.7000 I0.0000 J3.0000
N10840 X27.0000 Y-98.0000 I2.0855 J2.1565
N10850 X27.0000 Y-98.0000 Z-14.5607 I3.0000 J0.0000
N10860 X27.8435 Y-95.9145 Z-15.4000 I3.0000 J0.0000
N10870 X30.0000 Y-95.0000 I2.1565 J-2.0855
N10880 X30.0000 Y-95.0000 Z-22.2607 I0.0000 J-3.0000
N10890 X31.8796 Y-95.6618 Z-23.0000 I0.0000 J-3.0000
N10900 X31.8796 Y-95.6618 I-1.8796 J-2.3382
N10910 G00 Z10.0000
N10920 X30.0000 Y-118.0000
N10930 Z0.5000
N10940 G01 Z0.0000 F1200
N10950 G02 X30.0000 Y-118.0000 Z-6.8607 I0.0000 J3.0000 F1200.0
N10960 X27.9145 Y-117.1565 Z-7.7000 I0.0000 J3.0000
N10970 X27.0000 Y-115.0000 I2.0855 J2.1565
N10980 X27.0000 Y-115.0000 Z-14.5607 I3.0000 J0.0000
N10990 X27.8435 Y-112.9145 Z-15.4000 I3.0000 J0.0000
N11000 X30.0000 Y-112.0000 I2.1565 J-2.0855
N11010 X30.0000 Y-112.0000 Z-22.2607 I0.0000 J-3.0000
N11020 X31.8796 Y-112.6618 Z-23.0000 I0.0000 J-3.0000
N11030 X31.8796 Y-112.6618 I-1.8796 J-2.3382
N11040 G00 Z10.0000
N11050 X30.0000 Y-135.0000
N11060 Z0.5000
N11070 G01 Z0.0000 F1200
N11080 G02 X30.0000 Y-135.0000 Z-6.8607 I0.0000 J3.0000 F1200.0
N11090 X27.9145 Y-134.1565 Z-7.7000 I0.0000 J3.0000
N11100 X27.0000 Y-132.0000 I2.0855 J2.1565
N11110 X27.0000 Y-132.0000 Z-14.5607 I3.0000 J0.0000
N11120 X27.8435 Y-129.9145 Z-15.4000 I3.0000 J0.0000
N11130 X30.0000 Y-129.0000 I2.1565 J-2.0855
N11140 X30.0000 Y-129.0000 Z-22.2607 I0.0000 J-3.0000
N11150 X31.8796 Y-129.6618 Z-23.0000 I0.0000 J-3.0000
N11160 X31.8796 Y-129.6618 I-1.8796 J-2.3382
N11170 G00 Z10.0000
N11180 X30.0000 Y-152.0000
N11190 Z0.5000
N11200 G01 Z0.0000 F1200
N11210 G02 X30.0000 Y-152.0000 Z-6.8607 I0.0000 J3.0000 F1200.0
N11220 X27.9145 Y-151.1565 Z-7.7000 I0.0000 J3.0000
N11230 X27.0000 Y-149.0000 I2.0855 J2.1565
N11240 X27.0000 Y-149.0000 Z-14.5607 I3.0000 J0.0000
N11250 X27.8435 Y-146.9145 Z-15.4000 I3.0000 J0.0000
N11260 X30.0000 Y-146.0000 I2.1565 J-2.0855
N11270 X30.0000 Y-146.0000 Z-22.2607 I0.0000 J-3.0000
N11280 X31.8796 Y-146.6618 Z-23.0000 I0.0000 J-3.0000
N11290 X31.8796 Y-146.6618 I-1.8796 J-2.3382
N11300 G00 Z10.0000
N11310 X30.0000 Y-169.0000
N11320 Z0.5000
N11330 G01 Z0.0000 F1200
N11340 G02 X30.0000 Y-169.0000 Z-6.8607 I0.0000 J3.0000 F1200.0
N11350 X27.9145 Y-168.1565 Z-7.7000 I0.0000 J3.0000
N11360 X27.0000 Y-166.0000 I2.0855 J2.1565
N11370 X27.0000 Y-166.0000 Z-14.5607 I3.0000 J0.0000
N11380 X27.8435 Y-163.9145 Z-15.4000 I3.0000 J0.0000
N11390 X30.0000 Y-163.0000 I2.1565 J-2.0855
N11400 X30.0000 Y-163.0000 Z-22.2607 I0.0000 J-3.0000
N11410 X31.8796 Y-163.6618 Z-23.0000 I0.0000 J-3.0000
N11420 X31.8796 Y-163.6618 I-1.8796 J-2.3382
N11430 G00 Z10.0000
N11440 X30.0000 Y-186.0000
N11450 Z0.5000
N11460 G01 Z0.0000 F1200
N11470 G02 X30.0000 Y-186.0000 Z-6.8607 I0.0000 J3.0000 F1200.0
N11480 X27.9145 Y-185.1565 Z-7.7000 I0.0000 J3.0000
N11490 X27.0000 Y-183.0000 I2.0855 J2.1565
N11500 X27.0000 Y-183.0000 Z-14.5607 I3.0000 J0.0000
N11510 X27.8435 Y-180.9145 Z-15.4000 I3.0000 J0.0000
N11520 X30.0000 Y-180.0000 I2.1565 J-2.0855
N11530 X30.0000 Y-180.0000 Z-22.2607 I0.0000 J-3.0000
N11540 X31.8796 Y-180.6618 Z-23.0000 I0.0000 J-3.0000
N11550 X31.8796 Y-180.6618 I-1.8796 J-2.3382
N11560 G00 Z10.0000
N11570 X30.0000 Y-203.0000
N11580 Z0.5000
N11590 G01 Z0.0000 F1200
N11600 G02 X30.0000 Y-203.0000 Z-6.8607 I0.0000 J3.0000 F1200.0
N11610 X27.9145 Y-202.1565 Z-7.7000 I0.0000 J3.0000
N11620 X27.0000 Y-200.0000 I2.0855 J2.1565
N11630 X27.0000 Y-200.0000 Z-14.5607 I3.0000 J0.0000
N11640 X27.8435 Y-197.9145 Z-15.4000 I3.0000 J0.0000
N11650 X30.0000 Y-197.0000 I2.1565 J-2.0855
N11660 X30.0000 Y-197.0000 Z-22.2607 I0.0000 J-3.0000
N11670 X31.8796 Y-197.6618 Z-23.0000 I0.0000 J-3.0000
N11680 X31.8796 Y-197.6618 I-1.8796 J-2.3382
N11690 G00 Z10.0000
N11700 X115.0000 Y-101.0000
N11710 Z0.5000
N11720 G01 Z0.0000 F1200
N11730 G02 X115.0000 Y-101.0000 Z-6.8607 I0.0000 J3.0000 F1200.0
N11740 X112.9145 Y-100.1565 Z-7.7000 I0.0000 J3.0000
N11750 X112.0000 Y-98.0000 I2.0855 J2.1565
N11760 X112.0000 Y-98.0000 Z-14.5607 I3.0000 J0.0000
N11770 X112.8435 Y-95.9145 Z-15.4000 I3.0000 J0.0000
N11780 X115.0000 Y-95.0000 I2.1565 J-2.0855
N11790 X115.0000 Y-95.0000 Z-22.2607 I0.0000 J-3.0000
N11800 X116.8796 Y-95.6618 Z-23.0000 I0.0000 J-3.0000
N11810 X116.8796 Y-95.6618 I-1.8796 J-2.3382
N11820 G00 Z10.0000
N11830 X132.0000 Y-101.0000
N11840 Z0.5000
N11850 G01 Z0.0000 F1200
N11860 G02 X132.0000 Y-101.0000 Z-6.8607 I0.0000 J3.0000 F1200.0
N11870 X129.9145 Y-100.1565 Z-7.7000 I0.0000 J3.0000
N11880 X129.0000 Y-98.0000 I2.0855 J2.1565
N11890 X129.0000 Y-98.0000 Z-14.5607 I3.0000 J0.0000
N11900 X129.8435 Y-95.9145 Z-15.4000 I3.0000 J0.0000
N11910 X132.0000 Y-95.0000 I2.1565 J-2.0855
N11920 X132.0000 Y-95.0000 Z-22.2607 I0.0000 J-3.0000
N11930 X133.8796 Y-95.6618 Z-23.0000 I0.0000 J-3.0000
N11940 X133.8796 Y-95.6618 I-1.8796 J-2.3382
N11950 G00 Z10.0000
N11960 X149.0000 Y-101.0000
N11970 Z0.5000
N11980 G01 Z0.0000 F1200
N11990 G02 X149.0000 Y-101.0000 Z-6.8607 I0.0000 J3.0000 F1200.0
N12000 X146.9145 Y-100.1565 Z-7.7000 I0.0000 J3.0000
N12010 X146.0000 Y-98.0000 I2.0855 J2.1565
N12020 X146.0000 Y-98.0000 Z-14.5607 I3.0000 J0.0000
N12030 X146.8435 Y-95.9145 Z-15.4000 I3.0000 J0.0000
N12040 X149.0000 Y-95.0000 I2.1565 J-2.0855
N12050 X149.0000 Y-95.0000 Z-22.2607 I0.0000 J-3.0000
N12060 X150.8796 Y-95.6618 Z-23.0000 I0.0000 J-3.0000
N12070 X150.8796 Y-95.6618 I-1.8796 J-2.3382
N12080 G00 Z10.0000
N12090 X166.0000 Y-101.0000
N12100 Z0.5000
N12110 G01 Z0.0000 F1200
N12120 G02 X166.0000 Y-101.0000 Z-6.8607 I0.0000 J3.0000 F1200.0
N12130 X163.9145 Y-100.1565 Z-7.7000 I0.0000 J3.0000
N12140 X163.0000 Y-98.0000 I2.0855 J2.1565
N12150 X163.0000 Y-98.0000 Z-14.5607 I3.0000 J0.0000
N12160 X163.8435 Y-95.9145 Z-15.4000 I3.0000 J0.0000
N12170 X166.0000 Y-95.0000 I2.1565 J-2.0855
N12180 X166.0000 Y-95.0000 Z-22.2607 I0.0000 J-3.0000
N12190 X167.8796 Y-95.6618 Z-23.0000 I0.0000 J-3.0000
N12200 X167.8796 Y-95.6618 I-1.8796 J-2.3382
N12210 G00 Z10.0000
N12220 X183.0000 Y-101.0000
N12230 Z0.5000
N12240 G01 Z0.0000 F1200
N12250 G02 X183.0000 Y-101.0000 Z-6.8607 I0.0000 J3.0000 F1200.0
N12260 X180.9145 Y-100.1565 Z-7.7000 I0.0000 J3.0000
N12270 X180.0000 Y-98.0000 I2.0855 J2.1565
N12280 X180.0000 Y-98.0000 Z-14.5607 I3.0000 J0.0000
N12290 X180.8435 Y-95.9145 Z-15.4000 I3.0000 J0.0000
N12300 X183.0000 Y-95.0000 I2.1565 J-2.0855
N12310 X183.0000 Y-95.0000 Z-22.2607 I0.0000 J-3.0000
N12320 X184.8796 Y-95.6618 Z-23.0000 I0.0000 J-3.0000
N12330 X184.8796 Y-95.6618 I-1.8796 J-2.3382
N12340 G00 Z10.0000
N12350 X200.0000 Y-101.0000
N12360 Z0.5000
N12370 G01 Z0.0000 F1200
N12380 G02 X200.0000 Y-101.0000 Z-6.8607 I0.0000 J3.0000 F1200.0
N12390 X197.9145 Y-100.1565 Z-7.7000 I0.0000 J3.0000
N12400 X197.0000 Y-98.0000 I2.0855 J2.1565
N12410 X197.0000 Y-98.0000 Z-14.5607 I3.0000 J0.0000
N12420 X197.8435 Y-95.9145 Z-15.4000 I3.0000 J0.0000
N12430 X200.0000 Y-95.0000 I2.1565 J-2.0855
N12440 X200.0000 Y-95.0000 Z-22.2607 I0.0000 J-3.0000
N12450 X201.8796 Y-95.6618 Z-23.0000 I0.0000 J-3.0000
N12460 X201.8796 Y-95.6618 I-1.8796 J-2.3382
N12470 G00 Z10.0000
N12480 X200.0000 Y-84.0000
N12490 Z0.5000
N12500 G01 Z0.0000 F1200
N12510 G02 X200.0000 Y-84.0000 Z-6.8607 I0.0000 J3.0000 F1200.0
N12520 X197.9145 Y-83.1565 Z-7.7000 I0.0000 J3.0000
N12530 X197.0000 Y-81.0000 I2.0855 J2.1565
N12540 X197.0000 Y-81.0000 Z-14.5607 I3.0000 J0.0000
N12550 X197.8435 Y-78.9145 Z-15.4000 I3.0000 J0.0000
N12560 X200.0000 Y-78.0000 I2.1565 J-2.0855
N12570 X200.0000 Y-78.0000 Z-22.2607 I0.0000 J-3.0000
N12580 X201.8796 Y-78.6618 Z-23.0000 I0.0000 J-3.0000
N12590 X201.8796 Y-78.6618 I-1.8796 J-2.3382
N12600 G00 Z10.0000
N12610 X200.0000 Y-67.0000
N12620 Z0.5000
N12630 G01 Z0.0000 F1200
N12640 G02 X200.0000 Y-67.0000 Z-6.8607 I0.0000 J3.0000 F1200.0
N12650 X197.9145 Y-66.1565 Z-7.7000 I0.0000 J3.0000
N12660 X197.0000 Y-64.0000 I2.0855 J2.1565
N12670 X197.0000 Y-64.0000 Z-14.5607 I3.0000 J0.0000
N12680 X197.8435 Y-61.9145 Z-15.4000 I3.0000 J0.0000
N12690 X200.0000 Y-61.0000 I2.1565 J-2.0855
N12700 X200.0000 Y-61.0000 Z-22.2607 I0.0000 J-3.0000
N12710 X201.8796 Y-61.6618 Z-23.0000 I0.0000 J-3.0000
N12720 X201.8796 Y-61.6618 I-1.8796 J-2.3382
N12730 G00 Z10.0000
N12740 X200.0000 Y-50.0000
N12750 Z0.5000
N12760 G01 Z0.0000 F1200
N12770 G02 X200.0000 Y-50.0000 Z-6.8607 I0.0000 J3.0000 F1200.0
N12780 X197.9145 Y-49.1565 Z-7.7000 I0.0000 J3.0000
N12790 X197.0000 Y-47.0000 I2.0855 J2.1565
N12800 X197.0000 Y-47.0000 Z-14.5607 I3.0000 J0.0000
N12810 X197.8435 Y-44.9145 Z-15.4000 I3.0000 J0.0000
N12820 X200.0000 Y-44.0000 I2.1565 J-2.0855
N12830 X200.0000 Y-44.0000 Z-22.2607 I0.0000 J-3.0000
N12840 X201.8796 Y-44.6618 Z-23.0000 I0.0000 J-3.0000
N12850 X201.8796 Y-44.6618 I-1.8796 J-2.3382
N12860 G00 Z10.0000
N12870 X200.0000 Y-33.0000
N12880 Z0.5000
N12890 G01 Z0.0000 F1200
N12900 G02 X200.0000 Y-33.0000 Z-6.8607 I0.0000 J3.0000 F1200.0
N12910 X197.9145 Y-32.1565 Z-7.7000 I0.0000 J3.0000
N12920 X197.0000 Y-30.0000 I2.0855 J2.1565
N12930 X197.0000 Y-30.0000 Z-14.5607 I3.0000 J0.0000
N12940 X197.8435 Y-27.9145 Z-15.4000 I3.0000 J0.0000
N12950 X200.0000 Y-27.0000 I2.1565 J-2.0855
N12960 X200.0000 Y-27.0000 Z-22.2607 I0.0000 J-3.0000
N12970 X201.8796 Y-27.6618 Z-23.0000 I0.0000 J-3.0000
N12980 X201.8796 Y-27.6618 I-1.8796 J-2.3382
N12990 G00 Z10.0000
N13000 X183.0000 Y-33.0000
N13010 Z0.5000
N13020 G01 Z0.0000 F1200
N13030 G02 X183.0000 Y-33.0000 Z-6.8607 I0.0000 J3.0000 F1200.0
N13040 X180.9145 Y-32.1565 Z-7.7000 I0.0000 J3.0000
N13050 X180.0000 Y-30.0000 I2.0855 J2.1565
N13060 X180.0000 Y-30.0000 Z-14.5607 I3.0000 J0.0000
N13070 X180.8435 Y-27.9145 Z-15.4000 I3.0000 J0.0000
N13080 X183.0000 Y-27.0000 I2.1565 J-2.0855
N13090 X183.0000 Y-27.0000 Z-22.2607 I0.0000 J-3.0000
N13100 X184.8796 Y-27.6618 Z-23.0000 I0.0000 J-3.0000
N13110 X184.8796 Y-27.6618 I-1.8796 J-2.3382
N13120 G00 Z10.0000
N13130 X183.0000 Y-50.0000
N13140 Z0.5000
N13150 G01 Z0.0000 F1200
N13160 G02 X183.0000 Y-50.0000 Z-6.8607 I0.0000 J3.0000 F1200.0
N13170 X180.9145 Y-49.1565 Z-7.7000 I0.0000 J3.0000
N13180 X180.0000 Y-47.0000 I2.0855 J2.1565
N13190 X180.0000 Y-47.0000 Z-14.5607 I3.0000 J0.0000
N13200 X180.8435 Y-44.9145 Z-15.4000 I3.0000 J0.0000
N13210 X183.0000 Y-44.0000 I2.1565 J-2.0855
N13220 X183.0000 Y-44.0000 Z-22.2607 I0.0000 J-3.0000
N13230 X184.8796 Y-44.6618 Z-23.0000 I0.0000 J-3.0000
N13240 X184.8796 Y-44.6618 I-1.8796 J-2.3382
N13250 G00 Z10.0000
N13260 X183.0000 Y-67.0000
N13270 Z0.5000
N13280 G01 Z0.0000 F1200
N13290 G02 X183.0000 Y-67.0000 Z-6.8607 I0.0000 J3.0000 F1200.0
N13300 X180.9145 Y-66.1565 Z-7.7000 I0.0000 J3.0000
N13310 X180.0000 Y-64.0000 I2.0855 J2.1565
N13320 X180.0000 Y-64.0000 Z-14.5607 I3.0000 J0.0000
N13330 X180.8435 Y-61.9145 Z-15.4000 I3.0000 J0.0000
N13340 X183.0000 Y-61.0000 I2.1565 J-2.0855
N13350 X183.0000 Y-61.0000 Z-22.2607 I0.0000 J-3.0000
N13360 X184.8796 Y-61.6618 Z-23.0000 I0.0000 J-3.0000
N13370 X184.8796 Y-61.6618 I-1.8796 J-2.3382
N13380 G00 Z10.0000
N13390 X183.0000 Y-84.0000
N13400 Z0.5000
N13410 G01 Z0.0000 F1200
N13420 G02 X183.0000 Y-84.0000 Z-6.8607 I0.0000 J3.0000 F1200.0
N13430 X180.9145 Y-83.1565 Z-7.7000 I0.0000 J3.0000
N13440 X180.0000 Y-81.0000 I2.0855 J2.1565
N13450 X180.0000 Y-81.0000 Z-14.5607 I3.0000 J0.0000
N13460 X180.8435 Y-78.9145 Z-15.4000 I3.0000 J0.0000
N13470 X183.0000 Y-78.0000 I2.1565 J-2.0855
N13480 X183.0000 Y-78.0000 Z-22.2607 I0.0000 J-3.0000
N13490 X184.8796 Y-78.6618 Z-23.0000 I0.0000 J-3.0000
N13500 X184.8796 Y-78.6618 I-1.8796 J-2.3382
N13510 G00 Z10.0000
N13520 X166.0000 Y-84.0000
N13530 Z0.5000
N13540 G01 Z0.0000 F1200
N13550 G02 X166.0000 Y-84.0000 Z-6.8607 I0.0000 J3.0000 F1200.0
N13560 X163.9145 Y-83.1565 Z-7.7000 I0.0000 J3.0000
N13570 X163.0000 Y-81.0000 I2.0855 J2.1565
N13580 X163.0000 Y-81.0000 Z-14.5607 I3.0000 J0.0000
N13590 X163.8435 Y-78.9145 Z-15.4000 I3.0000 J0.0000
N13600 X166.0000 Y-78.0000 I2.1565 J-2.0855
N13610 X166.0000 Y-78.0000 Z-22.2607 I0.0000 J-3.0000
N13620 X167.8796 Y-78.6618 Z-23.0000 I0.0000 J-3.0000
N13630 X167.8796 Y-78.6618 I-1.8796 J-2.3382
N13640 G00 Z10.0000
N13650 X166.0000 Y-67.0000
N13660 Z0.5000
N13670 G01 Z0.0000 F1200
N13680 G02 X166.0000 Y-67.0000 Z-6.8607 I0.0000 J3.0000 F1200.0
N13690 X163.9145 Y-66.1565 Z-7.7000 I0.0000 J3.0000
N13700 X163.0000 Y-64.0000 I2.0855 J2.1565
N13710 X163.0000 Y-64.0000 Z-14.5607 I3.0000 J0.0000
N13720 X163.8435 Y-61.9145 Z-15.4000 I3.0000 J0.0000
N13730 X166.0000 Y-61.0000 I2.1565 J-2.0855
N13740 X166.0000 Y-61.0000 Z-22.2607 I0.0000 J-3.0000
N13750 X167.8796 Y-61.6618 Z-23.0000 I0.0000 J-3.0000
N13760 X167.8796 Y-61.6618 I-1.8796 J-2.3382
N13770 G00 Z10.0000
N13780 X166.0000 Y-50.0000
N13790 Z0.5000
N13800 G01 Z0.0000 F1200
N13810 G02 X166.0000 Y-50.0000 Z-6.8607 I0.0000 J3.0000 F1200.0
N13820 X163.9145 Y-49.1565 Z-7.7000 I0.0000 J3.0000
N13830 X163.0000 Y-47.0000 I2.0855 J2.1565
N13840 X163.0000 Y-47.0000 Z-14.5607 I3.0000 J0.0000
N13850 X163.8435 Y-44.9145 Z-15.4000 I3.0000 J0.0000
N13860 X166.0000 Y-44.0000 I2.1565 J-2.0855
N13870 X166.0000 Y-44.0000 Z-22.2607 I0.0000 J-3.0000
N13880 X167.8796 Y-44.6618 Z-23.0000 I0.0000 J-3.0000
N13890 X167.8796 Y-44.6618 I-1.8796 J-2.3382
N13900 G00 Z10.0000
N13910 X166.0000 Y-33.0000
N13920 Z0.5000
N13930 G01 Z0.0000 F1200
N13940 G02 X166.0000 Y-33.0000 Z-6.8607 I0.0000 J3.0000 F1200.0
N13950 X163.9145 Y-32.1565 Z-7.7000 I0.0000 J3.0000
N13960 X163.0000 Y-30.0000 I2.0855 J2.1565
N13970 X163.0000 Y-30.0000 Z-14.5607 I3.0000 J0.0000
N13980 X163.8435 Y-27.9145 Z-15.4000 I3.0000 J0.0000
N13990 X166.0000 Y-27.0000 I2.1565 J-2.0855
N14000 X166.0000 Y-27.0000 Z-22.2607 I0.0000 J-3.0000
N14010 X167.8796 Y-27.6618 Z-23.0000 I0.0000 J-3.0000
N14020 X167.8796 Y-27.6618 I-1.8796 J-2.3382
N14030 G00 Z10.0000
N14040 X149.0000 Y-33.0000
N14050 Z0.5000
N14060 G01 Z0.0000 F1200
N14070 G02 X149.0000 Y-33.0000 Z-6.8607 I0.0000 J3.0000 F1200.0
N14080 X146.9145 Y-32.1565 Z-7.7000 I0.0000 J3.0000
N14090 X146.0000 Y-30.0000 I2.0855 J2.1565
N14100 X146.0000 Y-30.0000 Z-14.5607 I3.0000 J0.0000
N14110 X146.8435 Y-27.9145 Z-15.4000 I3.0000 J0.0000
N14120 X149.0000 Y-27.0000 I2.1565 J-2.0855
N14130 X149.0000 Y-27.0000 Z-22.2607 I0.0000 J-3.0000
N14140 X150.8796 Y-27.6618 Z-23.0000 I0.0000 J-3.0000
N14150 X150.8796 Y-27.6618 I-1.8796 J-2.3382
N14160 G00 Z10.0000
N14170 X149.0000 Y-50.0000
N14180 Z0.5000
N14190 G01 Z0.0000 F1200
N14200 G02 X149.0000 Y-50.0000 Z-6.8607 I0.0000 J3.0000 F1200.0
N14210 X146.9145 Y-49.1565 Z-7.7000 I0.0000 J3.0000
N14220 X146.0000 Y-47.0000 I2.0855 J2.1565
N14230 X146.0000 Y-47.0000 Z-14.5607 I3.0000 J0.0000
N14240 X146.8435 Y-44.9145 Z-15.4000 I3.0000 J0.0000
N14250 X149.0000 Y-44.0000 I2.1565 J-2.0855
N14260 X149.0000 Y-44.0000 Z-22.2607 I0.0000 J-3.0000
N14270 X150.8796 Y-44.6618 Z-23.0000 I0.0000 J-3.0000
N14280 X150.8796 Y-44.6618 I-1.8796 J-2.3382
N14290 G00 Z10.0000
N14300 X149.0000 Y-67.0000
N14310 Z0.5000
N14320 G01 Z0.0000 F1200
N14330 G02 X149.0000 Y-67.0000 Z-6.8607 I0.0000 J3.0000 F1200.0
N14340 X146.9145 Y-66.1565 Z-7.7000 I0.0000 J3.0000
N14350 X146.0000 Y-64.0000 I2.0855 J2.1565
N14360 X146.0000 Y-64.0000 Z-14.5607 I3.0000 J0.0000
N14370 X146.8435 Y-61.9145 Z-15.4000 I3.0000 J0.0000
N14380 X149.0000 Y-61.0000 I2.1565 J-2.0855
N14390 X149.0000 Y-61.0000 Z-22.2607 I0.0000 J-3.0000
N14400 X150.8796 Y-61.6618 Z-23.0000 I0.0000 J-3.0000
N14410 X150.8796 Y-61.6618 I-1.8796 J-2.3382
N14420 G00 Z10.0000
N14430 X149.0000 Y-84.0000
N14440 Z0.5000
N14450 G01 Z0.0000 F1200
N14460 G02 X149.0000 Y-84.0000 Z-6.8607 I0.0000 J3.0000 F1200.0
N14470 X146.9145 Y-83.1565 Z-7.7000 I0.0000 J3.0000
N14480 X146.0000 Y-81.0000 I2.0855 J2.1565
N14490 X146.0000 Y-81.0000 Z-14.5607 I3.0000 J0.0000
N14500 X146.8435 Y-78.9145 Z-15.4000 I3.0000 J0.0000
N14510 X149.0000 Y-78.0000 I2.1565 J-2.0855
N14520 X149.0000 Y-78.0000 Z-22.2607 I0.0000 J-3.0000
N14530 X150.8796 Y-78.6618 Z-23.0000 I0.0000 J-3.0000
N14540 X150.8796 Y-78.6618 I-1.8796 J-2.3382
N14550 G00 Z10.0000
N14560 X132.0000 Y-84.0000
N14570 Z0.5000
N14580 G01 Z0.0000 F1200
N14590 G02 X132.0000 Y-84.0000 Z-6.8607 I0.0000 J3.0000 F1200.0
N14600 X129.9145 Y-83.1565 Z-7.7000 I0.0000 J3.0000
N14610 X129.0000 Y-81.0000 I2.0855 J2.1565
N14620 X129.0000 Y-81.0000 Z-14.5607 I3.0000 J0.0000
N14630 X129.8435 Y-78.9145 Z-15.4000 I3.0000 J0.0000
N14640 X132.0000 Y-78.0000 I2.1565 J-2.0855
N14650 X132.0000 Y-78.0000 Z-22.2607 I0.0000 J-3.0000
N14660 X133.8796 Y-78.6618 Z-23.0000 I0.0000 J-3.0000
N14670 X133.8796 Y-78.6618 I-1.8796 J-2.3382
N14680 G00 Z10.0000
N14690 X132.0000 Y-67.0000
N14700 Z0.5000
N14710 G01 Z0.0000 F1200
N14720 G02 X132.0000 Y-67.0000 Z-6.8607 I0.0000 J3.0000 F1200.0
N14730 X129.9145 Y-66.1565 Z-7.7000 I0.0000 J3.0000
N14740 X129.0000 Y-64.0000 I2.0855 J2.1565
N14750 X129.0000 Y-64.0000 Z-14.5607 I3.0000 J0.0000
N14760 X129.8435 Y-61.9145 Z-15.4000 I3.0000 J0.0000
N14770 X132.0000 Y-61.0000 I2.1565 J-2.0855
N14780 X132.0000 Y-61.0000 Z-22.2607 I0.0000 J-3.0000
N14790 X133.8796 Y-61.6618 Z-23.0000 I0.0000 J-3.0000
N14800 X133.8796 Y-61.6618 I-1.8796 J-2.3382
N14810 G00 Z10.0000
N14820 X132.0000 Y-50.0000
N14830 Z0.5000
N14840 G01 Z0.0000 F1200
N14850 G02 X132.0000 Y-50.0000 Z-6.8607 I0.0000 J3.0000 F1200.0
N14860 X129.9145 Y-49.1565 Z-7.7000 I0.0000 J3.0000
N14870 X129.0000 Y-47.0000 I2.0855 J2.1565
N14880 X129.0000 Y-47.0000 Z-14.5607 I3.0000 J0.0000
N14890 X129.8435 Y-44.9145 Z-15.4000 I3.0000 J0.0000
N14900 X132.0000 Y-44.0000 I2.1565 J-2.0855
N14910 X132.0000 Y-44.0000 Z-22.2607 I0.0000 J-3.0000
N14920 X133.8796 Y-44.6618 Z-23.0000 I0.0000 J-3.0000
N14930 X133.8796 Y-44.6618 I-1.8796 J-2.3382
N14940 G00 Z10.0000
N14950 X132.0000 Y-33.0000
N14960 Z0.5000
N14970 G01 Z0.0000 F1200
N14980 G02 X132.0000 Y-33.0000 Z-6.8607 I0.0000 J3.0000 F1200.0
N14990 X129.9145 Y-32.1565 Z-7.7000 I0.0000 J3.0000
N15000 X129.0000 Y-30.0000 I2.0855 J2.1565
N15010 X129.0000 Y-30.0000 Z-14.5607 I3.0000 J0.0000
N15020 X129.8435 Y-27.9145 Z-15.4000 I3.0000 J0.0000
N15030 X132.0000 Y-27.0000 I2.1565 J-2.0855
N15040 X132.0000 Y-27.0000 Z-22.2607 I0.0000 J-3.0000
N15050 X133.8796 Y-27.6618 Z-23.0000 I0.0000 J-3.0000
N15060 X133.8796 Y-27.6618 I-1.8796 J-2.3382
N15070 G00 Z10.0000
N15080 X115.0000 Y-33.0000
N15090 Z0.5000
N15100 G01 Z0.0000 F1200
N15110 G02 X115.0000 Y-33.0000 Z-6.8607 I0.0000 J3.0000 F1200.0
N15120 X112.9145 Y-32.1565 Z-7.7000 I0.0000 J3.0000
N15130 X112.0000 Y-30.0000 I2.0855 J2.1565
N15140 X112.0000 Y-30.0000 Z-14.5607 I3.0000 J0.0000
N15150 X112.8435 Y-27.9145 Z-15.4000 I3.0000 J0.0000
N15160 X115.0000 Y-27.0000 I2.1565 J-2.0855
N15170 X115.0000 Y-27.0000 Z-22.2607 I0.0000 J-3.0000
N15180 X116.8796 Y-27.6618 Z-23.0000 I0.0000 J-3.0000
N15190 X116.8796 Y-27.6618 I-1.8796 J-2.3382
N15200 G00 Z10.0000
N15210 X115.0000 Y-50.0000
N15220 Z0.5000
N15230 G01 Z0.0000 F1200
N15240 G02 X115.0000 Y-50.0000 Z-6.8607 I0.0000 J3.0000 F1200.0
N15250 X112.9145 Y-49.1565 Z-7.7000 I0.0000 J3.0000
N15260 X112.0000 Y-47.0000 I2.0855 J2.1565
N15270 X112.0000 Y-47.0000 Z-14.5607 I3.0000 J0.0000
N15280 X112.8435 Y-44.9145 Z-15.4000 I3.0000 J0.0000
N15290 X115.0000 Y-44.0000 I2.1565 J-2.0855
N15300 X115.0000 Y-44.0000 Z-22.2607 I0.0000 J-3.0000
N15310 X116.8796 Y-44.6618 Z-23.0000 I0.0000 J-3.0000
N15320 X116.8796 Y-44.6618 I-1.8796 J-2.3382
N15330 G00 Z10.0000
N15340 X115.0000 Y-67.0000
N15350 Z0.5000
N15360 G01 Z0.0000 F1200
N15370 G02 X115.0000 Y-67.0000 Z-6.8607 I0.0000 J3.0000 F1200.0
N15380 X112.9145 Y-66.1565 Z-7.7000 I0.0000 J3.0000
N15390 X112.0000 Y-64.0000 I2.0855 J2.1565
N15400 X112.0000 Y-64.0000 Z-14.5607 I3.0000 J0.0000
N15410 X112.8435 Y-61.9145 Z-15.4000 I3.0000 J0.0000
N15420 X115.0000 Y-61.0000 I2.1565 J-2.0855
N15430 X115.0000 Y-61.0000 Z-22.2607 I0.0000 J-3.0000
N15440 X116.8796 Y-61.6618 Z-23.0000 I0.0000 J-3.0000
N15450 X116.8796 Y-61.6618 I-1.8796 J-2.3382
N15460 G00 Z10.0000
N15470 X115.0000 Y-84.0000
N15480 Z0.5000
N15490 G01 Z0.0000 F1200
N15500 G02 X115.0000 Y-84.0000 Z-6.8607 I0.0000 J3.0000 F1200.0
N15510 X112.9145 Y-83.1565 Z-7.7000 I0.0000 J3.0000
N15520 X112.0000 Y-81.0000 I2.0855 J2.1565
N15530 X112.0000 Y-81.0000 Z-14.5607 I3.0000 J0.0000
N15540 X112.8435 Y-78.9145 Z-15.4000 I3.0000 J0.0000
N15550 X115.0000 Y-78.0000 I2.1565 J-2.0855
N15560 X115.0000 Y-78.0000 Z-22.2607 I0.0000 J-3.0000
N15570 X116.8796 Y-78.6618 Z-23.0000 I0.0000 J-3.0000
N15580 X116.8796 Y-78.6618 I-1.8796 J-2.3382
N15590 G00 Z10.0000
N15600 X30.0000 Y-50.0000
N15610 Z0.5000
N15620 G01 Z0.0000 F1200
N15630 G02 X30.0000 Y-50.0000 Z-6.8607 I0.0000 J3.0000 F1200.0
N15640 X27.9145 Y-49.1565 Z-7.7000 I0.0000 J3.0000
N15650 X27.0000 Y-47.0000 I2.0855 J2.1565
N15660 X27.0000 Y-47.0000 Z-14.5607 I3.0000 J0.0000
N15670 X27.8435 Y-44.9145 Z-15.4000 I3.0000 J0.0000
N15680 X30.0000 Y-44.0000 I2.1565 J-2.0855
N15690 X30.0000 Y-44.0000 Z-22.2607 I0.0000 J-3.0000
N15700 X31.8796 Y-44.6618 Z-23.0000 I0.0000 J-3.0000
N15710 X31.8796 Y-44.6618 I-1.8796 J-2.3382
N15720 G00 Z10.0000
N15730 X30.0000 Y-33.0000
N15740 Z0.5000
N15750 G01 Z0.0000 F1200
N15760 G02 X30.0000 Y-33.0000 Z-6.8607 I0.0000 J3.0000 F1200.0
N15770 X27.9145 Y-32.1565 Z-7.7000 I0.0000 J3.0000
N15780 X27.0000 Y-30.0000 I2.0855 J2.1565
N15790 X27.0000 Y-30.0000 Z-14.5607 I3.0000 J0.0000
N15800 X27.8435 Y-27.9145 Z-15.4000 I3.0000 J0.0000
N15810 X30.0000 Y-27.0000 I2.1565 J-2.0855
N15820 X30.0000 Y-27.0000 Z-22.2607 I0.0000 J-3.0000
N15830 X31.8796 Y-27.6618 Z-23.0000 I0.0000 J-3.0000
N15840 X31.8796 Y-27.6618 I-1.8796 J-2.3382
N15850 G00 Z10.0000
N15860 M05
N15870 M05 M30
