N0010 (Filename: Wortuhr_1mm.ngc)
N0020 (Post processor: LinuxCNC.scpost)
N0030 (Date: 13.11.2019)
N0040 G21 (Units: Metric)
N0050 G40 G90
N0060 F1
N0070 (Part: NONAME_2)
N0080 (Operation: Innen Versatz, cutout, T2: Fräser/Gravierer, 1 mm Durchmesser, 3 mm Tiefe)
N0090 M6 T2  (Fräser/Gravierer, 1 mm Durchmesser)
N0091 G61
N0100 G43 H2
N0110 G00 Z1.0000
N0120 M03 S1000
N0130 X118.0104 Y-116.9295
N0140 Z0.5000
N0150 G01 Z0.0000 F600
N0160 G02 X118.3634 Y-118.5649 Z-0.3053 I-1.5091 J-1.1816 F600.0
N0170 G01 X118.1944 Y-119.0419 Z-0.3945 F600
N0180 X117.9318 Y-119.4358 Z-0.4780
N0190 X117.5532 Y-119.7861 Z-0.5689
N0200 X117.0646 Y-120.0799 Z-0.6695
N0210 X116.4838 Y-120.2969 Z-0.7788
N0220 X115.8068 Y-120.4304 Z-0.9005
N0230 X115.0298 Y-120.4742 Z-1.0377
N0240 X114.4187 Y-120.4454 Z-1.1456
N0250 X113.7067 Y-120.3503 Z-1.2722
N0260 X112.8947 Y-120.1923 Z-1.4181
N0270 X112.4439 Y-120.0802 Z-1.5000
N0280 X112.3598 Y-120.0593 F1200
N0290 Y-119.7556
N0300 X112.5953 Y-119.8531
N0310 X112.6344 Y-119.8674
N0320 X113.4756 Y-120.1362
N0330 G03 X116.6173 Y-120.1135 I1.5382 J4.5411 F1200.0
N0340 X116.6841 Y-120.0842 I-0.1672 J0.4712
N0350 G01 X117.0334 Y-119.8992 F1200
N0360 G03 X117.1181 Y-119.8426 I-0.2340 J0.4419 F1200.0
N0370 G01 X117.3992 Y-119.6100 F1200
N0380 G03 X117.4803 Y-119.5251 I-0.3187 J0.3853 F1200.0
N0390 G01 X117.6801 Y-119.2591 F1200
N0400 G03 X117.7442 Y-119.1455 I-0.3998 J0.3003 F1200.0
N0410 G01 X117.8672 Y-118.8399 F1200
N0420 G03 X117.9002 Y-118.7095 I-0.4638 J0.1867 F1200.0
N0430 G01 X117.9387 Y-118.3692 F1200
N0440 G03 X117.9329 Y-118.2183 I-0.4968 J0.0563 F1200.0
N0450 G01 X117.8385 Y-117.7281 F1200
N0460 G03 X117.7458 Y-117.5203 I-0.4910 J-0.0945 F1200.0
N0470 G01 X117.4606 Y-117.1445 F1200
N0480 G03 X117.3173 Y-117.0167 I-0.3983 J-0.3023 F1200.0
N0490 G01 X116.7341 Y-116.6708 F1200
N0500 G03 X116.6703 Y-116.6389 I-0.2550 J-0.4301 F1200.0
N0510 G01 X115.6815 Y-116.2296 F1200
N0520 X115.6600 Y-116.2213
N0530 X114.6928 Y-115.8723
N0540 X114.0463 Y-115.6089
N0550 X113.5211 Y-115.3527
N0560 X113.1014 Y-115.0926
N0570 G02 X112.4239 Y-113.7321 I0.9078 J1.3010 F1200.0
N0580 G01 X112.4241 Y-113.6996 F1200
N0590 G02 X113.9478 Y-111.6905 I2.0136 J0.0552 F1200.0
N0600 G01 X114.5605 Y-111.5675 F1200
N0610 X115.2473 Y-111.5255
N0620 G02 X117.6168 Y-111.8593 I-0.2652 J-10.4589 F1200.0
N0630 G01 Y-112.0277 F1200
N0640 G03 X115.2788 Y-111.6223 I-2.6295 J-8.2195 F1200.0
N0650 X115.2133 Y-111.6244 I-0.0169 J-0.4997
N0660 G01 X114.3489 Y-111.7088 F1200
N0670 G03 X114.2110 Y-111.7425 I0.0486 J-0.4976 F1200.0
N0680 G01 X113.5913 Y-111.9916 F1200
N0690 G03 X113.4045 Y-112.1228 I0.1865 J-0.4639 F1200.0
N0700 G01 X113.0345 Y-112.5379 F1200
N0710 G03 X112.9187 Y-112.7665 I0.3733 J-0.3327 F1200.0
N0720 G01 X112.7947 Y-113.3491 F1200
N0730 G03 X112.7929 Y-113.5485 I0.4890 J-0.1041 F1200.0
N0740 G01 X112.8873 Y-114.0346 F1200
N0750 G03 X112.9728 Y-114.2322 I0.4908 J0.0953 F1200.0
N0760 G01 X113.2502 Y-114.6159 F1200
N0770 G03 X113.3886 Y-114.7459 I0.4053 J0.2929 F1200.0
N0780 G01 X113.9153 Y-115.0784 F1200
N0790 G03 X113.9944 Y-115.1189 I0.2669 J0.4228 F1200.0
N0800 G01 X114.8378 Y-115.4607 F1200
N0810 X114.8614 Y-115.4696
N0820 X116.6780 Y-116.1011
N0830 X116.6943 Y-116.1064
N0840 G02 X118.0104 Y-116.9295 I-0.8977 J-2.8993 F1200.0
N0850 X118.3634 Y-118.5649 Z-1.8053 I-1.5091 J-1.1816 F600.0
N0860 G01 X118.1944 Y-119.0419 Z-1.8945 F600
N0870 X117.9318 Y-119.4358 Z-1.9780
N0880 X117.5532 Y-119.7861 Z-2.0689
N0890 X117.0646 Y-120.0799 Z-2.1695
N0900 X116.4838 Y-120.2969 Z-2.2788
N0910 X115.8068 Y-120.4304 Z-2.4005
N0920 X115.0298 Y-120.4742 Z-2.5377
N0930 X114.4187 Y-120.4454 Z-2.6456
N0940 X113.7067 Y-120.3503 Z-2.7722
N0950 X112.8947 Y-120.1923 Z-2.9181
N0960 X112.4439 Y-120.0802 Z-3.0000
N0970 X112.3598 Y-120.0593 F1200
N0980 Y-119.7556
N0990 X112.5953 Y-119.8531
N1000 X112.6344 Y-119.8674
N1010 X113.4756 Y-120.1362
N1020 G03 X116.6173 Y-120.1135 I1.5382 J4.5411 F1200.0
N1030 X116.6841 Y-120.0842 I-0.1672 J0.4712
N1040 G01 X117.0334 Y-119.8992 F1200
N1050 G03 X117.1181 Y-119.8426 I-0.2340 J0.4419 F1200.0
N1060 G01 X117.3992 Y-119.6100 F1200
N1070 G03 X117.4803 Y-119.5251 I-0.3187 J0.3853 F1200.0
N1080 G01 X117.6801 Y-119.2591 F1200
N1090 G03 X117.7442 Y-119.1455 I-0.3998 J0.3003 F1200.0
N1100 G01 X117.8672 Y-118.8399 F1200
N1110 G03 X117.9002 Y-118.7095 I-0.4638 J0.1867 F1200.0
N1120 G01 X117.9387 Y-118.3692 F1200
N1130 G03 X117.9329 Y-118.2183 I-0.4968 J0.0563 F1200.0
N1140 G01 X117.8385 Y-117.7281 F1200
N1150 G03 X117.7458 Y-117.5203 I-0.4910 J-0.0945 F1200.0
N1160 G01 X117.4606 Y-117.1445 F1200
N1170 G03 X117.3173 Y-117.0167 I-0.3983 J-0.3023 F1200.0
N1180 G01 X116.7341 Y-116.6708 F1200
N1190 G03 X116.6703 Y-116.6389 I-0.2550 J-0.4301 F1200.0
N1200 G01 X115.6815 Y-116.2296 F1200
N1210 X115.6600 Y-116.2213
N1220 X114.6928 Y-115.8723
N1230 X114.0463 Y-115.6089
N1240 X113.5211 Y-115.3527
N1250 X113.1014 Y-115.0926
N1260 G02 X112.4239 Y-113.7321 I0.9078 J1.3010 F1200.0
N1270 G01 X112.4241 Y-113.6996 F1200
N1280 G02 X113.9478 Y-111.6905 I2.0136 J0.0552 F1200.0
N1290 G01 X114.5605 Y-111.5675 F1200
N1300 X115.2473 Y-111.5255
N1310 G02 X117.6168 Y-111.8593 I-0.2652 J-10.4589 F1200.0
N1320 G01 Y-112.0277 F1200
N1330 G03 X115.2788 Y-111.6223 I-2.6295 J-8.2195 F1200.0
N1340 X115.2133 Y-111.6244 I-0.0169 J-0.4997
N1350 G01 X114.3489 Y-111.7088 F1200
N1360 G03 X114.2110 Y-111.7425 I0.0486 J-0.4976 F1200.0
N1370 G01 X113.5913 Y-111.9916 F1200
N1380 G03 X113.4045 Y-112.1228 I0.1865 J-0.4639 F1200.0
N1390 G01 X113.0345 Y-112.5379 F1200
N1400 G03 X112.9187 Y-112.7665 I0.3733 J-0.3327 F1200.0
N1410 G01 X112.7947 Y-113.3491 F1200
N1420 G03 X112.7929 Y-113.5485 I0.4890 J-0.1041 F1200.0
N1430 G01 X112.8873 Y-114.0346 F1200
N1440 G03 X112.9728 Y-114.2322 I0.4908 J0.0953 F1200.0
N1450 G01 X113.2502 Y-114.6159 F1200
N1460 G03 X113.3886 Y-114.7459 I0.4053 J0.2929 F1200.0
N1470 G01 X113.9153 Y-115.0784 F1200
N1480 G03 X113.9944 Y-115.1189 I0.2669 J0.4228 F1200.0
N1490 G01 X114.8378 Y-115.4607 F1200
N1500 X114.8614 Y-115.4696
N1510 X116.6780 Y-116.1011
N1520 X116.6943 Y-116.1064
N1530 G02 X118.0104 Y-116.9295 I-0.8977 J-2.8993 F1200.0
N1540 X118.3634 Y-118.5649 I-1.5091 J-1.1816
N1550 G01 X118.1944 Y-119.0419 F1200
N1560 X117.9318 Y-119.4358
N1570 X117.5532 Y-119.7861
N1580 X117.0646 Y-120.0799
N1590 X116.4838 Y-120.2969
N1600 X115.8068 Y-120.4304
N1610 X115.0298 Y-120.4742
N1620 X114.4187 Y-120.4454
N1630 X113.7067 Y-120.3503
N1640 X112.8947 Y-120.1923
N1650 X112.4439 Y-120.0802
N1660 G00 Z1.0000
N1670 X116.0046 Y-128.8203
N1680 Z0.5000
N1690 G01 Z0.0000 F600
N1700 X116.4618 Y-128.8976 Z-0.0818
N1710 X116.8045 Y-129.0031 Z-0.1450
N1720 G02 X117.8396 Y-130.5281 Z-0.4922 I-0.5371 J-1.4783 F600.0
N1730 G01 Y-130.5576 Z-0.4974 F600
N1740 G02 X116.9345 Y-132.4264 Z-0.8780 I-2.2457 J-0.0659 F600.0
N1750 G01 X116.5219 Y-132.7106 Z-0.9664 F600
N1760 X116.0227 Y-132.9908 Z-1.0673
N1770 G03 X115.8691 Y-133.7290 Z-1.2179 I0.2448 J-0.4360 F600.0
N1780 G01 X116.8358 Y-135.0037 Z-1.5000 F600
N1790 X118.5367 Y-137.2466 F1200
N1800 X118.0235
N1810 X115.1791 Y-133.4941
N1820 G03 X114.7806 Y-133.2961 I-0.3985 J-0.3020 F1200.0
N1830 G01 X113.4639 F1200
N1840 G03 X112.9639 Y-133.7961 I0.0000 J-0.5000 F1200.0
N1850 G01 Y-137.2466 F1200
N1860 X112.5063
N1870 Y-133.1846
N1880 X114.2316 Y-133.1934
N1890 X114.2613 Y-133.1926
N1900 X114.8201 Y-133.1623
N1910 G03 X114.8895 Y-133.1537 I-0.0271 J0.4993 F1200.0
N1920 G01 X115.3835 Y-133.0565 F1200
N1930 G03 X115.4614 Y-133.0345 I-0.0965 J0.4906 F1200.0
N1940 G01 X115.8983 Y-132.8719 F1200
N1950 G03 X115.9819 Y-132.8315 I-0.1744 J0.4686 F1200.0
N1960 G01 X116.3564 Y-132.6059 F1200
N1970 X116.3946 Y-132.5804
N1980 G03 X117.2865 Y-130.7662 I-1.2979 J1.7645 F1200.0
N1990 G01 X117.2848 Y-130.7343 F1200
N2000 X117.2521 Y-130.3571
N2010 G03 X117.2318 Y-130.2533 I-0.4981 J-0.0432 F1200.0
N2020 G01 X117.1354 Y-129.9398 F1200
N2030 G03 X117.0771 Y-129.8150 I-0.4779 J-0.1470 F1200.0
N2040 G01 X116.9155 Y-129.5655 F1200
N2050 G03 X116.8077 Y-129.4465 I-0.4196 J-0.2718 F1200.0
N2060 G01 X116.5793 Y-129.2643 F1200
N2070 G03 X116.4646 Y-129.1956 I-0.3118 J-0.3908 F1200.0
N2080 G01 X116.1515 Y-129.0613 F1200
N2090 G03 X116.0633 Y-129.0328 I-0.1971 J-0.4595 F1200.0
N2100 G01 X115.6424 Y-128.9388 F1200
N2110 G03 X115.5856 Y-128.9295 I-0.1090 J-0.4880 F1200.0
N2120 G01 X115.0513 Y-128.8733 F1200
N2130 X115.0144 Y-128.8708
N2140 X114.3757 Y-128.8512
N2150 X114.3603 Y-128.8509
N2160 X113.4684
N2170 G03 X112.9684 Y-129.3509 I0.0000 J-0.5000 F1200.0
N2180 G01 Y-130.9359 F1200
N2190 X112.5094
N2200 X112.5069 Y-128.7565
N2210 X115.4066 Y-128.7725
N2220 X116.0046 Y-128.8203
N2230 X116.4618 Y-128.8976 Z-1.5818 F600
N2240 X116.8045 Y-129.0031 Z-1.6450
N2250 G02 X117.8396 Y-130.5281 Z-1.9922 I-0.5371 J-1.4783 F600.0
N2260 G01 Y-130.5576 Z-1.9974 F600
N2270 G02 X116.9345 Y-132.4264 Z-2.3780 I-2.2457 J-0.0659 F600.0
N2280 G01 X116.5219 Y-132.7106 Z-2.4664 F600
N2290 X116.0227 Y-132.9908 Z-2.5673
N2300 G03 X115.8691 Y-133.7290 Z-2.7179 I0.2448 J-0.4360 F600.0
N2310 G01 X116.8358 Y-135.0037 Z-3.0000 F600
N2320 X118.5367 Y-137.2466 F1200
N2330 X118.0235
N2340 X115.1791 Y-133.4941
N2350 G03 X114.7806 Y-133.2961 I-0.3985 J-0.3020 F1200.0
N2360 G01 X113.4639 F1200
N2370 G03 X112.9639 Y-133.7961 I0.0000 J-0.5000 F1200.0
N2380 G01 Y-137.2466 F1200
N2390 X112.5063
N2400 Y-133.1846
N2410 X114.2316 Y-133.1934
N2420 X114.2613 Y-133.1926
N2430 X114.8201 Y-133.1623
N2440 G03 X114.8895 Y-133.1537 I-0.0271 J0.4993 F1200.0
N2450 G01 X115.3835 Y-133.0565 F1200
N2460 G03 X115.4614 Y-133.0345 I-0.0965 J0.4906 F1200.0
N2470 G01 X115.8983 Y-132.8719 F1200
N2480 G03 X115.9819 Y-132.8315 I-0.1744 J0.4686 F1200.0
N2490 G01 X116.3564 Y-132.6059 F1200
N2500 X116.3946 Y-132.5804
N2510 G03 X117.2865 Y-130.7662 I-1.2979 J1.7645 F1200.0
N2520 G01 X117.2848 Y-130.7343 F1200
N2530 X117.2521 Y-130.3571
N2540 G03 X117.2318 Y-130.2533 I-0.4981 J-0.0432 F1200.0
N2550 G01 X117.1354 Y-129.9398 F1200
N2560 G03 X117.0771 Y-129.8150 I-0.4779 J-0.1470 F1200.0
N2570 G01 X116.9155 Y-129.5655 F1200
N2580 G03 X116.8077 Y-129.4465 I-0.4196 J-0.2718 F1200.0
N2590 G01 X116.5793 Y-129.2643 F1200
N2600 G03 X116.4646 Y-129.1956 I-0.3118 J-0.3908 F1200.0
N2610 G01 X116.1515 Y-129.0613 F1200
N2620 G03 X116.0633 Y-129.0328 I-0.1971 J-0.4595 F1200.0
N2630 G01 X115.6424 Y-128.9388 F1200
N2640 G03 X115.5856 Y-128.9295 I-0.1090 J-0.4880 F1200.0
N2650 G01 X115.0513 Y-128.8733 F1200
N2660 X115.0144 Y-128.8708
N2670 X114.3757 Y-128.8512
N2680 X114.3603 Y-128.8509
N2690 X113.4684
N2700 G03 X112.9684 Y-129.3509 I0.0000 J-0.5000 F1200.0
N2710 G01 Y-130.9359 F1200
N2720 X112.5094
N2730 X112.5069 Y-128.7565
N2740 X115.4066 Y-128.7725
N2750 X116.0046 Y-128.8203
N2760 X116.4618 Y-128.8976
N2770 X116.8045 Y-129.0031
N2780 G02 X117.8396 Y-130.5281 I-0.5371 J-1.4783 F1200.0
N2790 G01 Y-130.5576 F1200
N2800 G02 X116.9345 Y-132.4264 I-2.2457 J-0.0659 F1200.0
N2810 G01 X116.5219 Y-132.7106 F1200
N2820 X116.0227 Y-132.9908
N2830 G03 X115.8691 Y-133.7290 I0.2448 J-0.4360 F1200.0
N2840 G01 X116.8358 Y-135.0037 F1200
N2850 G00 Z1.0000
N2860 X129.8445 Y-128.7537
N2870 Z0.5000
N2880 G01 Z0.0000 F600
N2890 Y-132.4033 Z-0.6435
N2900 G03 X130.3445 Y-132.9033 Z-0.7820 I0.5000 J0.0000 F600.0
N2910 G01 X134.3615 Z-1.4903 F600
N2920 G03 X134.4163 Y-132.9003 Z-1.5000 I0.0000 J0.5000 F600.0
N2930 X134.8615 Y-132.4033 I-0.0548 J0.4970 F1200.0
N2940 G01 Y-128.7537 F1200
N2950 X135.3263
N2960 Y-137.2466
N2970 X134.8615
N2980 Y-133.5002
N2990 G03 X134.3615 Y-133.0002 I-0.5000 J0.0000 F1200.0
N3000 G01 X130.3445 F1200
N3010 G03 X129.8445 Y-133.5002 I0.0000 J-0.5000 F1200.0
N3020 G01 Y-137.2466 F1200
N3030 X129.3893
N3040 Y-128.7537
N3050 X129.8445
N3060 Y-132.4033 Z-2.1435 F600
N3070 G03 X130.3445 Y-132.9033 Z-2.2820 I0.5000 J0.0000 F600.0
N3080 G01 X134.3615 Z-2.9903 F600
N3090 G03 X134.4163 Y-132.9003 Z-3.0000 I0.0000 J0.5000 F600.0
N3100 X134.8615 Y-132.4033 I-0.0548 J0.4970 F1200.0
N3110 G01 Y-128.7537 F1200
N3120 X135.3263
N3130 Y-137.2466
N3140 X134.8615
N3150 Y-133.5002
N3160 G03 X134.3615 Y-133.0002 I-0.5000 J0.0000 F1200.0
N3170 G01 X130.3445 F1200
N3180 G03 X129.8445 Y-133.5002 I0.0000 J-0.5000 F1200.0
N3190 G01 Y-137.2466 F1200
N3200 X129.3893
N3210 Y-128.7537
N3220 X129.8445
N3230 Y-132.4033
N3240 G03 X130.3445 Y-132.9033 I0.5000 J0.0000 F1200.0
N3250 G01 X134.3615 F1200
N3260 G03 X134.4163 Y-132.9003 I0.0000 J0.5000 F1200.0
N3270 G00 Z1.0000
N3280 X131.6247 Y-120.1509
N3290 Z0.5000
N3300 G01 Z0.0000 F600
N3310 G03 X132.1247 Y-119.6509 Z-0.1385 I0.0000 J0.5000 F600.0
N3320 G01 Y-112.3523 Z-1.4254 F600
N3330 G03 X131.9562 Y-111.9781 Z-1.5000 I-0.5000 J0.0000 F600.0
N3340 X131.6247 Y-111.8523 I-0.3316 J-0.3743 F1200.0
N3350 G01 X129.5719 F1200
N3360 Y-111.7551
N3370 X135.1403
N3380 Y-111.8523
N3390 X133.0882
N3400 G03 X132.5882 Y-112.3523 I0.0000 J-0.5000 F1200.0
N3410 G01 Y-119.6509 F1200
N3420 G03 X133.0882 Y-120.1509 I0.5000 J0.0000 F1200.0
N3430 G01 X135.1403 F1200
N3440 Y-120.2451
N3450 X129.5719
N3460 Y-120.1509
N3470 X131.6247
N3480 G03 X132.1247 Y-119.6509 Z-1.6385 I0.0000 J0.5000 F600.0
N3490 G01 Y-112.3523 Z-2.9254 F600
N3500 G03 X131.9562 Y-111.9781 Z-3.0000 I-0.5000 J0.0000 F600.0
N3510 X131.6247 Y-111.8523 I-0.3316 J-0.3743 F1200.0
N3520 G01 X129.5719 F1200
N3530 Y-111.7551
N3540 X135.1403
N3550 Y-111.8523
N3560 X133.0882
N3570 G03 X132.5882 Y-112.3523 I0.0000 J-0.5000 F1200.0
N3580 G01 Y-119.6509 F1200
N3590 G03 X133.0882 Y-120.1509 I0.5000 J0.0000 F1200.0
N3600 G01 X135.1403 F1200
N3610 Y-120.2451
N3620 X129.5719
N3630 Y-120.1509
N3640 X131.6247
N3650 G03 X132.1247 Y-119.6509 I0.0000 J0.5000 F1200.0
N3660 G01 Y-112.3523 F1200
N3670 G03 X131.9562 Y-111.9781 I-0.5000 J0.0000 F1200.0
N3680 G00 Z1.0000
N3690 X134.4552 Y-103.2451
N3700 Z0.5000
N3710 G01 Z0.0000 F600
N3720 X133.6926 Z-0.1345
N3730 X132.4644 Y-98.0605 Z-1.0740
N3740 G03 X131.4913 Y-98.0603 Z-1.3099 I-0.4865 J-0.1153 F600.0
N3750 G01 X131.2425 Y-99.1094 Z-1.5000 F600
N3760 X130.2617 Y-103.2437 F1200
N3770 X129.4017 Y-103.2446
N3780 X128.1402 Y-94.7549
N3790 X128.3685
N3800 X129.4809 Y-102.2128
N3810 G03 X130.4592 Y-102.2655 I0.4945 J0.0738 F1200.0
N3820 G01 X130.4693 Y-102.2270 F1200
N3830 X130.4724 Y-102.2142
N3840 X131.7461 Y-96.7586
N3850 X132.3518
N3860 X133.6236 Y-102.1653
N3870 G03 X134.6042 Y-102.1283 I0.4867 J0.1145 F1200.0
N3880 G01 X135.7612 Y-94.7560 F1200
N3890 X135.8518 Y-94.7561
N3900 X134.4552 Y-103.2451
N3910 X133.6926 Z-1.6345 F600
N3920 X132.4644 Y-98.0605 Z-2.5740
N3930 G03 X131.4913 Y-98.0603 Z-2.8099 I-0.4865 J-0.1153 F600.0
N3940 G01 X131.2425 Y-99.1094 Z-3.0000 F600
N3950 X130.2617 Y-103.2437 F1200
N3960 X129.4017 Y-103.2446
N3970 X128.1402 Y-94.7549
N3980 X128.3685
N3990 X129.4809 Y-102.2128
N4000 G03 X130.4592 Y-102.2655 I0.4945 J0.0738 F1200.0
N4010 G01 X130.4693 Y-102.2270 F1200
N4020 X130.4724 Y-102.2142
N4030 X131.7461 Y-96.7586
N4040 X132.3518
N4050 X133.6236 Y-102.1653
N4060 G03 X134.6042 Y-102.1283 I0.4867 J0.1145 F1200.0
N4070 G01 X135.7612 Y-94.7560 F1200
N4080 X135.8518 Y-94.7561
N4090 X134.4552 Y-103.2451
N4100 X133.6926
N4110 X132.4644 Y-98.0605
N4120 G03 X131.4913 Y-98.0603 I-0.4865 J-0.1153 F1200.0
N4130 G01 X131.2425 Y-99.1094 F1200
N4140 G00 Z1.0000
N4150 X145.7255 Y-100.8878
N4160 Z0.5000
N4170 G01 Z0.0000 F600
N4180 G02 X145.7180 Y-96.2819 Z-0.8245 I7.4280 J2.3151 F600.0
N4190 G01 X147.0587 Y-94.6584 Z-1.1958 F600
N4200 G02 X148.6332 Y-94.3137 Z-1.4813 I1.7963 J-4.4368 F600.0
N4210 G01 X148.6688 Y-94.3107 Z-1.4876 F600
N4220 G02 X148.7386 Y-94.3032 Z-1.5000 I0.3958 J-3.3421 F600.0
N4230 X150.8448 Y-94.7968 I0.3259 J-3.3496 F1200.0
N4240 G01 X150.7554 Y-94.9031 F1200
N4250 X150.7264 Y-94.8662
N4260 X150.7004 Y-94.8357
N4270 X150.6667 Y-94.7994
N4280 G03 X150.4978 Y-94.6799 I-0.3670 J-0.3396 F1200.0
N4290 G01 X150.4770 Y-94.6709 F1200
N4300 X150.4637 Y-94.6654
N4310 G03 X149.1306 Y-94.3940 I-1.4218 J-3.5746 F1200.0
N4320 X147.3884 Y-94.8829 I-0.1773 J-2.7167
N4330 X147.3387 Y-94.9228 I0.2874 J-0.4091
N4340 X145.9553 Y-97.4565 I2.9924 J-3.2783
N4350 X145.9483 Y-97.5403 I0.4929 J-0.0839
N4360 G01 Y-99.4051 F1200
N4370 G03 X145.9557 Y-99.4913 I0.5000 J0.0000 F1200.0
N4380 G01 X146.1236 Y-100.4514 F1200
N4390 X145.7350 Y-100.9139
N4400 X145.7255 Y-100.8878
N4410 G02 X145.7180 Y-96.2819 Z-2.3245 I7.4280 J2.3151 F600.0
N4420 G01 X147.0587 Y-94.6584 Z-2.6958 F600
N4430 G02 X148.6332 Y-94.3137 Z-2.9813 I1.7963 J-4.4368 F600.0
N4440 G01 X148.6688 Y-94.3107 Z-2.9876 F600
N4450 G02 X148.7386 Y-94.3032 Z-3.0000 I0.3958 J-3.3421 F600.0
N4460 X150.8448 Y-94.7968 I0.3259 J-3.3496 F1200.0
N4470 G01 X150.7554 Y-94.9031 F1200
N4480 X150.7264 Y-94.8662
N4490 X150.7004 Y-94.8357
N4500 X150.6667 Y-94.7994
N4510 G03 X150.4978 Y-94.6799 I-0.3670 J-0.3396 F1200.0
N4520 G01 X150.4770 Y-94.6709 F1200
N4530 X150.4637 Y-94.6654
N4540 G03 X149.1306 Y-94.3940 I-1.4218 J-3.5746 F1200.0
N4550 X147.3884 Y-94.8829 I-0.1773 J-2.7167
N4560 X147.3387 Y-94.9228 I0.2874 J-0.4091
N4570 X145.9553 Y-97.4565 I2.9924 J-3.2783
N4580 X145.9483 Y-97.5403 I0.4929 J-0.0839
N4590 G01 Y-99.4051 F1200
N4600 G03 X145.9557 Y-99.4913 I0.5000 J0.0000 F1200.0
N4610 G01 X146.1236 Y-100.4514 F1200
N4620 X145.7350 Y-100.9139
N4630 X145.7255 Y-100.8878
N4640 G02 X145.7180 Y-96.2819 I7.4280 J2.3151 F1200.0
N4650 G01 X147.0587 Y-94.6584 F1200
N4660 G02 X148.6332 Y-94.3137 I1.7963 J-4.4368 F1200.0
N4670 G01 X148.6688 Y-94.3107 F1200
N4680 G02 X148.7386 Y-94.3032 I0.3958 J-3.3421 F1200.0
N4690 G00 Z1.0000
N4700 X151.7661 Y-101.2206
N4710 Z0.5000
N4720 G01 Z0.0000 F600
N4730 G03 X151.8263 Y-101.0761 Z-0.0277 I-0.4258 J0.2621 F600.0
N4740 X151.8904 Y-97.0767 Z-0.7388 I-8.8547 J2.1422
N4750 G01 X152.3121 Y-96.5708 Z-0.8549 F600
N4760 X152.4022 Y-96.7241 Z-0.8863
N4770 G02 X152.5515 Y-99.6945 Z-1.4133 I-8.5773 J-1.9199 F600.0
N4780 G01 X152.5502 Y-99.7067 Z-1.4154 F600
N4790 G02 X152.4788 Y-100.1808 Z-1.5000 I-4.4131 J0.4217 F600.0
N4800 X150.1298 Y-103.2451 I-4.3417 J0.8958 F1200.0
N4810 G01 X148.0554 F1200
N4820 G02 X147.1333 Y-102.7522 I1.5611 J4.0292 F1200.0
N4830 G01 X147.2884 Y-102.5730 F1200
N4840 X147.3079 Y-102.5923
N4850 G03 X147.3923 Y-102.6596 I0.3522 J0.3549 F1200.0
N4860 X150.6961 Y-102.7483 I1.7262 J2.7225
N4870 X150.8688 Y-102.5875 I-0.2447 J0.4360
N4880 G01 X151.7067 Y-101.3167 F1200
N4890 X151.7151 Y-101.3035
N4900 X151.7661 Y-101.2206
N4910 G03 X151.8263 Y-101.0761 Z-1.5277 I-0.4258 J0.2621 F600.0
N4920 X151.8904 Y-97.0767 Z-2.2388 I-8.8547 J2.1422
N4930 G01 X152.3121 Y-96.5708 Z-2.3549 F600
N4940 X152.4022 Y-96.7241 Z-2.3863
N4950 G02 X152.5515 Y-99.6945 Z-2.9133 I-8.5773 J-1.9199 F600.0
N4960 G01 X152.5502 Y-99.7067 Z-2.9154 F600
N4970 G02 X152.4788 Y-100.1808 Z-3.0000 I-4.4131 J0.4217 F600.0
N4980 X150.1298 Y-103.2451 I-4.3417 J0.8958 F1200.0
N4990 G01 X148.0554 F1200
N5000 G02 X147.1333 Y-102.7522 I1.5611 J4.0292 F1200.0
N5010 G01 X147.2884 Y-102.5730 F1200
N5020 X147.3079 Y-102.5923
N5030 G03 X147.3923 Y-102.6596 I0.3522 J0.3549 F1200.0
N5040 X150.6961 Y-102.7483 I1.7262 J2.7225
N5050 X150.8688 Y-102.5875 I-0.2447 J0.4360
N5060 G01 X151.7067 Y-101.3167 F1200
N5070 X151.7151 Y-101.3035
N5080 X151.7661 Y-101.2206
N5090 G03 X151.8263 Y-101.0761 I-0.4258 J0.2621 F1200.0
N5100 X151.8904 Y-97.0767 I-8.8547 J2.1422
N5110 G01 X152.3121 Y-96.5708 F1200
N5120 X152.4022 Y-96.7241
N5130 G02 X152.5515 Y-99.6945 I-8.5773 J-1.9199 F1200.0
N5140 G01 X152.5502 Y-99.7067 F1200
N5150 G02 X152.4788 Y-100.1808 I-4.4131 J0.4217 F1200.0
N5160 G00 Z1.0000
N5170 X150.9609 Y-92.3291
N5180 Z0.5000
N5190 G01 Z0.0000 F600
N5200 X150.6830 Y-92.3294 Z-0.0490
N5210 X150.6843 Y-92.0524 Z-0.0978
N5220 X150.9609 Y-92.0535 Z-0.1466
N5230 Y-92.3291 Z-0.1952
N5240 X150.6830 Y-92.3294 Z-0.2442
N5250 X150.6843 Y-92.0524 Z-0.2930
N5260 X150.9609 Y-92.0535 Z-0.3418
N5270 Y-92.3291 Z-0.3904
N5280 X150.6830 Y-92.3294 Z-0.4394
N5290 X150.6843 Y-92.0524 Z-0.4882
N5300 X150.9609 Y-92.0535 Z-0.5370
N5310 Y-92.3291 Z-0.5856
N5320 X150.6830 Y-92.3294 Z-0.6346
N5330 X150.6843 Y-92.0524 Z-0.6834
N5340 X150.9609 Y-92.0535 Z-0.7322
N5350 Y-92.3291 Z-0.7807
N5360 X150.6830 Y-92.3294 Z-0.8297
N5370 X150.6843 Y-92.0524 Z-0.8786
N5380 X150.9609 Y-92.0535 Z-0.9273
N5390 Y-92.3291 Z-0.9759
N5400 X150.6830 Y-92.3294 Z-1.0249
N5410 X150.6843 Y-92.0524 Z-1.0738
N5420 X150.9609 Y-92.0535 Z-1.1225
N5430 Y-92.3291 Z-1.1711
N5440 X150.6830 Y-92.3294 Z-1.2201
N5450 X150.6843 Y-92.0524 Z-1.2690
N5460 X150.9609 Y-92.0535 Z-1.3177
N5470 Y-92.3291 Z-1.3663
N5480 X150.6830 Y-92.3294 Z-1.4153
N5490 X150.6843 Y-92.0524 Z-1.4641
N5500 X150.8877 Y-92.0532 Z-1.5000
N5510 X150.9609 Y-92.0535 F1200
N5520 Y-92.3291 Z-1.5486 F600
N5530 X150.6830 Y-92.3294 Z-1.5976
N5540 X150.6843 Y-92.0524 Z-1.6464
N5550 X150.9609 Y-92.0535 Z-1.6952
N5560 Y-92.3291 Z-1.7438
N5570 X150.6830 Y-92.3294 Z-1.7928
N5580 X150.6843 Y-92.0524 Z-1.8416
N5590 X150.9609 Y-92.0535 Z-1.8904
N5600 Y-92.3291 Z-1.9390
N5610 X150.6830 Y-92.3294 Z-1.9880
N5620 X150.6843 Y-92.0524 Z-2.0368
N5630 X150.9609 Y-92.0535 Z-2.0856
N5640 Y-92.3291 Z-2.1341
N5650 X150.6830 Y-92.3294 Z-2.1831
N5660 X150.6843 Y-92.0524 Z-2.2320
N5670 X150.9609 Y-92.0535 Z-2.2807
N5680 Y-92.3291 Z-2.3293
N5690 X150.6830 Y-92.3294 Z-2.3783
N5700 X150.6843 Y-92.0524 Z-2.4272
N5710 X150.9609 Y-92.0535 Z-2.4759
N5720 Y-92.3291 Z-2.5245
N5730 X150.6830 Y-92.3294 Z-2.5735
N5740 X150.6843 Y-92.0524 Z-2.6224
N5750 X150.9609 Y-92.0535 Z-2.6711
N5760 Y-92.3291 Z-2.7197
N5770 X150.6830 Y-92.3294 Z-2.7687
N5780 X150.6843 Y-92.0524 Z-2.8175
N5790 X150.9609 Y-92.0535 Z-2.8663
N5800 Y-92.3291 Z-2.9149
N5810 X150.6830 Y-92.3294 Z-2.9639
N5820 X150.6840 Y-92.1246 Z-3.0000
N5830 X150.6843 Y-92.0524 F1200
N5840 X150.9609 Y-92.0535
N5850 Y-92.3291
N5860 X150.6830 Y-92.3294
N5870 X150.6840 Y-92.1246
N5880 G00 Z1.0000
N5890 X147.3153 Y-92.0505
N5900 Z0.5000
N5910 G01 Z0.0000 F600
N5920 Y-92.3288 Z-0.0491
N5930 X147.0388 Y-92.3292 Z-0.0978
N5940 X147.0402 Y-92.0505 Z-0.1470
N5950 X147.3153 Z-0.1955
N5960 Y-92.3288 Z-0.2446
N5970 X147.0388 Y-92.3292 Z-0.2933
N5980 X147.0402 Y-92.0505 Z-0.3425
N5990 X147.3153 Z-0.3910
N6000 Y-92.3288 Z-0.4400
N6010 X147.0388 Y-92.3292 Z-0.4888
N6020 X147.0402 Y-92.0505 Z-0.5379
N6030 X147.3153 Z-0.5864
N6040 Y-92.3288 Z-0.6355
N6050 X147.0388 Y-92.3292 Z-0.6843
N6060 X147.0402 Y-92.0505 Z-0.7334
N6070 X147.3153 Z-0.7819
N6080 Y-92.3288 Z-0.8310
N6090 X147.0388 Y-92.3292 Z-0.8798
N6100 X147.0402 Y-92.0505 Z-0.9289
N6110 X147.3153 Z-0.9774
N6120 Y-92.3288 Z-1.0265
N6130 X147.0388 Y-92.3292 Z-1.0752
N6140 X147.0402 Y-92.0505 Z-1.1244
N6150 X147.3153 Z-1.1729
N6160 Y-92.3288 Z-1.2220
N6170 X147.0388 Y-92.3292 Z-1.2707
N6180 X147.0402 Y-92.0505 Z-1.3199
N6190 X147.3153 Z-1.3684
N6200 Y-92.3288 Z-1.4175
N6210 X147.0388 Y-92.3292 Z-1.4662
N6220 X147.0398 Y-92.1376 Z-1.5000
N6230 X147.0402 Y-92.0505 F1200
N6240 X147.3153 Z-1.5485 F600
N6250 Y-92.3288 Z-1.5976
N6260 X147.0388 Y-92.3292 Z-1.6463
N6270 X147.0402 Y-92.0505 Z-1.6955
N6280 X147.3153 Z-1.7440
N6290 Y-92.3288 Z-1.7931
N6300 X147.0388 Y-92.3292 Z-1.8418
N6310 X147.0402 Y-92.0505 Z-1.8910
N6320 X147.3153 Z-1.9395
N6330 Y-92.3288 Z-1.9886
N6340 X147.0388 Y-92.3292 Z-2.0373
N6350 X147.0402 Y-92.0505 Z-2.0864
N6360 X147.3153 Z-2.1350
N6370 Y-92.3288 Z-2.1840
N6380 X147.0388 Y-92.3292 Z-2.2328
N6390 X147.0402 Y-92.0505 Z-2.2819
N6400 X147.3153 Z-2.3304
N6410 Y-92.3288 Z-2.3795
N6420 X147.0388 Y-92.3292 Z-2.4283
N6430 X147.0402 Y-92.0505 Z-2.4774
N6440 X147.3153 Z-2.5259
N6450 Y-92.3288 Z-2.5750
N6460 X147.0388 Y-92.3292 Z-2.6237
N6470 X147.0402 Y-92.0505 Z-2.6729
N6480 X147.3153 Z-2.7214
N6490 Y-92.3288 Z-2.7705
N6500 X147.0388 Y-92.3292 Z-2.8192
N6510 X147.0402 Y-92.0505 Z-2.8684
N6520 X147.3153 Z-2.9169
N6530 Y-92.3288 Z-2.9660
N6540 X147.1222 Y-92.3291 Z-3.0000
N6550 X147.0388 Y-92.3292 F1200
N6560 X147.0402 Y-92.0505
N6570 X147.3153
N6580 Y-92.3288
N6590 X147.1222 Y-92.3291
N6600 G00 Z1.0000
N6610 X147.4124 Y-85.9055
N6620 Z0.5000
N6630 G01 Z0.0000 F600
N6640 X147.4511 Y-85.9309 Z-0.0082
N6650 G03 X150.6859 Y-85.9844 Z-0.6050 I1.6644 J2.8108 F600.0
N6660 X150.8625 Y-85.8219 Z-0.6477 I-0.2404 J0.4384
N6670 G01 X151.6989 Y-84.5580 Z-0.9150 F600
N6680 X151.7063 Y-84.5465 Z-0.9174
N6690 X151.7645 Y-84.4531 Z-0.9368
N6700 G03 X151.8262 Y-84.3063 Z-0.9650 I-0.4243 J0.2645 F600.0
N6710 X152.0401 Y-81.2936 Z-1.5000 I-8.8504 J2.1423
N6720 X151.8903 Y-80.3066 I-9.0643 J-0.8704 F1200.0
N6730 G01 X152.3120 Y-79.8010 F1200
N6740 X152.4023 Y-79.9545
N6750 G02 X152.5507 Y-82.9317 I-8.5714 J-1.9196 F1200.0
N6760 G01 X152.5495 Y-82.9421 F1200
N6770 G02 X150.1316 Y-86.4747 I-4.4374 J0.4435 F1200.0
N6780 G01 X148.0550 F1200
N6790 G02 X147.1329 Y-85.9821 I1.5461 J4.0033 F1200.0
N6800 G01 X147.2845 Y-85.8069 F1200
N6810 G03 X147.4124 Y-85.9055 I1.7116 J2.0862 F1200.0
N6820 G01 X147.4511 Y-85.9309 Z-1.5082 F600
N6830 G03 X150.6859 Y-85.9844 Z-2.1050 I1.6644 J2.8108 F600.0
N6840 X150.8625 Y-85.8219 Z-2.1477 I-0.2404 J0.4384
N6850 G01 X151.6989 Y-84.5580 Z-2.4150 F600
N6860 X151.7063 Y-84.5465 Z-2.4174
N6870 X151.7645 Y-84.4531 Z-2.4368
N6880 G03 X151.8262 Y-84.3063 Z-2.4650 I-0.4243 J0.2645 F600.0
N6890 X152.0401 Y-81.2936 Z-3.0000 I-8.8504 J2.1423
N6900 X151.8903 Y-80.3066 I-9.0643 J-0.8704 F1200.0
N6910 G01 X152.3120 Y-79.8010 F1200
N6920 X152.4023 Y-79.9545
N6930 G02 X152.5507 Y-82.9317 I-8.5714 J-1.9196 F1200.0
N6940 G01 X152.5495 Y-82.9421 F1200
N6950 G02 X150.1316 Y-86.4747 I-4.4374 J0.4435 F1200.0
N6960 G01 X148.0550 F1200
N6970 G02 X147.1329 Y-85.9821 I1.5461 J4.0033 F1200.0
N6980 G01 X147.2845 Y-85.8069 F1200
N6990 G03 X147.4124 Y-85.9055 I1.7116 J2.0862 F1200.0
N7000 G01 X147.4511 Y-85.9309 F1200
N7010 G03 X150.6859 Y-85.9844 I1.6644 J2.8108 F1200.0
N7020 X150.8625 Y-85.8219 I-0.2404 J0.4384
N7030 G01 X151.6989 Y-84.5580 F1200
N7040 X151.7063 Y-84.5465
N7050 X151.7645 Y-84.4531
N7060 G03 X151.8262 Y-84.3063 I-0.4243 J0.2645 F1200.0
N7070 X152.0401 Y-81.2936 I-8.8504 J2.1423
N7080 G00 Z1.0000
N7090 X145.7225 Y-84.1068
N7100 Z0.5000
N7110 G01 Z0.0000 F600
N7120 G02 X145.7160 Y-79.5149 Z-0.8216 I7.5322 J2.3067 F600.0
N7130 G01 X147.0589 Y-77.8874 Z-1.1937 F600
N7140 G02 X148.4666 Y-77.5592 Z-1.4496 I1.7475 J-4.3116 F600.0
N7150 G01 X148.5002 Y-77.5556 Z-1.4555 F600
N7160 G02 X148.7510 Y-77.5290 Z-1.5000 I0.4994 J-3.5217 F600.0
N7170 X150.8400 Y-78.0334 I0.2487 J-3.5482 F1200.0
N7180 G01 X150.7552 Y-78.1343 F1200
N7190 X150.6993 Y-78.0633
N7200 G03 X150.5071 Y-77.9149 I-0.3926 J-0.3097 F1200.0
N7210 G01 X150.4921 Y-77.9084 F1200
N7220 X150.4825 Y-77.9043
N7230 G03 X149.2804 Y-77.6345 I-1.3831 J-3.3502 F1200.0
N7240 X147.3894 Y-78.1131 I-0.2973 J-2.8007
N7250 X147.3349 Y-78.1563 I0.2829 J-0.4122
N7260 X145.9553 Y-80.6862 I2.9931 J-3.2734
N7270 X145.9483 Y-80.7700 I0.4929 J-0.0838
N7280 G01 Y-82.6362 F1200
N7290 G03 X145.9557 Y-82.7225 I0.5000 J0.0000 F1200.0
N7300 G01 X146.1236 Y-83.6811 F1200
N7310 X145.7381 Y-84.1402
N7320 X145.7225 Y-84.1068
N7330 G02 X145.7160 Y-79.5149 Z-2.3216 I7.5322 J2.3067 F600.0
N7340 G01 X147.0589 Y-77.8874 Z-2.6937 F600
N7350 G02 X148.4666 Y-77.5592 Z-2.9496 I1.7475 J-4.3116 F600.0
N7360 G01 X148.5002 Y-77.5556 Z-2.9555 F600
N7370 G02 X148.7510 Y-77.5290 Z-3.0000 I0.4994 J-3.5217 F600.0
N7380 X150.8400 Y-78.0334 I0.2487 J-3.5482 F1200.0
N7390 G01 X150.7552 Y-78.1343 F1200
N7400 X150.6993 Y-78.0633
N7410 G03 X150.5071 Y-77.9149 I-0.3926 J-0.3097 F1200.0
N7420 G01 X150.4921 Y-77.9084 F1200
N7430 X150.4825 Y-77.9043
N7440 G03 X149.2804 Y-77.6345 I-1.3831 J-3.3502 F1200.0
N7450 X147.3894 Y-78.1131 I-0.2973 J-2.8007
N7460 X147.3349 Y-78.1563 I0.2829 J-0.4122
N7470 X145.9553 Y-80.6862 I2.9931 J-3.2734
N7480 X145.9483 Y-80.7700 I0.4929 J-0.0838
N7490 G01 Y-82.6362 F1200
N7500 G03 X145.9557 Y-82.7225 I0.5000 J0.0000 F1200.0
N7510 G01 X146.1236 Y-83.6811 F1200
N7520 X145.7381 Y-84.1402
N7530 X145.7225 Y-84.1068
N7540 G02 X145.7160 Y-79.5149 I7.5322 J2.3067 F1200.0
N7550 G01 X147.0589 Y-77.8874 F1200
N7560 G02 X148.4666 Y-77.5592 I1.7475 J-4.3116 F1200.0
N7570 G01 X148.5002 Y-77.5556 F1200
N7580 G02 X148.7510 Y-77.5290 I0.4994 J-3.5217 F1200.0
N7590 G00 Z1.0000
N7600 X132.3523 Y-86.2440
N7610 Z0.5000
N7620 G01 Z0.0000 F600
N7630 X131.5707 Y-86.2444 Z-0.1378
N7640 X128.7753 Y-79.0425 Z-1.5000
N7650 X128.2757 Y-77.7554 F1200
N7660 X128.7444
N7670 X131.6521 Y-84.9833
N7680 G03 X132.5785 Y-84.9865 I0.4639 J0.1866 F1200.0
N7690 G01 X135.5464 Y-77.7554 F1200
N7700 X135.7085
N7710 X132.3523 Y-86.2440
N7720 X131.5707 Y-86.2444 Z-1.6378 F600
N7730 X128.7753 Y-79.0425 Z-3.0000
N7740 X128.2757 Y-77.7554 F1200
N7750 X128.7444
N7760 X131.6521 Y-84.9833
N7770 G03 X132.5785 Y-84.9865 I0.4639 J0.1866 F1200.0
N7780 G01 X135.5464 Y-77.7554 F1200
N7790 X135.7085
N7800 X132.3523 Y-86.2440
N7810 X131.5707 Y-86.2444
N7820 X128.7753 Y-79.0425
N7830 G00 Z1.0000
N7840 X112.6993 Y-77.7554
N7850 Z0.5000
N7860 G01 Z0.0000 F600
N7870 Y-81.4033 Z-0.6432
N7880 G03 X113.1993 Y-81.9033 Z-0.7817 I0.5000 J0.0000 F600.0
N7890 G01 X117.2170 Z-1.4901 F600
N7900 G03 X117.2728 Y-81.9002 Z-1.5000 I0.0000 J0.5000 F600.0
N7910 X117.7170 Y-81.4033 I-0.0558 J0.4969 F1200.0
N7920 G01 Y-77.7554 F1200
N7930 X118.1804
N7940 Y-86.2446
N7950 X117.7170
N7960 Y-82.4988
N7970 G03 X117.2170 Y-81.9988 I-0.5000 J0.0000 F1200.0
N7980 G01 X113.1993 F1200
N7990 G03 X112.6993 Y-82.4988 I0.0000 J-0.5000 F1200.0
N8000 G01 Y-86.2446 F1200
N8010 X112.2441
N8020 Y-77.7554
N8030 X112.6993
N8040 Y-81.4033 Z-2.1432 F600
N8050 G03 X113.1993 Y-81.9033 Z-2.2817 I0.5000 J0.0000 F600.0
N8060 G01 X117.2170 Z-2.9901 F600
N8070 G03 X117.2728 Y-81.9002 Z-3.0000 I0.0000 J0.5000 F600.0
N8080 X117.7170 Y-81.4033 I-0.0558 J0.4969 F1200.0
N8090 G01 Y-77.7554 F1200
N8100 X118.1804
N8110 Y-86.2446
N8120 X117.7170
N8130 Y-82.4988
N8140 G03 X117.2170 Y-81.9988 I-0.5000 J0.0000 F1200.0
N8150 G01 X113.1993 F1200
N8160 G03 X112.6993 Y-82.4988 I0.0000 J-0.5000 F1200.0
N8170 G01 Y-86.2446 F1200
N8180 X112.2441
N8190 Y-77.7554
N8200 X112.6993
N8210 Y-81.4033
N8220 G03 X113.1993 Y-81.9033 I0.5000 J0.0000 F1200.0
N8230 G01 X117.2170 F1200
N8240 G03 X117.2728 Y-81.9002 I0.0000 J0.5000 F1200.0
N8250 G00 Z1.0000
N8260 X114.4788 Y-69.1485
N8270 Z0.5000
N8280 G01 Z0.0000 F600
N8290 G03 X114.9788 Y-68.6485 Z-0.1385 I0.0000 J0.5000 F600.0
N8300 G01 Y-61.3501 Z-1.4254 F600
N8310 G03 X114.8102 Y-60.9757 Z-1.5000 I-0.5000 J0.0000 F600.0
N8320 X114.4788 Y-60.8501 I-0.3314 J-0.3744 F1200.0
N8330 G01 X112.4260 F1200
N8340 Y-60.7545
N8350 X117.9954
N8360 Y-60.8501
N8370 X115.9430
N8380 G03 X115.4430 Y-61.3501 I0.0000 J-0.5000 F1200.0
N8390 G01 Y-68.6485 F1200
N8400 G03 X115.9430 Y-69.1485 I0.5000 J0.0000 F1200.0
N8410 G01 X117.9954 F1200
N8420 Y-69.2454
N8430 X112.4260
N8440 Y-69.1485
N8450 X114.4788
N8460 G03 X114.9788 Y-68.6485 Z-1.6385 I0.0000 J0.5000 F600.0
N8470 G01 Y-61.3501 Z-2.9254 F600
N8480 G03 X114.8102 Y-60.9757 Z-3.0000 I-0.5000 J0.0000 F600.0
N8490 X114.4788 Y-60.8501 I-0.3314 J-0.3744 F1200.0
N8500 G01 X112.4260 F1200
N8510 Y-60.7545
N8520 X117.9954
N8530 Y-60.8501
N8540 X115.9430
N8550 G03 X115.4430 Y-61.3501 I0.0000 J-0.5000 F1200.0
N8560 G01 Y-68.6485 F1200
N8570 G03 X115.9430 Y-69.1485 I0.5000 J0.0000 F1200.0
N8580 G01 X117.9954 F1200
N8590 Y-69.2454
N8600 X112.4260
N8610 Y-69.1485
N8620 X114.4788
N8630 G03 X114.9788 Y-68.6485 I0.0000 J0.5000 F1200.0
N8640 G01 Y-61.3501 F1200
N8650 G03 X114.8102 Y-60.9757 I-0.5000 J0.0000 F1200.0
N8660 G00 Z1.0000
N8670 X98.3529 Y-69.2447
N8680 Z0.5000
N8690 G01 Z0.0000 F600
N8700 X97.5700 Y-69.2452 Z-0.1380
N8710 X94.7757 Y-62.0443 Z-1.5000
N8720 X94.2752 Y-60.7545 F1200
N8730 X94.7441
N8740 X97.6517 Y-67.9831
N8750 G03 X98.5781 Y-67.9864 I0.4639 J0.1866 F1200.0
N8760 G01 X101.5474 Y-60.7545 F1200
N8770 X101.7056
N8780 X98.3529 Y-69.2447
N8790 X97.5700 Y-69.2452 Z-1.6380 F600
N8800 X94.7757 Y-62.0443 Z-3.0000
N8810 X94.2752 Y-60.7545 F1200
N8820 X94.7441
N8830 X97.6517 Y-67.9831
N8840 G03 X98.5781 Y-67.9864 I0.4639 J0.1866 F1200.0
N8850 G01 X101.5474 Y-60.7545 F1200
N8860 X101.7056
N8870 X98.3529 Y-69.2447
N8880 X97.5700 Y-69.2452
N8890 X94.7757 Y-62.0443
N8900 G00 Z1.0000
N8910 X94.6266 Y-82.5584
N8920 Z0.5000
N8930 G01 Z0.0000 F600
N8940 X94.6237 Y-82.5271 Z-0.0055
N8950 G02 X96.8611 Y-78.0141 Z-0.9464 I4.5293 J0.5657 F600.0
N8960 X99.9275 Y-77.5652 Z-1.5000 I2.3167 J-5.1273
N8970 X100.2804 Y-77.6241 I-0.7497 J-5.5762 F1200.0
N8980 G01 X100.9494 Y-77.7543 F1200
N8990 X101.2674 Y-77.8394
N9000 Y-78.0412
N9010 G03 X99.0462 Y-77.6220 I-2.4187 J-6.7226 F1200.0
N9020 G01 X99.0313 Y-77.6218 F1200
N9030 G03 X95.4217 Y-80.2738 I0.0082 J-3.7937 F1200.0
N9040 X95.4570 Y-83.6547 I4.8565 J-1.6398
N9050 G01 X95.4642 Y-83.6734 F1200
N9060 G03 X99.5116 Y-86.2830 I3.8854 J1.5827 F1200.0
N9070 X101.3942 Y-85.9625 I-0.3007 J7.4557
N9080 G01 Y-86.1049 F1200
N9090 G02 X97.2591 Y-86.1644 I-2.1565 J6.1463 F1200.0
N9100 X94.6266 Y-82.5584 I1.5024 J3.8606
N9110 G01 X94.6237 Y-82.5271 Z-1.5055 F600
N9120 G02 X96.8611 Y-78.0141 Z-2.4464 I4.5293 J0.5657 F600.0
N9130 X99.9275 Y-77.5652 Z-3.0000 I2.3167 J-5.1273
N9140 X100.2804 Y-77.6241 I-0.7497 J-5.5762 F1200.0
N9150 G01 X100.9494 Y-77.7543 F1200
N9160 X101.2674 Y-77.8394
N9170 Y-78.0412
N9180 G03 X99.0462 Y-77.6220 I-2.4187 J-6.7226 F1200.0
N9190 G01 X99.0313 Y-77.6218 F1200
N9200 G03 X95.4217 Y-80.2738 I0.0082 J-3.7937 F1200.0
N9210 X95.4570 Y-83.6547 I4.8565 J-1.6398
N9220 G01 X95.4642 Y-83.6734 F1200
N9230 G03 X99.5116 Y-86.2830 I3.8854 J1.5827 F1200.0
N9240 X101.3942 Y-85.9625 I-0.3007 J7.4557
N9250 G01 Y-86.1049 F1200
N9260 G02 X97.2591 Y-86.1644 I-2.1565 J6.1463 F1200.0
N9270 X94.6266 Y-82.5584 I1.5024 J3.8606
N9280 G01 X94.6237 Y-82.5271 F1200
N9290 G02 X96.8611 Y-78.0141 I4.5293 J0.5657 F1200.0
N9300 X99.9275 Y-77.5652 I2.3167 J-5.1273
N9310 G00 Z1.0000
N9320 X94.8309 Y-94.7549
N9330 Z0.5000
N9340 G01 Z0.0000 F600
N9350 X95.3194 Z-0.0861
N9360 X97.7291 Y-98.0711 Z-0.8089
N9370 G03 X98.5292 Y-98.0829 Z-0.9725 I0.4045 J0.2939 F600.0
N9380 G01 X100.3585 Y-95.7158 Z-1.5000 F600
N9390 X101.1010 Y-94.7549 F1200
N9400 X101.2558
N9410 X98.4237 Y-98.4151
N9420 G03 X98.4146 Y-99.0150 I0.3954 J-0.3060 F1200.0
N9430 G01 X101.4876 Y-103.2451 F1200
N9440 X100.9903
N9450 X98.3385 Y-99.5886
N9460 G03 X97.5380 Y-99.5765 I-0.4048 J-0.2935 F1200.0
N9470 G01 X94.7053 Y-103.2451 F1200
N9480 X94.5478
N9490 X97.6388 Y-99.2322
N9500 G03 X97.6472 Y-98.6333 I-0.3961 J0.3051 F1200.0
N9510 G01 X94.8309 Y-94.7549 F1200
N9520 X95.3194 Z-1.5861 F600
N9530 X97.7291 Y-98.0711 Z-2.3089
N9540 G03 X98.5292 Y-98.0829 Z-2.4725 I0.4045 J0.2939 F600.0
N9550 G01 X100.3585 Y-95.7158 Z-3.0000 F600
N9560 X101.1010 Y-94.7549 F1200
N9570 X101.2558
N9580 X98.4237 Y-98.4151
N9590 G03 X98.4146 Y-99.0150 I0.3954 J-0.3060 F1200.0
N9600 G01 X101.4876 Y-103.2451 F1200
N9610 X100.9903
N9620 X98.3385 Y-99.5886
N9630 G03 X97.5380 Y-99.5765 I-0.4048 J-0.2935 F1200.0
N9640 G01 X94.7053 Y-103.2451 F1200
N9650 X94.5478
N9660 X97.6388 Y-99.2322
N9670 G03 X97.6472 Y-98.6333 I-0.3961 J0.3051 F1200.0
N9680 G01 X94.8309 Y-94.7549 F1200
N9690 X95.3194
N9700 X97.7291 Y-98.0711
N9710 G03 X98.5292 Y-98.0829 I0.4045 J0.2939 F1200.0
N9720 G01 X100.3585 Y-95.7158 F1200
N9730 G00 Z1.0000
N9740 X78.5329 Y-100.9041
N9750 Z0.5000
N9760 G01 Z0.0000 F600
N9770 X78.0755 Z-0.0807
N9780 X78.0720 Y-94.7549 Z-1.1649
N9790 X79.9722 Z-1.5000
N9800 X80.6219 F1200
N9810 X81.3650 Y-94.7877
N9820 X81.9810 Y-94.8811
N9830 X82.4752 Y-95.0294
N9840 X82.8507 Y-95.2235
N9850 X83.1188 Y-95.4535
N9860 X83.3055 Y-95.7228
N9870 X83.4272 Y-96.0750
N9880 G02 X82.4866 Y-97.9826 I-1.7261 J-0.3345 F1200.0
N9890 G01 X82.4339 Y-98.0067 F1200
N9900 X82.5557 Y-97.8886
N9910 G03 X82.6453 Y-97.7710 I-0.3483 J0.3588 F1200.0
N9920 G01 X82.8452 Y-97.4083 F1200
N9930 G03 X82.9003 Y-97.2497 I-0.4380 J0.2412 F1200.0
N9940 G01 X82.9754 Y-96.8014 F1200
N9950 G03 X82.9805 Y-96.6767 I-0.4931 J0.0826 F1200.0
N9960 G01 X82.9492 Y-96.3060 F1200
N9970 G03 X82.9219 Y-96.1803 I-0.4982 J-0.0421 F1200.0
N9980 G01 X82.8134 Y-95.8757 F1200
N9990 G03 X82.7438 Y-95.7454 I-0.4710 J-0.1678 F1200.0
N10000 G01 X82.5657 Y-95.5056 F1200
N10010 G03 X82.4476 Y-95.3918 I-0.4014 J-0.2982 F1200.0
N10020 G01 X82.1961 Y-95.2189 F1200
N10030 G03 X82.0779 Y-95.1589 I-0.2833 J-0.4120 F1200.0
N10040 G01 X81.7272 Y-95.0362 F1200
N10050 G03 X81.6518 Y-95.0163 I-0.1651 J-0.4720 F1200.0
N10060 G01 X81.1681 Y-94.9281 F1200
N10070 X81.1202 Y-94.9218
N10080 X80.5031 Y-94.8701
N10090 X80.4677 Y-94.8684
N10100 X79.0376 Y-94.8505
N10110 G03 X78.5314 Y-95.3506 I-0.0063 J-0.5000 F1200.0
N10120 G01 X78.5329 Y-100.9041 F1200
N10130 X78.0755 Z-1.5807 F600
N10140 X78.0720 Y-94.7549 Z-2.6649
N10150 X79.9722 Z-3.0000
N10160 X80.6219 F1200
N10170 X81.3650 Y-94.7877
N10180 X81.9810 Y-94.8811
N10190 X82.4752 Y-95.0294
N10200 X82.8507 Y-95.2235
N10210 X83.1188 Y-95.4535
N10220 X83.3055 Y-95.7228
N10230 X83.4272 Y-96.0750
N10240 G02 X82.4866 Y-97.9826 I-1.7261 J-0.3345 F1200.0
N10250 G01 X82.4339 Y-98.0067 F1200
N10260 X82.5557 Y-97.8886
N10270 G03 X82.6453 Y-97.7710 I-0.3483 J0.3588 F1200.0
N10280 G01 X82.8452 Y-97.4083 F1200
N10290 G03 X82.9003 Y-97.2497 I-0.4380 J0.2412 F1200.0
N10300 G01 X82.9754 Y-96.8014 F1200
N10310 G03 X82.9805 Y-96.6767 I-0.4931 J0.0826 F1200.0
N10320 G01 X82.9492 Y-96.3060 F1200
N10330 G03 X82.9219 Y-96.1803 I-0.4982 J-0.0421 F1200.0
N10340 G01 X82.8134 Y-95.8757 F1200
N10350 G03 X82.7438 Y-95.7454 I-0.4710 J-0.1678 F1200.0
N10360 G01 X82.5657 Y-95.5056 F1200
N10370 G03 X82.4476 Y-95.3918 I-0.4014 J-0.2982 F1200.0
N10380 G01 X82.1961 Y-95.2189 F1200
N10390 G03 X82.0779 Y-95.1589 I-0.2833 J-0.4120 F1200.0
N10400 G01 X81.7272 Y-95.0362 F1200
N10410 G03 X81.6518 Y-95.0163 I-0.1651 J-0.4720 F1200.0
N10420 G01 X81.1681 Y-94.9281 F1200
N10430 X81.1202 Y-94.9218
N10440 X80.5031 Y-94.8701
N10450 X80.4677 Y-94.8684
N10460 X79.0376 Y-94.8505
N10470 G03 X78.5314 Y-95.3506 I-0.0063 J-0.5000 F1200.0
N10480 G01 X78.5329 Y-100.9041 F1200
N10490 X78.0755
N10500 X78.0720 Y-94.7549
N10510 X79.9722
N10520 G00 Z1.0000
N10530 X80.5534 Y-98.8091
N10540 Z0.5000
N10550 G01 Z0.0000 F600
N10560 X80.8030 Y-98.7867 Z-0.0442
N10570 G03 X80.8812 Y-98.7734 Z-0.0582 I-0.0447 J0.4980 F600.0
N10580 G01 X81.2808 Y-98.6721 Z-0.1309 F600
N10590 X81.3037 Y-98.6658 Z-0.1351
N10600 G03 X81.3337 Y-98.9850 Z-0.1926 I0.4865 J-0.1153 F600.0
N10610 X80.5534 Y-98.8091 Z-0.3338 I-1.4275 J-4.5153
N10620 G01 X80.8030 Y-98.7867 Z-0.3780 F600
N10630 G03 X80.8812 Y-98.7734 Z-0.3920 I-0.0447 J0.4980 F600.0
N10640 G01 X81.2808 Y-98.6721 Z-0.4647 F600
N10650 X81.3037 Y-98.6658 Z-0.4688
N10660 G03 X81.3337 Y-98.9850 Z-0.5264 I0.4865 J-0.1153 F600.0
N10670 X80.5534 Y-98.8091 Z-0.6676 I-1.4275 J-4.5153
N10680 G01 X80.8030 Y-98.7867 Z-0.7118 F600
N10690 G03 X80.8812 Y-98.7734 Z-0.7258 I-0.0447 J0.4980 F600.0
N10700 G01 X81.2808 Y-98.6721 Z-0.7985 F600
N10710 X81.3037 Y-98.6658 Z-0.8026
N10720 G03 X81.3337 Y-98.9850 Z-0.8602 I0.4865 J-0.1153 F600.0
N10730 X80.5534 Y-98.8091 Z-1.0014 I-1.4275 J-4.5153
N10740 G01 X80.8030 Y-98.7867 Z-1.0456 F600
N10750 G03 X80.8812 Y-98.7734 Z-1.0596 I-0.0447 J0.4980 F600.0
N10760 G01 X81.2808 Y-98.6721 Z-1.1323 F600
N10770 X81.3037 Y-98.6658 Z-1.1364
N10780 G03 X81.3337 Y-98.9850 Z-1.1940 I0.4865 J-0.1153 F600.0
N10790 X80.5534 Y-98.8091 Z-1.3352 I-1.4275 J-4.5153
N10800 G01 X80.8030 Y-98.7867 Z-1.3794 F600
N10810 G03 X80.8812 Y-98.7734 Z-1.3934 I-0.0447 J0.4980 F600.0
N10820 G01 X81.2808 Y-98.6721 Z-1.4661 F600
N10830 X81.3037 Y-98.6658 Z-1.4702
N10840 G03 X81.2929 Y-98.8335 Z-1.5000 I0.4865 J-0.1153 F600.0
N10850 X81.3337 Y-98.9850 I0.4972 J0.0524 F1200.0
N10860 X80.5534 Y-98.8091 Z-1.6412 I-1.4275 J-4.5153 F600.0
N10870 G01 X80.8030 Y-98.7867 Z-1.6854 F600
N10880 G03 X80.8812 Y-98.7734 Z-1.6994 I-0.0447 J0.4980 F600.0
N10890 G01 X81.2808 Y-98.6721 Z-1.7721 F600
N10900 X81.3037 Y-98.6658 Z-1.7762
N10910 G03 X81.3337 Y-98.9850 Z-1.8338 I0.4865 J-0.1153 F600.0
N10920 X80.5534 Y-98.8091 Z-1.9750 I-1.4275 J-4.5153
N10930 G01 X80.8030 Y-98.7867 Z-2.0192 F600
N10940 G03 X80.8812 Y-98.7734 Z-2.0332 I-0.0447 J0.4980 F600.0
N10950 G01 X81.2808 Y-98.6721 Z-2.1059 F600
N10960 X81.3037 Y-98.6658 Z-2.1100
N10970 G03 X81.3337 Y-98.9850 Z-2.1676 I0.4865 J-0.1153 F600.0
N10980 X80.5534 Y-98.8091 Z-2.3088 I-1.4275 J-4.5153
N10990 G01 X80.8030 Y-98.7867 Z-2.3530 F600
N11000 G03 X80.8812 Y-98.7734 Z-2.3670 I-0.0447 J0.4980 F600.0
N11010 G01 X81.2808 Y-98.6721 Z-2.4397 F600
N11020 X81.3037 Y-98.6658 Z-2.4438
N11030 G03 X81.3337 Y-98.9850 Z-2.5014 I0.4865 J-0.1153 F600.0
N11040 X80.5534 Y-98.8091 Z-2.6426 I-1.4275 J-4.5153
N11050 G01 X80.8030 Y-98.7867 Z-2.6868 F600
N11060 G03 X80.8812 Y-98.7734 Z-2.7008 I-0.0447 J0.4980 F600.0
N11070 G01 X81.2808 Y-98.6721 Z-2.7735 F600
N11080 X81.3037 Y-98.6658 Z-2.7776
N11090 G03 X81.3337 Y-98.9850 Z-2.8352 I0.4865 J-0.1153 F600.0
N11100 X80.5534 Y-98.8091 Z-2.9764 I-1.4275 J-4.5153
N11110 G01 X80.6869 Y-98.7972 Z-3.0000 F600
N11120 X80.8030 Y-98.7867 F1200
N11130 G03 X80.8812 Y-98.7734 I-0.0447 J0.4980 F1200.0
N11140 G01 X81.2808 Y-98.6721 F1200
N11150 X81.3037 Y-98.6658
N11160 G03 X81.3337 Y-98.9850 I0.4865 J-0.1153 F1200.0
N11170 X80.5534 Y-98.8091 I-1.4275 J-4.5153
N11180 G01 X80.6869 Y-98.7972 F1200
N11190 G00 Z1.0000
N11200 X79.0331 Y-103.1502
N11210 Z0.5000
N11220 G01 Z0.0000 F600
N11230 X80.3450 Z-0.2313
N11240 X80.3599 Y-103.1500 Z-0.2340
N11250 X81.0269 Y-103.1300 Z-0.3516
N11260 X81.0615 Y-103.1278 Z-0.3577
N11270 X81.6117 Y-103.0730 Z-0.4552
N11280 G03 X81.6641 Y-103.0650 Z-0.4646 I-0.0495 J0.4975 F600.0
N11290 G01 X82.1072 Y-102.9726 Z-0.5444 F600
N11300 G03 X82.1889 Y-102.9482 Z-0.5594 I-0.1020 J0.4895 F600.0
N11310 G01 X82.5158 Y-102.8190 Z-0.6214 F600
N11320 G03 X82.6334 Y-102.7530 Z-0.6453 I-0.1838 J0.4650 F600.0
N11330 G01 X82.8697 Y-102.5745 Z-0.6975 F600
N11340 G03 X82.9759 Y-102.4653 Z-0.7245 I-0.3013 J0.3990 F600.0
N11350 G01 X83.1481 Y-102.2231 Z-0.7769 F600
N11360 G03 X83.2162 Y-102.0879 Z-0.8037 I-0.4075 J0.2898 F600.0
N11370 G01 X83.3147 Y-101.7847 Z-0.8599 F600
N11380 G03 X83.3369 Y-101.6782 Z-0.8791 I-0.4755 J0.1545 F600.0
N11390 G01 X83.3720 Y-101.3140 Z-0.9436 F600
N11400 G03 X83.3743 Y-101.2587 Z-0.9534 I-0.4977 J0.0480 F600.0
N11410 X82.3763 Y-99.4603 Z-1.3311 I-2.1767 J-0.0318
N11420 G01 X82.7347 Y-99.5958 Z-1.3986 F600
N11430 X83.1402 Y-99.8150 Z-1.4799
N11440 G02 X83.2324 Y-99.8818 Z-1.5000 I-1.0172 J-1.4999 F600.0
N11450 X83.8954 Y-101.6929 I-1.1094 J-1.4330 F1200.0
N11460 G01 X83.7702 Y-102.0950 F1200
N11470 G02 X81.7000 Y-103.2122 I-1.9171 J1.0758 F1200.0
N11480 G01 X81.6513 Y-103.2112 F1200
N11490 X80.4262 Y-103.2451
N11500 X78.0736
N11510 X78.0739 Y-103.1502
N11520 X79.0331
N11530 X80.3450 Z-1.7313 F600
N11540 X80.3599 Y-103.1500 Z-1.7340
N11550 X81.0269 Y-103.1300 Z-1.8516
N11560 X81.0615 Y-103.1278 Z-1.8577
N11570 X81.6117 Y-103.0730 Z-1.9552
N11580 G03 X81.6641 Y-103.0650 Z-1.9646 I-0.0495 J0.4975 F600.0
N11590 G01 X82.1072 Y-102.9726 Z-2.0444 F600
N11600 G03 X82.1889 Y-102.9482 Z-2.0594 I-0.1020 J0.4895 F600.0
N11610 G01 X82.5158 Y-102.8190 Z-2.1214 F600
N11620 G03 X82.6334 Y-102.7530 Z-2.1453 I-0.1838 J0.4650 F600.0
N11630 G01 X82.8697 Y-102.5745 Z-2.1975 F600
N11640 G03 X82.9759 Y-102.4653 Z-2.2245 I-0.3013 J0.3990 F600.0
N11650 G01 X83.1481 Y-102.2231 Z-2.2769 F600
N11660 G03 X83.2162 Y-102.0879 Z-2.3037 I-0.4075 J0.2898 F600.0
N11670 G01 X83.3147 Y-101.7847 Z-2.3599 F600
N11680 G03 X83.3369 Y-101.6782 Z-2.3791 I-0.4755 J0.1545 F600.0
N11690 G01 X83.3720 Y-101.3140 Z-2.4436 F600
N11700 G03 X83.3743 Y-101.2587 Z-2.4534 I-0.4977 J0.0480 F600.0
N11710 X82.3763 Y-99.4603 Z-2.8311 I-2.1767 J-0.0318
N11720 G01 X82.7347 Y-99.5958 Z-2.8986 F600
N11730 X83.1402 Y-99.8150 Z-2.9799
N11740 G02 X83.2324 Y-99.8818 Z-3.0000 I-1.0172 J-1.4999 F600.0
N11750 X83.8954 Y-101.6929 I-1.1094 J-1.4330 F1200.0
N11760 G01 X83.7702 Y-102.0950 F1200
N11770 G02 X81.7000 Y-103.2122 I-1.9171 J1.0758 F1200.0
N11780 G01 X81.6513 Y-103.2112 F1200
N11790 X80.4262 Y-103.2451
N11800 X78.0736
N11810 X78.0739 Y-103.1502
N11820 X79.0331
N11830 X80.3450
N11840 X80.3599 Y-103.1500
N11850 X81.0269 Y-103.1300
N11860 X81.0615 Y-103.1278
N11870 X81.6117 Y-103.0730
N11880 G03 X81.6641 Y-103.0650 I-0.0495 J0.4975 F1200.0
N11890 G01 X82.1072 Y-102.9726 F1200
N11900 G03 X82.1889 Y-102.9482 I-0.1020 J0.4895 F1200.0
N11910 G01 X82.5158 Y-102.8190 F1200
N11920 G03 X82.6334 Y-102.7530 I-0.1838 J0.4650 F1200.0
N11930 G01 X82.8697 Y-102.5745 F1200
N11940 G03 X82.9759 Y-102.4653 I-0.3013 J0.3990 F1200.0
N11950 G01 X83.1481 Y-102.2231 F1200
N11960 G03 X83.2162 Y-102.0879 I-0.4075 J0.2898 F1200.0
N11970 G01 X83.3147 Y-101.7847 F1200
N11980 G03 X83.3369 Y-101.6782 I-0.4755 J0.1545 F1200.0
N11990 G01 X83.3720 Y-101.3140 F1200
N12000 G03 X83.3743 Y-101.2587 I-0.4977 J0.0480 F1200.0
N12010 X82.3763 Y-99.4603 I-2.1767 J-0.0318
N12020 G01 X82.7347 Y-99.5958 F1200
N12030 X83.1402 Y-99.8150
N12040 G02 X83.2324 Y-99.8818 I-1.0172 J-1.4999 F1200.0
N12050 G00 Z1.0000
N12060 X66.5342 Y-111.7551
N12070 Z0.5000
N12080 G01 Z0.0000 F600
N12090 Y-111.8523 Z-0.0172
N12100 X62.0798 Z-0.8026
N12110 G03 X61.5798 Y-112.3523 Z-0.9411 I0.0000 J-0.5000 F600.0
N12120 G01 Y-115.2281 Z-1.4481 F600
N12130 G03 X61.6638 Y-115.5055 Z-1.5000 I0.5000 J0.0000 F600.0
N12140 X62.0798 Y-115.7281 I0.4160 J0.2774 F1200.0
N12150 G01 X65.7793 F1200
N12160 Y-115.8219
N12170 X62.0798
N12180 G03 X61.5798 Y-116.3219 I0.0000 J-0.5000 F1200.0
N12190 G01 Y-119.6509 F1200
N12200 G03 X62.0798 Y-120.1509 I0.5000 J0.0000 F1200.0
N12210 G01 X66.8735 F1200
N12220 Y-120.2451
N12230 X61.1221
N12240 Y-111.7551
N12250 X66.5342
N12260 Y-111.8523 Z-1.5172 F600
N12270 X62.0798 Z-2.3026
N12280 G03 X61.5798 Y-112.3523 Z-2.4411 I0.0000 J-0.5000 F600.0
N12290 G01 Y-115.2281 Z-2.9481 F600
N12300 G03 X61.6638 Y-115.5055 Z-3.0000 I0.5000 J0.0000 F600.0
N12310 X62.0798 Y-115.7281 I0.4160 J0.2774 F1200.0
N12320 G01 X65.7793 F1200
N12330 Y-115.8219
N12340 X62.0798
N12350 G03 X61.5798 Y-116.3219 I0.0000 J-0.5000 F1200.0
N12360 G01 Y-119.6509 F1200
N12370 G03 X62.0798 Y-120.1509 I0.5000 J0.0000 F1200.0
N12380 G01 X66.8735 F1200
N12390 Y-120.2451
N12400 X61.1221
N12410 Y-111.7551
N12420 X66.5342
N12430 Y-111.8523
N12440 X62.0798
N12450 G03 X61.5798 Y-112.3523 I0.0000 J-0.5000 F1200.0
N12460 G01 Y-115.2281 F1200
N12470 G03 X61.6638 Y-115.5055 I0.5000 J0.0000 F1200.0
N12480 G00 Z1.0000
N12490 X80.2685 Y-120.1509
N12500 Z0.5000
N12510 G01 Z0.0000 F600
N12520 G03 X80.7685 Y-119.6509 Z-0.1385 I0.0000 J0.5000 F600.0
N12530 G01 Y-112.3523 Z-1.4254 F600
N12540 G03 X80.6000 Y-111.9781 Z-1.5000 I-0.5000 J0.0000 F600.0
N12550 X80.2685 Y-111.8523 I-0.3316 J-0.3743 F1200.0
N12560 G01 X78.2153 F1200
N12570 Y-111.7551
N12580 X83.7844
N12590 Y-111.8523
N12600 X81.7299
N12610 G03 X81.2299 Y-112.3523 I0.0000 J-0.5000 F1200.0
N12620 G01 Y-119.6509 F1200
N12630 G03 X81.7299 Y-120.1509 I0.5000 J0.0000 F1200.0
N12640 G01 X83.7844 F1200
N12650 Y-120.2451
N12660 X78.2153
N12670 Y-120.1509
N12680 X80.2685
N12690 G03 X80.7685 Y-119.6509 Z-1.6385 I0.0000 J0.5000 F600.0
N12700 G01 Y-112.3523 Z-2.9254 F600
N12710 G03 X80.6000 Y-111.9781 Z-3.0000 I-0.5000 J0.0000 F600.0
N12720 X80.2685 Y-111.8523 I-0.3316 J-0.3743 F1200.0
N12730 G01 X78.2153 F1200
N12740 Y-111.7551
N12750 X83.7844
N12760 Y-111.8523
N12770 X81.7299
N12780 G03 X81.2299 Y-112.3523 I0.0000 J-0.5000 F1200.0
N12790 G01 Y-119.6509 F1200
N12800 G03 X81.7299 Y-120.1509 I0.5000 J0.0000 F1200.0
N12810 G01 X83.7844 F1200
N12820 Y-120.2451
N12830 X78.2153
N12840 Y-120.1509
N12850 X80.2685
N12860 G03 X80.7685 Y-119.6509 I0.0000 J0.5000 F1200.0
N12870 G01 Y-112.3523 F1200
N12880 G03 X80.6000 Y-111.9781 I-0.5000 J0.0000 F1200.0
N12890 G00 Z1.0000
N12900 X83.5354 Y-128.7537
N12910 Z0.5000
N12920 G01 Z0.0000 F600
N12930 Y-128.8509 Z-0.0172
N12940 X79.0810 Z-0.8026
N12950 G03 X78.5810 Y-129.3509 Z-0.9411 I0.0000 J-0.5000 F600.0
N12960 G01 Y-132.2266 Z-1.4481 F600
N12970 G03 X78.6651 Y-132.5041 Z-1.5000 I0.5000 J0.0000 F600.0
N12980 X79.0810 Y-132.7266 I0.4159 J0.2776 F1200.0
N12990 G01 X82.7802 F1200
N13000 Y-132.8235
N13010 X79.0810
N13020 G03 X78.5810 Y-133.3235 I0.0000 J-0.5000 F1200.0
N13030 G01 Y-136.6494 F1200
N13040 G03 X79.0810 Y-137.1494 I0.5000 J0.0000 F1200.0
N13050 G01 X83.8750 F1200
N13060 Y-137.2466
N13070 X78.1227
N13080 Y-128.7537
N13090 X83.5354
N13100 Y-128.8509 Z-1.5172 F600
N13110 X79.0810 Z-2.3026
N13120 G03 X78.5810 Y-129.3509 Z-2.4411 I0.0000 J-0.5000 F600.0
N13130 G01 Y-132.2266 Z-2.9481 F600
N13140 G03 X78.6651 Y-132.5041 Z-3.0000 I0.5000 J0.0000 F600.0
N13150 X79.0810 Y-132.7266 I0.4159 J0.2776 F1200.0
N13160 G01 X82.7802 F1200
N13170 Y-132.8235
N13180 X79.0810
N13190 G03 X78.5810 Y-133.3235 I0.0000 J-0.5000 F1200.0
N13200 G01 Y-136.6494 F1200
N13210 G03 X79.0810 Y-137.1494 I0.5000 J0.0000 F1200.0
N13220 G01 X83.8750 F1200
N13230 Y-137.2466
N13240 X78.1227
N13250 Y-128.7537
N13260 X83.5354
N13270 Y-128.8509
N13280 X79.0810
N13290 G03 X78.5810 Y-129.3509 I0.0000 J-0.5000 F1200.0
N13300 G01 Y-132.2266 F1200
N13310 G03 X78.6651 Y-132.5041 I0.5000 J0.0000 F1200.0
N13320 G00 Z1.0000
N13330 X97.2688 Y-137.1494
N13340 Z0.5000
N13350 G01 Z0.0000 F600
N13360 G03 X97.7688 Y-136.6494 Z-0.1385 I0.0000 J0.5000 F600.0
N13370 G01 Y-129.3509 Z-1.4254 F600
N13380 G03 X97.6003 Y-128.9766 Z-1.5000 I-0.5000 J0.0000 F600.0
N13390 X97.2688 Y-128.8509 I-0.3314 J-0.3744 F1200.0
N13400 G01 X95.2139 F1200
N13410 Y-128.7537
N13420 X100.7858
N13430 Y-128.8509
N13440 X98.7313
N13450 G03 X98.2313 Y-129.3509 I0.0000 J-0.5000 F1200.0
N13460 G01 Y-136.6494 F1200
N13470 G03 X98.7313 Y-137.1494 I0.5000 J0.0000 F1200.0
N13480 G01 X100.7858 F1200
N13490 Y-137.2466
N13500 X95.2139
N13510 Y-137.1494
N13520 X97.2688
N13530 G03 X97.7688 Y-136.6494 Z-1.6385 I0.0000 J0.5000 F600.0
N13540 G01 Y-129.3509 Z-2.9254 F600
N13550 G03 X97.6003 Y-128.9766 Z-3.0000 I-0.5000 J0.0000 F600.0
N13560 X97.2688 Y-128.8509 I-0.3314 J-0.3744 F1200.0
N13570 G01 X95.2139 F1200
N13580 Y-128.7537
N13590 X100.7858
N13600 Y-128.8509
N13610 X98.7313
N13620 G03 X98.2313 Y-129.3509 I0.0000 J-0.5000 F1200.0
N13630 G01 Y-136.6494 F1200
N13640 G03 X98.7313 Y-137.1494 I0.5000 J0.0000 F1200.0
N13650 G01 X100.7858 F1200
N13660 Y-137.2466
N13670 X95.2139
N13680 Y-137.1494
N13690 X97.2688
N13700 G03 X97.7688 Y-136.6494 I0.0000 J0.5000 F1200.0
N13710 G01 Y-129.3509 F1200
N13720 G03 X97.6003 Y-128.9766 I-0.5000 J0.0000 F1200.0
N13730 G00 Z1.0000
N13740 X100.5364 Y-145.7542
N13750 Z0.5000
N13760 G01 Z0.0000 F600
N13770 Y-145.8504 Z-0.0170
N13780 X96.0796 Z-0.8028
N13790 G03 X95.5796 Y-146.3504 Z-0.9413 I0.0000 J-0.5000 F600.0
N13800 G01 Y-149.2271 Z-1.4485 F600
N13810 G03 X95.6624 Y-149.5026 Z-1.5000 I0.5000 J0.0000 F600.0
N13820 X96.0796 Y-149.7271 I0.4172 J0.2755 F1200.0
N13830 G01 X99.7819 F1200
N13840 Y-149.8233
N13850 X96.0796
N13860 G03 X95.5796 Y-150.3233 I0.0000 J-0.5000 F1200.0
N13870 G01 Y-153.6492 F1200
N13880 G03 X96.0796 Y-154.1492 I0.5000 J0.0000 F1200.0
N13890 G01 X100.8761 F1200
N13900 Y-154.2461
N13910 X95.1237
N13920 Y-145.7542
N13930 X100.5364
N13940 Y-145.8504 Z-1.5170 F600
N13950 X96.0796 Z-2.3028
N13960 G03 X95.5796 Y-146.3504 Z-2.4413 I0.0000 J-0.5000 F600.0
N13970 G01 Y-149.2271 Z-2.9485 F600
N13980 G03 X95.6624 Y-149.5026 Z-3.0000 I0.5000 J0.0000 F600.0
N13990 X96.0796 Y-149.7271 I0.4172 J0.2755 F1200.0
N14000 G01 X99.7819 F1200
N14010 Y-149.8233
N14020 X96.0796
N14030 G03 X95.5796 Y-150.3233 I0.0000 J-0.5000 F1200.0
N14040 G01 Y-153.6492 F1200
N14050 G03 X96.0796 Y-154.1492 I0.5000 J0.0000 F1200.0
N14060 G01 X100.8761 F1200
N14070 Y-154.2461
N14080 X95.1237
N14090 Y-145.7542
N14100 X100.5364
N14110 Y-145.8504
N14120 X96.0796
N14130 G03 X95.5796 Y-146.3504 I0.0000 J-0.5000 F1200.0
N14140 G01 Y-149.2271 F1200
N14150 G03 X95.6624 Y-149.5026 I0.5000 J0.0000 F1200.0
N14160 G00 Z1.0000
N14170 X112.7337 Y-150.9014
N14180 Z0.5000
N14190 G01 Z0.0000 F600
N14200 X112.7342 Y-150.9232 Z-0.0038
N14210 X112.7649 Y-151.6256 Z-0.1278
N14220 G03 X112.7697 Y-151.6765 Z-0.1368 I0.4995 J0.0218 F600.0
N14230 G01 X112.8576 Y-152.2746 Z-0.2434 F600
N14240 G03 X112.8738 Y-152.3472 Z-0.2566 I0.4947 J0.0727 F600.0
N14250 G01 X113.0240 Y-152.8419 Z-0.3477 F600
N14260 X113.0335 Y-152.8701 Z-0.3530
N14270 G03 X114.6820 Y-154.2170 Z-0.7466 I1.9700 J0.7288 F600.0
N14280 G01 X114.7179 Y-154.2213 Z-0.7530 F600
N14290 X115.2127 Y-154.2616 Z-0.8405
N14300 G03 X115.2916 Y-154.2618 Z-0.8544 I0.0406 J0.4983 F600.0
N14310 G01 X115.8159 Y-154.2214 Z-0.9472 F600
N14320 X115.8433 Y-154.2186 Z-0.9520
N14330 G03 X117.5565 Y-152.8779 Z-1.3543 I-0.2819 J2.1251 F600.0
N14340 G01 X117.5688 Y-152.8428 Z-1.3609 F600
N14350 X117.7242 Y-152.3412 Z-1.4535
N14360 G03 X117.7409 Y-152.2683 Z-1.4667 I-0.4776 J0.1479 F600.0
N14370 G01 X117.7693 Y-152.0814 Z-1.5000 F600
N14380 X117.8336 Y-151.6575 F1200
N14390 G03 X117.8388 Y-151.6034 I-0.4943 J0.0750 F1200.0
N14400 G01 X117.8688 Y-150.8861 F1200
N14410 X117.8692 Y-150.8652
N14420 Y-145.6398
N14430 X118.1422
N14440 Y-150.6437
N14450 X118.1169 Y-151.4439
N14460 X118.0425 Y-152.0980
N14470 X117.9251 Y-152.6084
N14480 X117.7675 Y-152.9969
N14490 G02 X115.7292 Y-154.3358 I-2.2759 J1.2437 F1200.0
N14500 G01 X115.2747 Y-154.3592 F1200
N14510 X114.4855 Y-154.2997
N14520 G02 X112.4790 Y-152.5329 I0.2923 J2.3546 F1200.0
N14530 G01 X112.3272 Y-151.7664 F1200
N14540 X112.2785 Y-150.8662
N14550 Y-145.6398
N14560 X112.7337
N14570 Y-150.9014
N14580 X112.7342 Y-150.9232 Z-1.5038 F600
N14590 X112.7649 Y-151.6256 Z-1.6278
N14600 G03 X112.7697 Y-151.6765 Z-1.6368 I0.4995 J0.0218 F600.0
N14610 G01 X112.8576 Y-152.2746 Z-1.7434 F600
N14620 G03 X112.8738 Y-152.3472 Z-1.7566 I0.4947 J0.0727 F600.0
N14630 G01 X113.0240 Y-152.8419 Z-1.8477 F600
N14640 X113.0335 Y-152.8701 Z-1.8530
N14650 G03 X114.6820 Y-154.2170 Z-2.2466 I1.9700 J0.7288 F600.0
N14660 G01 X114.7179 Y-154.2213 Z-2.2530 F600
N14670 X115.2127 Y-154.2616 Z-2.3405
N14680 G03 X115.2916 Y-154.2618 Z-2.3544 I0.0406 J0.4983 F600.0
N14690 G01 X115.8159 Y-154.2214 Z-2.4472 F600
N14700 X115.8433 Y-154.2186 Z-2.4520
N14710 G03 X117.5565 Y-152.8779 Z-2.8543 I-0.2819 J2.1251 F600.0
N14720 G01 X117.5688 Y-152.8428 Z-2.8609 F600
N14730 X117.7242 Y-152.3412 Z-2.9535
N14740 G03 X117.7409 Y-152.2683 Z-2.9667 I-0.4776 J0.1479 F600.0
N14750 G01 X117.7693 Y-152.0814 Z-3.0000 F600
N14760 X117.8336 Y-151.6575 F1200
N14770 G03 X117.8388 Y-151.6034 I-0.4943 J0.0750 F1200.0
N14780 G01 X117.8688 Y-150.8861 F1200
N14790 X117.8692 Y-150.8652
N14800 Y-145.6398
N14810 X118.1422
N14820 Y-150.6437
N14830 X118.1169 Y-151.4439
N14840 X118.0425 Y-152.0980
N14850 X117.9251 Y-152.6084
N14860 X117.7675 Y-152.9969
N14870 G02 X115.7292 Y-154.3358 I-2.2759 J1.2437 F1200.0
N14880 G01 X115.2747 Y-154.3592 F1200
N14890 X114.4855 Y-154.2997
N14900 G02 X112.4790 Y-152.5329 I0.2923 J2.3546 F1200.0
N14910 G01 X112.3272 Y-151.7664 F1200
N14920 X112.2785 Y-150.8662
N14930 Y-145.6398
N14940 X112.7337
N14950 Y-150.9014
N14960 X112.7342 Y-150.9232
N14970 X112.7649 Y-151.6256
N14980 G03 X112.7697 Y-151.6765 I0.4995 J0.0218 F1200.0
N14990 G01 X112.8576 Y-152.2746 F1200
N15000 G03 X112.8738 Y-152.3472 I0.4947 J0.0727 F1200.0
N15010 G01 X113.0240 Y-152.8419 F1200
N15020 X113.0335 Y-152.8701
N15030 G03 X114.6820 Y-154.2170 I1.9700 J0.7288 F1200.0
N15040 G01 X114.7179 Y-154.2213 F1200
N15050 X115.2127 Y-154.2616
N15060 G03 X115.2916 Y-154.2618 I0.0406 J0.4983 F1200.0
N15070 G01 X115.8159 Y-154.2214 F1200
N15080 X115.8433 Y-154.2186
N15090 G03 X117.5565 Y-152.8779 I-0.2819 J2.1251 F1200.0
N15100 G01 X117.5688 Y-152.8428 F1200
N15110 X117.7242 Y-152.3412
N15120 G03 X117.7409 Y-152.2683 I-0.4776 J0.1479 F1200.0
N15130 G01 X117.7693 Y-152.0814 F1200
N15140 G00 Z1.0000
N15150 X118.5405 Y-171.1480
N15160 Z0.5000
N15170 G01 Z0.0000 F600
N15180 Y-171.2441 Z-0.0169
N15190 X111.8782 Y-171.2452 Z-1.1917
N15200 Y-170.8261 Z-1.2656
N15210 X112.7188 Y-169.7961 Z-1.5000
N15220 X117.7217 Y-163.6659 F1200
N15230 G03 X117.3344 Y-162.8497 I-0.3874 J0.3161 F1200.0
N15240 G01 X112.2421 Y-162.8493 F1200
N15250 X112.2419 Y-162.7555
N15260 X118.4806 Y-162.7561
N15270 X118.4798 Y-163.1734
N15280 X112.6463 Y-170.3321
N15290 G03 X113.0339 Y-171.1480 I0.3876 J-0.3159 F1200.0
N15300 G01 X118.5405 F1200
N15310 Y-171.2441 Z-1.5169 F600
N15320 X111.8782 Y-171.2452 Z-2.6917
N15330 Y-170.8261 Z-2.7656
N15340 X112.7188 Y-169.7961 Z-3.0000
N15350 X117.7217 Y-163.6659 F1200
N15360 G03 X117.3344 Y-162.8497 I-0.3874 J0.3161 F1200.0
N15370 G01 X112.2421 Y-162.8493 F1200
N15380 X112.2419 Y-162.7555
N15390 X118.4806 Y-162.7561
N15400 X118.4798 Y-163.1734
N15410 X112.6463 Y-170.3321
N15420 G03 X113.0339 Y-171.1480 I0.3876 J-0.3159 F1200.0
N15430 G01 X118.5405 F1200
N15440 Y-171.2441
N15450 X111.8782 Y-171.2452
N15460 Y-170.8261
N15470 X112.7188 Y-169.7961
N15480 G00 Z1.0000
N15490 X118.0102 Y-184.9271
N15500 Z0.5000
N15510 G01 Z0.0000 F600
N15520 G02 X118.3634 Y-186.5620 Z-0.3052 I-1.5073 J-1.1812 F600.0
N15530 G01 X118.1944 Y-187.0403 Z-0.3947 F600
N15540 X117.9320 Y-187.4326 Z-0.4779
N15550 X117.5529 Y-187.7839 Z-0.5690
N15560 X117.0622 Y-188.0795 Z-0.6700
N15570 X116.4841 Y-188.2947 Z-0.7788
N15580 X115.7997 Y-188.4297 Z-0.9018
N15590 G02 X112.9088 Y-188.1931 Z-1.4156 I-0.7360 J8.7845 F600.0
N15600 G01 X112.4440 Y-188.0781 Z-1.5000 F600
N15610 X112.3574 Y-188.0567 F1200
N15620 Y-187.7525
N15630 X112.5957 Y-187.8509
N15640 X112.6332 Y-187.8646
N15650 X113.4757 Y-188.1362
N15660 G03 X116.6167 Y-188.1113 I1.5344 J4.5715 F1200.0
N15670 X116.6831 Y-188.0823 I-0.1666 J0.4714
N15680 G01 X117.0324 Y-187.8983 F1200
N15690 G03 X117.1187 Y-187.8407 I-0.2330 J0.4424 F1200.0
N15700 G01 X117.3998 Y-187.6075 F1200
N15710 G03 X117.4805 Y-187.5228 I-0.3193 J0.3848 F1200.0
N15720 G01 X117.6803 Y-187.2565 F1200
N15730 G03 X117.7446 Y-187.1421 I-0.3999 J0.3001 F1200.0
N15740 G01 X117.8659 Y-186.8389 F1200
N15750 G03 X117.8982 Y-186.7117 I-0.4642 J0.1857 F1200.0
N15760 G01 X117.9385 Y-186.3696 F1200
N15770 G03 X117.9330 Y-186.2168 I-0.4966 J0.0585 F1200.0
N15780 G01 X117.8386 Y-185.7252 F1200
N15790 G03 X117.7455 Y-185.5169 I-0.4910 J-0.0943 F1200.0
N15800 G01 X117.4603 Y-185.1417 F1200
N15810 G03 X117.3170 Y-185.0141 I-0.3980 J-0.3026 F1200.0
N15820 G01 X116.7317 Y-184.6675 F1200
N15830 G03 X116.6677 Y-184.6355 I-0.2547 J-0.4302 F1200.0
N15840 G01 X115.6782 Y-184.2273 F1200
N15850 X115.6578 Y-184.2194
N15860 X114.6930 Y-183.8699
N15870 X114.0450 Y-183.6065
N15880 X113.5211 Y-183.3503
N15890 X113.1007 Y-183.0905
N15900 G02 X112.4239 Y-181.7316 I0.9006 J1.2966 F1200.0
N15910 G01 X112.4238 Y-181.6899 F1200
N15920 G02 X113.4752 Y-179.8766 I1.9415 J0.0857 F1200.0
N15930 G01 X113.9786 Y-179.6810 F1200
N15940 X114.5624 Y-179.5653
N15950 G02 X117.6168 Y-179.8540 I0.6554 J-9.3700 F1200.0
N15960 G01 Y-180.0266 F1200
N15970 G03 X115.2798 Y-179.6199 I-2.6489 J-8.3029 F1200.0
N15980 X115.2135 Y-179.6219 I-0.0179 J-0.4997
N15990 G01 X114.3491 Y-179.7060 F1200
N16000 G03 X114.2106 Y-179.7399 I0.0484 J-0.4977 F1200.0
N16010 G01 X113.5908 Y-179.9897 F1200
N16020 G03 X113.4045 Y-180.1207 I0.1869 J-0.4638 F1200.0
N16030 G01 X113.0345 Y-180.5359 F1200
N16040 G03 X112.9187 Y-180.7644 I0.3733 J-0.3327 F1200.0
N16050 G01 X112.7947 Y-181.3466 F1200
N16060 G03 X112.7928 Y-181.5456 I0.4890 J-0.1042 F1200.0
N16070 G01 X112.8872 Y-182.0344 F1200
N16080 G03 X112.9742 Y-182.2344 I0.4909 J0.0948 F1200.0
N16090 G01 X113.2515 Y-182.6144 F1200
N16100 G03 X113.3876 Y-182.7418 I0.4039 J0.2948 F1200.0
N16110 G01 X113.9143 Y-183.0760 F1200
N16120 G03 X113.9934 Y-183.1168 I0.2678 J0.4222 F1200.0
N16130 G01 X114.8368 Y-183.4606 F1200
N16140 X114.8618 Y-183.4700
N16150 X116.6784 Y-184.0998
N16160 X116.6953 Y-184.1053
N16170 G02 X118.0102 Y-184.9271 I-0.8838 J-2.8771 F1200.0
N16180 X118.3634 Y-186.5620 Z-1.8052 I-1.5073 J-1.1812 F600.0
N16190 G01 X118.1944 Y-187.0403 Z-1.8947 F600
N16200 X117.9320 Y-187.4326 Z-1.9779
N16210 X117.5529 Y-187.7839 Z-2.0690
N16220 X117.0622 Y-188.0795 Z-2.1700
N16230 X116.4841 Y-188.2947 Z-2.2788
N16240 X115.7997 Y-188.4297 Z-2.4018
N16250 G02 X112.9088 Y-188.1931 Z-2.9156 I-0.7360 J8.7845 F600.0
N16260 G01 X112.4440 Y-188.0781 Z-3.0000 F600
N16270 X112.3574 Y-188.0567 F1200
N16280 Y-187.7525
N16290 X112.5957 Y-187.8509
N16300 X112.6332 Y-187.8646
N16310 X113.4757 Y-188.1362
N16320 G03 X116.6167 Y-188.1113 I1.5344 J4.5715 F1200.0
N16330 X116.6831 Y-188.0823 I-0.1666 J0.4714
N16340 G01 X117.0324 Y-187.8983 F1200
N16350 G03 X117.1187 Y-187.8407 I-0.2330 J0.4424 F1200.0
N16360 G01 X117.3998 Y-187.6075 F1200
N16370 G03 X117.4805 Y-187.5228 I-0.3193 J0.3848 F1200.0
N16380 G01 X117.6803 Y-187.2565 F1200
N16390 G03 X117.7446 Y-187.1421 I-0.3999 J0.3001 F1200.0
N16400 G01 X117.8659 Y-186.8389 F1200
N16410 G03 X117.8982 Y-186.7117 I-0.4642 J0.1857 F1200.0
N16420 G01 X117.9385 Y-186.3696 F1200
N16430 G03 X117.9330 Y-186.2168 I-0.4966 J0.0585 F1200.0
N16440 G01 X117.8386 Y-185.7252 F1200
N16450 G03 X117.7455 Y-185.5169 I-0.4910 J-0.0943 F1200.0
N16460 G01 X117.4603 Y-185.1417 F1200
N16470 G03 X117.3170 Y-185.0141 I-0.3980 J-0.3026 F1200.0
N16480 G01 X116.7317 Y-184.6675 F1200
N16490 G03 X116.6677 Y-184.6355 I-0.2547 J-0.4302 F1200.0
N16500 G01 X115.6782 Y-184.2273 F1200
N16510 X115.6578 Y-184.2194
N16520 X114.6930 Y-183.8699
N16530 X114.0450 Y-183.6065
N16540 X113.5211 Y-183.3503
N16550 X113.1007 Y-183.0905
N16560 G02 X112.4239 Y-181.7316 I0.9006 J1.2966 F1200.0
N16570 G01 X112.4238 Y-181.6899 F1200
N16580 G02 X113.4752 Y-179.8766 I1.9415 J0.0857 F1200.0
N16590 G01 X113.9786 Y-179.6810 F1200
N16600 X114.5624 Y-179.5653
N16610 G02 X117.6168 Y-179.8540 I0.6554 J-9.3700 F1200.0
N16620 G01 Y-180.0266 F1200
N16630 G03 X115.2798 Y-179.6199 I-2.6489 J-8.3029 F1200.0
N16640 X115.2135 Y-179.6219 I-0.0179 J-0.4997
N16650 G01 X114.3491 Y-179.7060 F1200
N16660 G03 X114.2106 Y-179.7399 I0.0484 J-0.4977 F1200.0
N16670 G01 X113.5908 Y-179.9897 F1200
N16680 G03 X113.4045 Y-180.1207 I0.1869 J-0.4638 F1200.0
N16690 G01 X113.0345 Y-180.5359 F1200
N16700 G03 X112.9187 Y-180.7644 I0.3733 J-0.3327 F1200.0
N16710 G01 X112.7947 Y-181.3466 F1200
N16720 G03 X112.7928 Y-181.5456 I0.4890 J-0.1042 F1200.0
N16730 G01 X112.8872 Y-182.0344 F1200
N16740 G03 X112.9742 Y-182.2344 I0.4909 J0.0948 F1200.0
N16750 G01 X113.2515 Y-182.6144 F1200
N16760 G03 X113.3876 Y-182.7418 I0.4039 J0.2948 F1200.0
N16770 G01 X113.9143 Y-183.0760 F1200
N16780 G03 X113.9934 Y-183.1168 I0.2678 J0.4222 F1200.0
N16790 G01 X114.8368 Y-183.4606 F1200
N16800 X114.8618 Y-183.4700
N16810 X116.6784 Y-184.0998
N16820 X116.6953 Y-184.1053
N16830 G02 X118.0102 Y-184.9271 I-0.8838 J-2.8771 F1200.0
N16840 X118.3634 Y-186.5620 I-1.5073 J-1.1812
N16850 G01 X118.1944 Y-187.0403 F1200
N16860 X117.9320 Y-187.4326
N16870 X117.5529 Y-187.7839
N16880 X117.0622 Y-188.0795
N16890 X116.4841 Y-188.2947
N16900 X115.7997 Y-188.4297
N16910 G02 X112.9088 Y-188.1931 I-0.7360 J8.7845 F1200.0
N16920 G01 X112.4440 Y-188.0781 F1200
N16930 G00 Z1.0000
N16940 X117.7759 Y-196.7402
N16950 Z0.5000
N16960 G01 Z0.0000 F600
N16970 X117.9699 Z-0.0342
N16980 Y-205.0531 Z-1.5000
N16990 Y-205.2597 F1200
N17000 X117.4008
N17010 X113.1625 Y-198.5394
N17020 G03 X112.7395 Y-198.3061 I-0.4229 J-0.2667 F1200.0
N17030 G01 X112.7154 F1200
N17040 G03 X112.2154 Y-198.8061 I0.0000 J-0.5000 F1200.0
N17050 G01 Y-205.2597 F1200
N17060 X112.0303
N17070 Y-196.7402
N17080 X112.6317
N17090 X116.8534 Y-203.4109
N17100 G03 X117.7759 Y-203.1435 I0.4225 J0.2674 F1200.0
N17110 G01 Y-196.7402 F1200
N17120 X117.9699 Z-1.5342 F600
N17130 Y-205.0531 Z-3.0000
N17140 Y-205.2597 F1200
N17150 X117.4008
N17160 X113.1625 Y-198.5394
N17170 G03 X112.7395 Y-198.3061 I-0.4229 J-0.2667 F1200.0
N17180 G01 X112.7154 F1200
N17190 G03 X112.2154 Y-198.8061 I0.0000 J-0.5000 F1200.0
N17200 G01 Y-205.2597 F1200
N17210 X112.0303
N17220 Y-196.7402
N17230 X112.6317
N17240 X116.8534 Y-203.4109
N17250 G03 X117.7759 Y-203.1435 I0.4225 J0.2674 F1200.0
N17260 G01 Y-196.7402 F1200
N17270 X117.9699
N17280 Y-205.0531
N17290 G00 Z1.0000
N17300 X129.9384 Y-184.7238
N17310 Z0.5000
N17320 G01 Z0.0000 F600
N17330 X129.9375 Y-184.7543 Z-0.0054
N17340 Y-188.2444 Z-0.6208
N17350 X129.4803 Y-188.2450 Z-0.7014
N17360 X129.4804 Y-183.7160 Z-1.5000
N17370 X129.4805 Y-179.7548 F1200
N17380 X135.2333 Y-179.7584
N17390 Y-179.8499
N17400 X130.4375 Y-179.8504
N17410 G03 X129.9375 Y-180.3513 I0.0001 J-0.5000 F1200.0
N17420 G01 X129.9433 Y-183.6176 F1200
N17430 G03 X130.4424 Y-184.1167 I0.5000 J0.0009 F1200.0
N17440 G01 X134.4567 Y-184.1240 F1200
N17450 Y-184.2140
N17460 X130.4400
N17470 G03 X129.9409 Y-184.6835 I0.0000 J-0.5000 F1200.0
N17480 G01 X129.9384 Y-184.7238 F1200
N17490 X129.9375 Y-184.7543 Z-1.5054 F600
N17500 Y-188.2444 Z-2.1208
N17510 X129.4803 Y-188.2450 Z-2.2014
N17520 X129.4804 Y-183.7160 Z-3.0000
N17530 X129.4805 Y-179.7548 F1200
N17540 X135.2333 Y-179.7584
N17550 Y-179.8499
N17560 X130.4375 Y-179.8504
N17570 G03 X129.9375 Y-180.3513 I0.0001 J-0.5000 F1200.0
N17580 G01 X129.9433 Y-183.6176 F1200
N17590 G03 X130.4424 Y-184.1167 I0.5000 J0.0009 F1200.0
N17600 G01 X134.4567 Y-184.1240 F1200
N17610 Y-184.2140
N17620 X130.4400
N17630 G03 X129.9409 Y-184.6835 I0.0000 J-0.5000 F1200.0
N17640 G01 X129.9384 Y-184.7238 F1200
N17650 X129.9375 Y-184.7543
N17660 Y-188.2444
N17670 X129.4803 Y-188.2450
N17680 X129.4804 Y-183.7160
N17690 G00 Z1.0000
N17700 X148.6456 Y-186.2397
N17710 Z0.5000
N17720 G01 Z0.0000 F600
N17730 X146.6215 Y-180.6038 Z-1.0559
N17740 G03 X145.6509 Y-180.7706 Z-1.3021 I-0.4706 J-0.1690 F600.0
N17750 G01 X145.6472 Y-181.6184 Z-1.4516 F600
N17760 Y-181.8929 Z-1.5000
N17770 X145.6471 Y-188.2458 F1200
N17780 X145.6350
N17790 X145.6351 Y-179.7545
N17800 X146.5342
N17810 X148.5167 Y-185.2680
N17820 G03 X149.4590 Y-185.2643 I0.4705 J0.1692 F1200.0
N17830 G01 X151.3912 Y-179.7556 F1200
N17840 X152.3645 Y-179.7549
N17850 X152.3649 Y-188.2458
N17860 X152.1739
N17870 X152.1586 Y-180.5992
N17880 G03 X151.1865 Y-180.4354 I-0.5000 J-0.0010 F1200.0
N17890 G01 X149.1607 Y-186.2397 F1200
N17900 X148.6456
N17910 X146.6215 Y-180.6038 Z-2.5559 F600
N17920 G03 X145.6509 Y-180.7706 Z-2.8021 I-0.4706 J-0.1690 F600.0
N17930 G01 X145.6472 Y-181.6184 Z-2.9516 F600
N17940 Y-181.8929 Z-3.0000
N17950 X145.6471 Y-188.2458 F1200
N17960 X145.6350
N17970 X145.6351 Y-179.7545
N17980 X146.5342
N17990 X148.5167 Y-185.2680
N18000 G03 X149.4590 Y-185.2643 I0.4705 J0.1692 F1200.0
N18010 G01 X151.3912 Y-179.7556 F1200
N18020 X152.3645 Y-179.7549
N18030 X152.3649 Y-188.2458
N18040 X152.1739
N18050 X152.1586 Y-180.5992
N18060 G03 X151.1865 Y-180.4354 I-0.5000 J-0.0010 F1200.0
N18070 G01 X149.1607 Y-186.2397 F1200
N18080 X148.6456
N18090 X146.6215 Y-180.6038
N18100 G03 X145.6509 Y-180.7706 I-0.4706 J-0.1690 F1200.0
N18110 G01 X145.6472 Y-181.6184 F1200
N18120 Y-181.8929
N18130 G00 Z1.0000
N18140 X150.7298 Y-201.2779
N18150 Z0.5000
N18160 G01 Z0.0000 F600
N18170 X151.1145 Y-201.4863 Z-0.0771
N18180 G02 X151.9806 Y-203.5642 Z-0.5013 I-1.0040 J-1.6380 F600.0
N18190 G01 X151.8122 Y-204.0422 Z-0.5906 F600
N18200 X151.5507 Y-204.4337 Z-0.6736
N18210 X151.1709 Y-204.7847 Z-0.7648
N18220 X150.6838 Y-205.0799 Z-0.8652
N18230 X150.1029 Y-205.2946 Z-0.9745
N18240 X149.4273 Y-205.4293 Z-1.0959
N18250 X148.6479 Y-205.4747 Z-1.2336
N18260 X148.0373 Y-205.4453 Z-1.3414
N18270 X147.3241 Y-205.3508 Z-1.4682
N18280 X147.1472 Y-205.3163 Z-1.5000
N18290 X146.5130 Y-205.1928 F1200
N18300 X145.9754 Y-205.0593
N18310 Y-204.7519
N18320 X146.2142 Y-204.8504
N18330 X146.2511 Y-204.8640
N18340 X147.0937 Y-205.1363
N18350 G03 X150.2359 Y-205.1107 I1.5340 J4.5686 F1200.0
N18360 X150.3038 Y-205.0808 I-0.1668 J0.4713
N18370 G01 X150.6517 Y-204.8958 F1200
N18380 G03 X150.7339 Y-204.8411 I-0.2347 J0.4415 F1200.0
N18390 G01 X151.0164 Y-204.6096 F1200
N18400 G03 X151.0980 Y-204.5248 I-0.3169 J0.3867 F1200.0
N18410 G01 X151.3006 Y-204.2575 F1200
N18420 G03 X151.3673 Y-204.1386 I-0.3985 J0.3020 F1200.0
N18430 G01 X151.4865 Y-203.8358 F1200
N18440 G03 X151.5179 Y-203.7108 I-0.4653 J0.1831 F1200.0
N18450 G01 X151.5579 Y-203.3690 F1200
N18460 G03 X151.5520 Y-203.2152 I-0.4966 J0.0581 F1200.0
N18470 G01 X151.4562 Y-202.7243 F1200
N18480 G03 X151.3627 Y-202.5164 I-0.4907 J-0.0957 F1200.0
N18490 G01 X151.0768 Y-202.1423 F1200
N18500 G03 X150.9360 Y-202.0167 I-0.3973 J-0.3036 F1200.0
N18510 G01 X150.3538 Y-201.6687 F1200
N18520 G03 X150.2880 Y-201.6357 I-0.2565 J-0.4292 F1200.0
N18530 G01 X149.2986 Y-201.2275 F1200
N18540 X149.2786 Y-201.2197
N18550 X148.3136 Y-200.8690
N18560 X147.6647 Y-200.6060
N18570 X147.1398 Y-200.3503
N18580 X146.7171 Y-200.0871
N18590 G02 X146.0762 Y-199.1013 I0.8010 J1.2220 F1200.0
N18600 G01 X146.0440 Y-198.7123 F1200
N18610 X146.0918 Y-198.1762
N18620 G02 X147.0893 Y-196.8803 I1.8010 J-0.3545 F1200.0
N18630 G01 X147.5993 Y-196.6832 F1200
N18640 X148.1824 Y-196.5647
N18650 G02 X151.2365 Y-196.8535 I0.6580 J-9.3349 F1200.0
N18660 G01 Y-197.0271 F1200
N18670 G03 X148.8973 Y-196.6204 I-2.6584 J-8.3604 F1200.0
N18680 X148.8307 Y-196.6224 I-0.0182 J-0.4997
N18690 G01 X147.9673 Y-196.7065 F1200
N18700 G03 X147.8282 Y-196.7407 I0.0485 J-0.4976 F1200.0
N18710 G01 X147.2109 Y-196.9904 F1200
N18720 G03 X147.0252 Y-197.1212 I0.1875 J-0.4635 F1200.0
N18730 G01 X146.6538 Y-197.5377 F1200
N18740 G03 X146.5378 Y-197.7670 I0.3732 J-0.3328 F1200.0
N18750 G01 X146.4152 Y-198.3472 F1200
N18760 G03 X146.4131 Y-198.5435 I0.4892 J-0.1034 F1200.0
N18770 G01 X146.5054 Y-199.0317 F1200
N18780 G03 X146.5924 Y-199.2329 I0.4913 J0.0929 F1200.0
N18790 G01 X146.8694 Y-199.6136 F1200
N18800 G03 X147.0054 Y-199.7414 I0.4043 J0.2942 F1200.0
N18810 G01 X147.5325 Y-200.0766 F1200
N18820 G03 X147.6129 Y-200.1180 I0.2683 J0.4219 F1200.0
N18830 G01 X148.4562 Y-200.4601 F1200
N18840 X148.4801 Y-200.4691
N18850 X150.2844 Y-201.0958
N18860 X150.7298 Y-201.2779
N18870 X151.1145 Y-201.4863 Z-1.5771 F600
N18880 G02 X151.9806 Y-203.5642 Z-2.0013 I-1.0040 J-1.6380 F600.0
N18890 G01 X151.8122 Y-204.0422 Z-2.0906 F600
N18900 X151.5507 Y-204.4337 Z-2.1736
N18910 X151.1709 Y-204.7847 Z-2.2648
N18920 X150.6838 Y-205.0799 Z-2.3652
N18930 X150.1029 Y-205.2946 Z-2.4745
N18940 X149.4273 Y-205.4293 Z-2.5959
N18950 X148.6479 Y-205.4747 Z-2.7336
N18960 X148.0373 Y-205.4453 Z-2.8414
N18970 X147.3241 Y-205.3508 Z-2.9682
N18980 X147.1472 Y-205.3163 Z-3.0000
N18990 X146.5130 Y-205.1928 F1200
N19000 X145.9754 Y-205.0593
N19010 Y-204.7519
N19020 X146.2142 Y-204.8504
N19030 X146.2511 Y-204.8640
N19040 X147.0937 Y-205.1363
N19050 G03 X150.2359 Y-205.1107 I1.5340 J4.5686 F1200.0
N19060 X150.3038 Y-205.0808 I-0.1668 J0.4713
N19070 G01 X150.6517 Y-204.8958 F1200
N19080 G03 X150.7339 Y-204.8411 I-0.2347 J0.4415 F1200.0
N19090 G01 X151.0164 Y-204.6096 F1200
N19100 G03 X151.0980 Y-204.5248 I-0.3169 J0.3867 F1200.0
N19110 G01 X151.3006 Y-204.2575 F1200
N19120 G03 X151.3673 Y-204.1386 I-0.3985 J0.3020 F1200.0
N19130 G01 X151.4865 Y-203.8358 F1200
N19140 G03 X151.5179 Y-203.7108 I-0.4653 J0.1831 F1200.0
N19150 G01 X151.5579 Y-203.3690 F1200
N19160 G03 X151.5520 Y-203.2152 I-0.4966 J0.0581 F1200.0
N19170 G01 X151.4562 Y-202.7243 F1200
N19180 G03 X151.3627 Y-202.5164 I-0.4907 J-0.0957 F1200.0
N19190 G01 X151.0768 Y-202.1423 F1200
N19200 G03 X150.9360 Y-202.0167 I-0.3973 J-0.3036 F1200.0
N19210 G01 X150.3538 Y-201.6687 F1200
N19220 G03 X150.2880 Y-201.6357 I-0.2565 J-0.4292 F1200.0
N19230 G01 X149.2986 Y-201.2275 F1200
N19240 X149.2786 Y-201.2197
N19250 X148.3136 Y-200.8690
N19260 X147.6647 Y-200.6060
N19270 X147.1398 Y-200.3503
N19280 X146.7171 Y-200.0871
N19290 G02 X146.0762 Y-199.1013 I0.8010 J1.2220 F1200.0
N19300 G01 X146.0440 Y-198.7123 F1200
N19310 X146.0918 Y-198.1762
N19320 G02 X147.0893 Y-196.8803 I1.8010 J-0.3545 F1200.0
N19330 G01 X147.5993 Y-196.6832 F1200
N19340 X148.1824 Y-196.5647
N19350 G02 X151.2365 Y-196.8535 I0.6580 J-9.3349 F1200.0
N19360 G01 Y-197.0271 F1200
N19370 G03 X148.8973 Y-196.6204 I-2.6584 J-8.3604 F1200.0
N19380 X148.8307 Y-196.6224 I-0.0182 J-0.4997
N19390 G01 X147.9673 Y-196.7065 F1200
N19400 G03 X147.8282 Y-196.7407 I0.0485 J-0.4976 F1200.0
N19410 G01 X147.2109 Y-196.9904 F1200
N19420 G03 X147.0252 Y-197.1212 I0.1875 J-0.4635 F1200.0
N19430 G01 X146.6538 Y-197.5377 F1200
N19440 G03 X146.5378 Y-197.7670 I0.3732 J-0.3328 F1200.0
N19450 G01 X146.4152 Y-198.3472 F1200
N19460 G03 X146.4131 Y-198.5435 I0.4892 J-0.1034 F1200.0
N19470 G01 X146.5054 Y-199.0317 F1200
N19480 G03 X146.5924 Y-199.2329 I0.4913 J0.0929 F1200.0
N19490 G01 X146.8694 Y-199.6136 F1200
N19500 G03 X147.0054 Y-199.7414 I0.4043 J0.2942 F1200.0
N19510 G01 X147.5325 Y-200.0766 F1200
N19520 G03 X147.6129 Y-200.1180 I0.2683 J0.4219 F1200.0
N19530 G01 X148.4562 Y-200.4601 F1200
N19540 X148.4801 Y-200.4691
N19550 X150.2844 Y-201.0958
N19560 X150.7298 Y-201.2779
N19570 X151.1145 Y-201.4863
N19580 G02 X151.9806 Y-203.5642 I-1.0040 J-1.6380 F1200.0
N19590 G01 X151.8122 Y-204.0422 F1200
N19600 X151.5507 Y-204.4337
N19610 X151.1709 Y-204.7847
N19620 X150.6838 Y-205.0799
N19630 X150.1029 Y-205.2946
N19640 X149.4273 Y-205.4293
N19650 X148.6479 Y-205.4747
N19660 X148.0373 Y-205.4453
N19670 X147.3241 Y-205.3508
N19680 X147.1472 Y-205.3163
N19690 G00 Z1.0000
N19700 X163.6712 Y-196.7547
N19710 Z0.5000
N19720 G01 Z0.0000 F600
N19730 Y-204.6504 Z-1.3922
N19740 G03 X164.0005 Y-205.1204 Z-1.5000 I0.5000 J0.0000 F600.0
N19750 X164.1712 Y-205.1504 I0.1707 J0.4700 F1200.0
N19760 G01 X168.7844 F1200
N19770 Y-205.2452
N19780 X163.2153
N19790 Y-196.7547
N19800 X163.6712
N19810 Y-204.6504 Z-2.8922 F600
N19820 G03 X164.0005 Y-205.1204 Z-3.0000 I0.5000 J0.0000 F600.0
N19830 X164.1712 Y-205.1504 I0.1707 J0.4700 F1200.0
N19840 G01 X168.7844 F1200
N19850 Y-205.2452
N19860 X163.2153
N19870 Y-196.7547
N19880 X163.6712
N19890 Y-204.6504
N19900 G03 X164.0005 Y-205.1204 I0.5000 J0.0000 F1200.0
N19910 G00 Z1.0000
N19920 X163.5248 Y-184.9021
N19930 Z0.5000
N19940 G01 Z0.0000 F600
N19950 X163.5253 Y-184.9236 Z-0.0038
N19960 X163.5556 Y-185.6264 Z-0.1278
N19970 G03 X163.5604 Y-185.6776 Z-0.1369 I0.4995 J0.0215 F600.0
N19980 G01 X163.6483 Y-186.2750 Z-0.2434 F600
N19990 G03 X163.6647 Y-186.3482 Z-0.2566 I0.4947 J0.0727 F600.0
N20000 G01 X163.8156 Y-186.8426 Z-0.3478 F600
N20010 X163.8241 Y-186.8680 Z-0.3525
N20020 G03 X165.4762 Y-188.2154 Z-0.7471 I1.9581 J0.7143 F600.0
N20030 G01 X165.5062 Y-188.2190 Z-0.7524 F600
N20040 X166.0006 Y-188.2620 Z-0.8399
N20050 G03 X166.0850 Y-188.2622 Z-0.8548 I0.0434 J0.4981 F600.0
N20060 G01 X166.6073 Y-188.2192 Z-0.9472 F600
N20070 X166.6314 Y-188.2166 Z-0.9515
N20080 G03 X168.3473 Y-186.8801 Z-1.3536 I-0.2798 J2.1290 F600.0
N20090 G01 X168.3606 Y-186.8423 Z-1.3607 F600
N20100 X168.5146 Y-186.3407 Z-1.4532
N20110 G03 X168.5309 Y-186.2692 Z-1.4662 I-0.4780 J0.1467 F600.0
N20120 G01 X168.5598 Y-186.0795 Z-1.5000 F600
N20130 X168.6239 Y-185.6580 F1200
N20140 G03 X168.6292 Y-185.6034 I-0.4943 J0.0752 F1200.0
N20150 G01 X168.6588 Y-184.8855 F1200
N20160 X168.6592 Y-184.8649
N20170 Y-179.6401
N20180 X168.9322
N20190 Y-184.6427
N20200 X168.9079 Y-185.4444
N20210 X168.8309 Y-186.1251
N20220 G02 X166.9162 Y-188.2665 I-2.4991 J0.3079 F1200.0
N20230 G01 X166.5008 Y-188.3371 F1200
N20240 X166.0653 Y-188.3592
N20250 X165.2747 Y-188.3007
N20260 G02 X163.2695 Y-186.5336 I0.2912 J2.3518 F1200.0
N20270 G01 X163.1179 Y-185.7662 F1200
N20280 X163.0679 Y-184.8661
N20290 Y-179.6401
N20300 X163.5248
N20310 Y-184.9021
N20320 X163.5253 Y-184.9236 Z-1.5038 F600
N20330 X163.5556 Y-185.6264 Z-1.6278
N20340 G03 X163.5604 Y-185.6776 Z-1.6369 I0.4995 J0.0215 F600.0
N20350 G01 X163.6483 Y-186.2750 Z-1.7434 F600
N20360 G03 X163.6647 Y-186.3482 Z-1.7566 I0.4947 J0.0727 F600.0
N20370 G01 X163.8156 Y-186.8426 Z-1.8478 F600
N20380 X163.8241 Y-186.8680 Z-1.8525
N20390 G03 X165.4762 Y-188.2154 Z-2.2471 I1.9581 J0.7143 F600.0
N20400 G01 X165.5062 Y-188.2190 Z-2.2524 F600
N20410 X166.0006 Y-188.2620 Z-2.3399
N20420 G03 X166.0850 Y-188.2622 Z-2.3548 I0.0434 J0.4981 F600.0
N20430 G01 X166.6073 Y-188.2192 Z-2.4472 F600
N20440 X166.6314 Y-188.2166 Z-2.4515
N20450 G03 X168.3473 Y-186.8801 Z-2.8536 I-0.2798 J2.1290 F600.0
N20460 G01 X168.3606 Y-186.8423 Z-2.8607 F600
N20470 X168.5146 Y-186.3407 Z-2.9532
N20480 G03 X168.5309 Y-186.2692 Z-2.9662 I-0.4780 J0.1467 F600.0
N20490 G01 X168.5598 Y-186.0795 Z-3.0000 F600
N20500 X168.6239 Y-185.6580 F1200
N20510 G03 X168.6292 Y-185.6034 I-0.4943 J0.0752 F1200.0
N20520 G01 X168.6588 Y-184.8855 F1200
N20530 X168.6592 Y-184.8649
N20540 Y-179.6401
N20550 X168.9322
N20560 Y-184.6427
N20570 X168.9079 Y-185.4444
N20580 X168.8309 Y-186.1251
N20590 G02 X166.9162 Y-188.2665 I-2.4991 J0.3079 F1200.0
N20600 G01 X166.5008 Y-188.3371 F1200
N20610 X166.0653 Y-188.3592
N20620 X165.2747 Y-188.3007
N20630 G02 X163.2695 Y-186.5336 I0.2912 J2.3518 F1200.0
N20640 G01 X163.1179 Y-185.7662 F1200
N20650 X163.0679 Y-184.8661
N20660 Y-179.6401
N20670 X163.5248
N20680 Y-184.9021
N20690 X163.5253 Y-184.9236
N20700 X163.5556 Y-185.6264
N20710 G03 X163.5604 Y-185.6776 I0.4995 J0.0215 F1200.0
N20720 G01 X163.6483 Y-186.2750 F1200
N20730 G03 X163.6647 Y-186.3482 I0.4947 J0.0727 F1200.0
N20740 G01 X163.8156 Y-186.8426 F1200
N20750 X163.8241 Y-186.8680
N20760 G03 X165.4762 Y-188.2154 I1.9581 J0.7143 F1200.0
N20770 G01 X165.5062 Y-188.2190 F1200
N20780 X166.0006 Y-188.2620
N20790 G03 X166.0850 Y-188.2622 I0.0434 J0.4981 F1200.0
N20800 G01 X166.6073 Y-188.2192 F1200
N20810 X166.6314 Y-188.2166
N20820 G03 X168.3473 Y-186.8801 I-0.2798 J2.1290 F1200.0
N20830 G01 X168.3606 Y-186.8423 F1200
N20840 X168.5146 Y-186.3407
N20850 G03 X168.5309 Y-186.2692 I-0.4780 J0.1467 F1200.0
N20860 G01 X168.5598 Y-186.0795 F1200
N20870 G00 Z1.0000
N20880 X180.4888 Y-179.7545
N20890 Z0.5000
N20900 G01 Z0.0000 F600
N20910 Y-183.4024 Z-0.6432
N20920 G03 X180.9888 Y-183.9024 Z-0.7817 I0.5000 J0.0000 F600.0
N20930 G01 X185.0051 Z-1.4899 F600
N20940 G03 X185.0623 Y-183.8991 Z-1.5000 I0.0000 J0.5000 F600.0
N20950 X185.5051 Y-183.4024 I-0.0572 J0.4967 F1200.0
N20960 G01 Y-179.7545 F1200
N20970 X185.9706
N20980 Y-188.2458
N20990 X185.5051
N21000 Y-184.4993
N21010 G03 X185.0051 Y-183.9993 I-0.5000 J0.0000 F1200.0
N21020 G01 X180.9888 F1200
N21030 G03 X180.4888 Y-184.4993 I0.0000 J-0.5000 F1200.0
N21040 G01 Y-188.2458 F1200
N21050 X180.0298
N21060 Y-179.7545
N21070 X180.4888
N21080 Y-183.4024 Z-2.1432 F600
N21090 G03 X180.9888 Y-183.9024 Z-2.2817 I0.5000 J0.0000 F600.0
N21100 G01 X185.0051 Z-2.9899 F600
N21110 G03 X185.0623 Y-183.8991 Z-3.0000 I0.0000 J0.5000 F600.0
N21120 X185.5051 Y-183.4024 I-0.0572 J0.4967 F1200.0
N21130 G01 Y-179.7545 F1200
N21140 X185.9706
N21150 Y-188.2458
N21160 X185.5051
N21170 Y-184.4993
N21180 G03 X185.0051 Y-183.9993 I-0.5000 J0.0000 F1200.0
N21190 G01 X180.9888 F1200
N21200 G03 X180.4888 Y-184.4993 I0.0000 J-0.5000 F1200.0
N21210 G01 Y-188.2458 F1200
N21220 X180.0298
N21230 Y-179.7545
N21240 X180.4888
N21250 Y-183.4024
N21260 G03 X180.9888 Y-183.9024 I0.5000 J0.0000 F1200.0
N21270 G01 X185.0051 F1200
N21280 G03 X185.0623 Y-183.8991 I0.0000 J0.5000 F1200.0
N21290 G00 Z1.0000
N21300 X183.2304 Y-162.8189
N21310 Z0.5000
N21320 G01 Z0.0000 F600
N21330 X183.6885 Y-162.8953 Z-0.0819
N21340 X183.9889 Y-162.9884 Z-0.1373
N21350 X184.4811 Y-163.2677 Z-0.2371
N21360 X184.8026 Y-163.6031 Z-0.3191
N21370 X184.9925 Y-164.0142 Z-0.3989
N21380 X185.0658 Y-164.5778 Z-0.4991
N21390 G02 X184.1599 Y-166.4268 Z-0.8757 I-2.2872 J-0.0258 F600.0
N21400 G01 X183.7481 Y-166.7088 Z-0.9637 F600
N21410 X183.2502 Y-166.9879 Z-1.0643
N21420 G03 X183.0962 Y-167.7260 Z-1.2150 I0.2445 J-0.4361 F600.0
N21430 G01 X184.0725 Y-169.0145 Z-1.5000 F600
N21440 X185.7628 Y-171.2452 F1200
N21450 X185.2491
N21460 X182.4012 Y-167.4945
N21470 G03 X182.0030 Y-167.2968 I-0.3982 J-0.3024 F1200.0
N21480 G01 X180.6897 F1200
N21490 G03 X180.1897 Y-167.7968 I0.0000 J-0.5000 F1200.0
N21500 G01 Y-171.2452 F1200
N21510 X179.7314
N21520 Y-167.1836
N21530 X181.4574 Y-167.1927
N21540 X181.4879 Y-167.1919
N21550 X182.0439 Y-167.1609
N21560 G03 X182.1121 Y-167.1524 I-0.0278 J0.4992 F1200.0
N21570 G01 X182.6089 Y-167.0552 F1200
N21580 G03 X182.6879 Y-167.0329 I-0.0960 J0.4907 F1200.0
N21590 G01 X183.1240 Y-166.8699 F1200
N21600 G03 X183.2088 Y-166.8288 I-0.1750 J0.4684 F1200.0
N21610 G01 X183.5816 Y-166.6021 F1200
N21620 X183.6165 Y-166.5788
N21630 G03 X184.5121 Y-164.7635 I-1.2863 J1.7632 F1200.0
N21640 G01 X184.5104 Y-164.7326 F1200
N21650 X184.4780 Y-164.3564
N21660 X184.4747 Y-164.3280
N21670 G03 X183.2987 Y-163.0339 I-1.5447 J-0.2223 F1200.0
N21680 G01 X182.8681 Y-162.9374 F1200
N21690 G03 X182.8115 Y-162.9281 I-0.1092 J-0.4879 F1200.0
N21700 G01 X182.2782 Y-162.8716 F1200
N21710 X182.2409 Y-162.8691
N21720 X181.6015 Y-162.8494
N21730 X181.5862 Y-162.8492
N21740 X180.6918
N21750 G03 X180.1918 Y-163.3492 I0.0000 J-0.5000 F1200.0
N21760 G01 Y-164.9362 F1200
N21770 X179.7355
N21780 X179.7322 Y-162.7574
N21790 X182.6317 Y-162.7711
N21800 X183.2304 Y-162.8189
N21810 X183.6885 Y-162.8953 Z-1.5819 F600
N21820 X183.9889 Y-162.9884 Z-1.6373
N21830 X184.4811 Y-163.2677 Z-1.7371
N21840 X184.8026 Y-163.6031 Z-1.8191
N21850 X184.9925 Y-164.0142 Z-1.8989
N21860 X185.0658 Y-164.5778 Z-1.9991
N21870 G02 X184.1599 Y-166.4268 Z-2.3757 I-2.2872 J-0.0258 F600.0
N21880 G01 X183.7481 Y-166.7088 Z-2.4637 F600
N21890 X183.2502 Y-166.9879 Z-2.5643
N21900 G03 X183.0962 Y-167.7260 Z-2.7150 I0.2445 J-0.4361 F600.0
N21910 G01 X184.0725 Y-169.0145 Z-3.0000 F600
N21920 X185.7628 Y-171.2452 F1200
N21930 X185.2491
N21940 X182.4012 Y-167.4945
N21950 G03 X182.0030 Y-167.2968 I-0.3982 J-0.3024 F1200.0
N21960 G01 X180.6897 F1200
N21970 G03 X180.1897 Y-167.7968 I0.0000 J-0.5000 F1200.0
N21980 G01 Y-171.2452 F1200
N21990 X179.7314
N22000 Y-167.1836
N22010 X181.4574 Y-167.1927
N22020 X181.4879 Y-167.1919
N22030 X182.0439 Y-167.1609
N22040 G03 X182.1121 Y-167.1524 I-0.0278 J0.4992 F1200.0
N22050 G01 X182.6089 Y-167.0552 F1200
N22060 G03 X182.6879 Y-167.0329 I-0.0960 J0.4907 F1200.0
N22070 G01 X183.1240 Y-166.8699 F1200
N22080 G03 X183.2088 Y-166.8288 I-0.1750 J0.4684 F1200.0
N22090 G01 X183.5816 Y-166.6021 F1200
N22100 X183.6165 Y-166.5788
N22110 G03 X184.5121 Y-164.7635 I-1.2863 J1.7632 F1200.0
N22120 G01 X184.5104 Y-164.7326 F1200
N22130 X184.4780 Y-164.3564
N22140 X184.4747 Y-164.3280
N22150 G03 X183.2987 Y-163.0339 I-1.5447 J-0.2223 F1200.0
N22160 G01 X182.8681 Y-162.9374 F1200
N22170 G03 X182.8115 Y-162.9281 I-0.1092 J-0.4879 F1200.0
N22180 G01 X182.2782 Y-162.8716 F1200
N22190 X182.2409 Y-162.8691
N22200 X181.6015 Y-162.8494
N22210 X181.5862 Y-162.8492
N22220 X180.6918
N22230 G03 X180.1918 Y-163.3492 I0.0000 J-0.5000 F1200.0
N22240 G01 Y-164.9362 F1200
N22250 X179.7355
N22260 X179.7322 Y-162.7574
N22270 X182.6317 Y-162.7711
N22280 X183.2304 Y-162.8189
N22290 X183.6885 Y-162.8953
N22300 X183.9889 Y-162.9884
N22310 X184.4811 Y-163.2677
N22320 X184.8026 Y-163.6031
N22330 X184.9925 Y-164.0142
N22340 X185.0658 Y-164.5778
N22350 G02 X184.1599 Y-166.4268 I-2.2872 J-0.0258 F1200.0
N22360 G01 X183.7481 Y-166.7088 F1200
N22370 X183.2502 Y-166.9879
N22380 G03 X183.0962 Y-167.7260 I0.2445 J-0.4361 F1200.0
N22390 G01 X184.0725 Y-169.0145 F1200
N22400 G00 Z1.0000
N22410 X168.7778 Y-162.7388
N22420 Z0.5000
N22430 G01 Z0.0000 F600
N22440 X168.9691 Z-0.0337
N22450 Y-171.0545 Z-1.5000
N22460 Y-171.2611 F1200
N22470 X168.3990
N22480 X164.1615 Y-164.5375
N22490 G03 X163.7385 Y-164.3041 I-0.4230 J-0.2666 F1200.0
N22500 G01 X163.7154 F1200
N22510 G03 X163.2154 Y-164.8041 I0.0000 J-0.5000 F1200.0
N22520 G01 Y-171.2611 F1200
N22530 X163.0317
N22540 Y-162.7388
N22550 X163.6308
N22560 X167.8553 Y-169.4093
N22570 G03 X168.7778 Y-169.1418 I0.4224 J0.2675 F1200.0
N22580 G01 Y-162.7388 F1200
N22590 X168.9691 Z-1.5337 F600
N22600 Y-171.0545 Z-3.0000
N22610 Y-171.2611 F1200
N22620 X168.3990
N22630 X164.1615 Y-164.5375
N22640 G03 X163.7385 Y-164.3041 I-0.4230 J-0.2666 F1200.0
N22650 G01 X163.7154 F1200
N22660 G03 X163.2154 Y-164.8041 I0.0000 J-0.5000 F1200.0
N22670 G01 Y-171.2611 F1200
N22680 X163.0317
N22690 Y-162.7388
N22700 X163.6308
N22710 X167.8553 Y-169.4093
N22720 G03 X168.7778 Y-169.1418 I0.4224 J0.2675 F1200.0
N22730 G01 Y-162.7388 F1200
N22740 X168.9691
N22750 Y-171.0545
N22760 G00 Z1.0000
N22770 X165.2674 Y-154.1492
N22780 Z0.5000
N22790 G01 Z0.0000 F600
N22800 G03 X165.7674 Y-153.6492 Z-0.1385 I0.0000 J0.5000 F600.0
N22810 G01 Y-146.3504 Z-1.4255 F600
N22820 G03 X165.5991 Y-145.9763 Z-1.5000 I-0.5000 J0.0000 F600.0
N22830 X165.2674 Y-145.8504 I-0.3317 J-0.3741 F1200.0
N22840 G01 X163.2150 F1200
N22850 Y-145.7542
N22860 X168.7841
N22870 Y-145.8504
N22880 X166.7313
N22890 G03 X166.2313 Y-146.3504 I0.0000 J-0.5000 F1200.0
N22900 G01 Y-153.6492 F1200
N22910 G03 X166.7313 Y-154.1492 I0.5000 J0.0000 F1200.0
N22920 G01 X168.7841 F1200
N22930 Y-154.2461
N22940 X163.2150
N22950 Y-154.1492
N22960 X165.2674
N22970 G03 X165.7674 Y-153.6492 Z-1.6385 I0.0000 J0.5000 F600.0
N22980 G01 Y-146.3504 Z-2.9255 F600
N22990 G03 X165.5991 Y-145.9763 Z-3.0000 I-0.5000 J0.0000 F600.0
N23000 X165.2674 Y-145.8504 I-0.3317 J-0.3741 F1200.0
N23010 G01 X163.2150 F1200
N23020 Y-145.7542
N23030 X168.7841
N23040 Y-145.8504
N23050 X166.7313
N23060 G03 X166.2313 Y-146.3504 I0.0000 J-0.5000 F1200.0
N23070 G01 Y-153.6492 F1200
N23080 G03 X166.7313 Y-154.1492 I0.5000 J0.0000 F1200.0
N23090 G01 X168.7841 F1200
N23100 Y-154.2461
N23110 X163.2150
N23120 Y-154.1492
N23130 X165.2674
N23140 G03 X165.7674 Y-153.6492 I0.0000 J0.5000 F1200.0
N23150 G01 Y-146.3504 F1200
N23160 G03 X165.5991 Y-145.9763 I-0.5000 J0.0000 F1200.0
N23170 G00 Z1.0000
N23180 X149.3513 Y-154.2457
N23190 Z0.5000
N23200 G01 Z0.0000 F600
N23210 X148.5683 Y-154.2460 Z-0.1381
N23220 X145.7754 Y-147.0448 Z-1.5000
N23230 X145.2749 Y-145.7542 F1200
N23240 X145.7437
N23250 X148.6527 Y-152.9843
N23260 G03 X149.5792 Y-152.9875 I0.4639 J0.1866 F1200.0
N23270 G01 X152.5460 Y-145.7561 F1200
N23280 X152.7182 Y-145.7570
N23290 X149.3513 Y-154.2457
N23300 X148.5683 Y-154.2460 Z-1.6381 F600
N23310 X145.7754 Y-147.0448 Z-3.0000
N23320 X145.2749 Y-145.7542 F1200
N23330 X145.7437
N23340 X148.6527 Y-152.9843
N23350 G03 X149.5792 Y-152.9875 I0.4639 J0.1866 F1200.0
N23360 G01 X152.5460 Y-145.7561 F1200
N23370 X152.7182 Y-145.7570
N23380 X149.3513 Y-154.2457
N23390 X148.5683 Y-154.2460
N23400 X145.7754 Y-147.0448
N23410 G00 Z1.0000
N23420 X146.4884 Y-162.7550
N23430 Z0.5000
N23440 G01 Z0.0000 F600
N23450 Y-166.4033 Z-0.6433
N23460 G03 X146.9884 Y-166.9033 Z-0.7818 I0.5000 J0.0000 F600.0
N23470 G01 X151.0040 Z-1.4898 F600
N23480 G03 X151.0616 Y-166.9000 Z-1.5000 I0.0000 J0.5000 F600.0
N23490 X151.5040 Y-166.4033 I-0.0576 J0.4967 F1200.0
N23500 G01 Y-162.7550 F1200
N23510 X151.9689
N23520 Y-171.2452
N23530 X151.5040
N23540 Y-167.4988
N23550 G03 X151.0040 Y-166.9988 I-0.5000 J0.0000 F1200.0
N23560 G01 X146.9884 F1200
N23570 G03 X146.4884 Y-167.4988 I0.0000 J-0.5000 F1200.0
N23580 G01 Y-171.2452 F1200
N23590 X146.0325
N23600 Y-162.7550
N23610 X146.4884
N23620 Y-166.4033 Z-2.1433 F600
N23630 G03 X146.9884 Y-166.9033 Z-2.2818 I0.5000 J0.0000 F600.0
N23640 G01 X151.0040 Z-2.9898 F600
N23650 G03 X151.0616 Y-166.9000 Z-3.0000 I0.0000 J0.5000 F600.0
N23660 X151.5040 Y-166.4033 I-0.0576 J0.4967 F1200.0
N23670 G01 Y-162.7550 F1200
N23680 X151.9689
N23690 Y-171.2452
N23700 X151.5040
N23710 Y-167.4988
N23720 G03 X151.0040 Y-166.9988 I-0.5000 J0.0000 F1200.0
N23730 G01 X146.9884 F1200
N23740 G03 X146.4884 Y-167.4988 I0.0000 J-0.5000 F1200.0
N23750 G01 Y-171.2452 F1200
N23760 X146.0325
N23770 Y-162.7550
N23780 X146.4884
N23790 Y-166.4033
N23800 G03 X146.9884 Y-166.9033 I0.5000 J0.0000 F1200.0
N23810 G01 X151.0040 F1200
N23820 G03 X151.0616 Y-166.9000 I0.0000 J0.5000 F1200.0
N23830 G00 Z1.0000
N23840 X134.8936 Y-162.7550
N23850 Z0.5000
N23860 G01 Z0.0000 F600
N23870 Y-162.8492 Z-0.0166
N23880 X130.4375 Z-0.8023
N23890 G03 X129.9375 Y-163.3492 Z-0.9408 I0.0000 J-0.5000 F600.0
N23900 G01 Y-166.2252 Z-1.4479 F600
N23910 G03 X130.0222 Y-166.5036 Z-1.5000 I0.5000 J0.0000 F600.0
N23920 X130.4375 Y-166.7252 I0.4153 J0.2784 F1200.0
N23930 G01 X134.1392 F1200
N23940 Y-166.8224
N23950 X130.4375
N23960 G03 X129.9375 Y-167.3224 I0.0000 J-0.5000 F1200.0
N23970 G01 Y-170.6480 F1200
N23980 G03 X130.4375 Y-171.1480 I0.5000 J0.0000 F1200.0
N23990 G01 X135.2333 F1200
N24000 Y-171.2452
N24010 X129.4802
N24020 Y-162.7550
N24030 X134.8936
N24040 Y-162.8492 Z-1.5166 F600
N24050 X130.4375 Z-2.3023
N24060 G03 X129.9375 Y-163.3492 Z-2.4408 I0.0000 J-0.5000 F600.0
N24070 G01 Y-166.2252 Z-2.9479 F600
N24080 G03 X130.0222 Y-166.5036 Z-3.0000 I0.5000 J0.0000 F600.0
N24090 X130.4375 Y-166.7252 I0.4153 J0.2784 F1200.0
N24100 G01 X134.1392 F1200
N24110 Y-166.8224
N24120 X130.4375
N24130 G03 X129.9375 Y-167.3224 I0.0000 J-0.5000 F1200.0
N24140 G01 Y-170.6480 F1200
N24150 G03 X130.4375 Y-171.1480 I0.5000 J0.0000 F1200.0
N24160 G01 X135.2333 F1200
N24170 Y-171.2452
N24180 X129.4802
N24190 Y-162.7550
N24200 X134.8936
N24210 Y-162.8492
N24220 X130.4375
N24230 G03 X129.9375 Y-163.3492 I0.0000 J-0.5000 F1200.0
N24240 G01 Y-166.2252 F1200
N24250 G03 X130.0222 Y-166.5036 I0.5000 J0.0000 F1200.0
N24260 G00 Z1.0000
N24270 X135.1350 Y-145.7390
N24280 Z0.5000
N24290 G01 Z0.0000 F600
N24300 X135.3263 Z-0.0337
N24310 Y-154.0546 Z-1.5000
N24320 Y-154.2609 F1200
N24330 X134.7559
N24340 X130.5181 Y-147.5380
N24350 G03 X130.0951 Y-147.3046 I-0.4230 J-0.2666 F1200.0
N24360 G01 X130.0710 F1200
N24370 G03 X129.5710 Y-147.8046 I0.0000 J-0.5000 F1200.0
N24380 G01 Y-154.2609 F1200
N24390 X129.3893
N24400 Y-145.7390
N24410 X129.9900
N24420 X134.2126 Y-152.4091
N24430 G03 X135.1350 Y-152.1416 I0.4225 J0.2674 F1200.0
N24440 G01 Y-145.7390 F1200
N24450 X135.3263 Z-1.5337 F600
N24460 Y-154.0546 Z-3.0000
N24470 Y-154.2609 F1200
N24480 X134.7559
N24490 X130.5181 Y-147.5380
N24500 G03 X130.0951 Y-147.3046 I-0.4230 J-0.2666 F1200.0
N24510 G01 X130.0710 F1200
N24520 G03 X129.5710 Y-147.8046 I0.0000 J-0.5000 F1200.0
N24530 G01 Y-154.2609 F1200
N24540 X129.3893
N24550 Y-145.7390
N24560 X129.9900
N24570 X134.2126 Y-152.4091
N24580 G03 X135.1350 Y-152.1416 I0.4225 J0.2674 F1200.0
N24590 G01 Y-145.7390 F1200
N24600 X135.3263
N24610 Y-154.0546
N24620 G00 Z1.0000
N24630 X146.5812 Y-133.7456
N24640 Z0.5000
N24650 G01 Z0.0000 F600
N24660 X146.5808 Y-133.7650 Z-0.0034
N24670 X146.5676 Y-137.2466 Z-0.6173
N24680 X146.1228 Z-0.6957
N24690 X146.1230 Y-132.6855 Z-1.5000
N24700 X146.1231 Y-128.7540 F1200
N24710 X151.8766 Y-128.7575
N24720 Y-128.8504
N24730 X147.0807 Y-128.8509
N24740 G03 X146.5808 Y-129.3518 I0.0001 J-0.5000 F1200.0
N24750 G01 X146.5862 Y-132.6184 F1200
N24760 G03 X147.0853 Y-133.1176 I0.5000 J0.0008 F1200.0
N24770 G01 X151.0979 Y-133.1248 F1200
N24780 Y-133.2141
N24790 X147.0830
N24800 G03 X146.5835 Y-133.6928 I0.0000 J-0.5000 F1200.0
N24810 G01 X146.5812 Y-133.7456 F1200
N24820 X146.5808 Y-133.7650 Z-1.5034 F600
N24830 X146.5676 Y-137.2466 Z-2.1173
N24840 X146.1228 Z-2.1957
N24850 X146.1230 Y-132.6855 Z-3.0000
N24860 X146.1231 Y-128.7540 F1200
N24870 X151.8766 Y-128.7575
N24880 Y-128.8504
N24890 X147.0807 Y-128.8509
N24900 G03 X146.5808 Y-129.3518 I0.0001 J-0.5000 F1200.0
N24910 G01 X146.5862 Y-132.6184 F1200
N24920 G03 X147.0853 Y-133.1176 I0.5000 J0.0008 F1200.0
N24930 G01 X151.0979 Y-133.1248 F1200
N24940 Y-133.2141
N24950 X147.0830
N24960 G03 X146.5835 Y-133.6928 I0.0000 J-0.5000 F1200.0
N24970 G01 X146.5812 Y-133.7456 F1200
N24980 X146.5808 Y-133.7650
N24990 X146.5676 Y-137.2466
N25000 X146.1228
N25010 X146.1230 Y-132.6855
N25020 G00 Z1.0000
N25030 X163.5248 Y-133.7889
N25040 Z0.5000
N25050 G01 Z0.0000 F600
N25060 X163.5253 Y-133.8105 Z-0.0038
N25070 X163.5556 Y-134.5126 Z-0.1277
N25080 G03 X163.5604 Y-134.5638 Z-0.1368 I0.4995 J0.0216 F600.0
N25090 G01 X163.6483 Y-135.1611 Z-0.2433 F600
N25100 G03 X163.6646 Y-135.2341 Z-0.2565 I0.4947 J0.0727 F600.0
N25110 G01 X163.8155 Y-135.7295 Z-0.3478 F600
N25120 X163.8248 Y-135.7570 Z-0.3529
N25130 G03 X165.4744 Y-137.1020 Z-0.7466 I1.9645 J0.7253 F600.0
N25140 G01 X165.5072 Y-137.1059 Z-0.7524 F600
N25150 X166.0016 Y-137.1479 Z-0.8399
N25160 G03 X166.0841 Y-137.1481 Z-0.8544 I0.0424 J0.4982 F600.0
N25170 G01 X166.6063 Y-137.1061 Z-0.9468 F600
N25180 G03 X166.7047 Y-137.0881 Z-0.9645 I-0.0401 J0.4984 F600.0
N25190 G01 X167.1494 Y-136.9600 Z-1.0461 F600
N25200 G03 X167.2594 Y-136.9135 Z-1.0672 I-0.1384 J0.4805 F600.0
N25210 G01 X167.6259 Y-136.7037 Z-1.1417 F600
N25220 G03 X167.7367 Y-136.6176 Z-1.1665 I-0.2484 J0.4339 F600.0
N25230 G01 X168.0237 Y-136.3213 Z-1.2392 F600
N25240 G03 X168.1014 Y-136.2167 Z-1.2623 I-0.3591 J0.3479 F600.0
N25250 G01 X168.3195 Y-135.8249 Z-1.3413 F600
N25260 G03 X168.3606 Y-135.7286 Z-1.3598 I-0.4369 J0.2432 F600.0
N25270 G01 X168.5146 Y-135.2273 Z-1.4523 F600
N25280 G03 X168.5309 Y-135.1557 Z-1.4652 I-0.4780 J0.1468 F600.0
N25290 G01 X168.5606 Y-134.9609 Z-1.5000 F600
N25300 X168.6239 Y-134.5449 F1200
N25310 G03 X168.6292 Y-134.4903 I-0.4943 J0.0753 F1200.0
N25320 G01 X168.6588 Y-133.7723 F1200
N25330 X168.6592 Y-133.7517
N25340 Y-128.5249
N25350 X168.9322
N25360 Y-133.5288
N25370 X168.9079 Y-134.3312
N25380 X168.8339 Y-134.9850
N25390 X168.7159 Y-135.4951
N25400 X168.5587 Y-135.8837
N25410 G02 X166.5195 Y-137.2223 I-2.2837 J1.2563 F1200.0
N25420 G01 X166.0652 Y-137.2460 F1200
N25430 X165.2748 Y-137.1865
N25440 G02 X163.2695 Y-135.4199 I0.2882 J2.3486 F1200.0
N25450 G01 X163.1179 Y-134.6530 F1200
N25460 X163.0679 Y-133.7530
N25470 Y-128.5249
N25480 X163.5248
N25490 Y-133.7889
N25500 X163.5253 Y-133.8105 Z-1.5038 F600
N25510 X163.5556 Y-134.5126 Z-1.6277
N25520 G03 X163.5604 Y-134.5638 Z-1.6368 I0.4995 J0.0216 F600.0
N25530 G01 X163.6483 Y-135.1611 Z-1.7433 F600
N25540 G03 X163.6646 Y-135.2341 Z-1.7565 I0.4947 J0.0727 F600.0
N25550 G01 X163.8155 Y-135.7295 Z-1.8478 F600
N25560 X163.8248 Y-135.7570 Z-1.8529
N25570 G03 X165.4744 Y-137.1020 Z-2.2466 I1.9645 J0.7253 F600.0
N25580 G01 X165.5072 Y-137.1059 Z-2.2524 F600
N25590 X166.0016 Y-137.1479 Z-2.3399
N25600 G03 X166.0841 Y-137.1481 Z-2.3544 I0.0424 J0.4982 F600.0
N25610 G01 X166.6063 Y-137.1061 Z-2.4468 F600
N25620 G03 X166.7047 Y-137.0881 Z-2.4645 I-0.0401 J0.4984 F600.0
N25630 G01 X167.1494 Y-136.9600 Z-2.5461 F600
N25640 G03 X167.2594 Y-136.9135 Z-2.5672 I-0.1384 J0.4805 F600.0
N25650 G01 X167.6259 Y-136.7037 Z-2.6417 F600
N25660 G03 X167.7367 Y-136.6176 Z-2.6665 I-0.2484 J0.4339 F600.0
N25670 G01 X168.0237 Y-136.3213 Z-2.7392 F600
N25680 G03 X168.1014 Y-136.2167 Z-2.7623 I-0.3591 J0.3479 F600.0
N25690 G01 X168.3195 Y-135.8249 Z-2.8413 F600
N25700 G03 X168.3606 Y-135.7286 Z-2.8598 I-0.4369 J0.2432 F600.0
N25710 G01 X168.5146 Y-135.2273 Z-2.9523 F600
N25720 G03 X168.5309 Y-135.1557 Z-2.9652 I-0.4780 J0.1468 F600.0
N25730 G01 X168.5606 Y-134.9609 Z-3.0000 F600
N25740 X168.6239 Y-134.5449 F1200
N25750 G03 X168.6292 Y-134.4903 I-0.4943 J0.0753 F1200.0
N25760 G01 X168.6588 Y-133.7723 F1200
N25770 X168.6592 Y-133.7517
N25780 Y-128.5249
N25790 X168.9322
N25800 Y-133.5288
N25810 X168.9079 Y-134.3312
N25820 X168.8339 Y-134.9850
N25830 X168.7159 Y-135.4951
N25840 X168.5587 Y-135.8837
N25850 G02 X166.5195 Y-137.2223 I-2.2837 J1.2563 F1200.0
N25860 G01 X166.0652 Y-137.2460 F1200
N25870 X165.2748 Y-137.1865
N25880 G02 X163.2695 Y-135.4199 I0.2882 J2.3486 F1200.0
N25890 G01 X163.1179 Y-134.6530 F1200
N25900 X163.0679 Y-133.7530
N25910 Y-128.5249
N25920 X163.5248
N25930 Y-133.7889
N25940 X163.5253 Y-133.8105
N25950 X163.5556 Y-134.5126
N25960 G03 X163.5604 Y-134.5638 I0.4995 J0.0216 F1200.0
N25970 G01 X163.6483 Y-135.1611 F1200
N25980 G03 X163.6646 Y-135.2341 I0.4947 J0.0727 F1200.0
N25990 G01 X163.8155 Y-135.7295 F1200
N26000 X163.8248 Y-135.7570
N26010 G03 X165.4744 Y-137.1020 I1.9645 J0.7253 F1200.0
N26020 G01 X165.5072 Y-137.1059 F1200
N26030 X166.0016 Y-137.1479
N26040 G03 X166.0841 Y-137.1481 I0.0424 J0.4982 F1200.0
N26050 G01 X166.6063 Y-137.1061 F1200
N26060 G03 X166.7047 Y-137.0881 I-0.0401 J0.4984 F1200.0
N26070 G01 X167.1494 Y-136.9600 F1200
N26080 G03 X167.2594 Y-136.9135 I-0.1384 J0.4805 F1200.0
N26090 G01 X167.6259 Y-136.7037 F1200
N26100 G03 X167.7367 Y-136.6176 I-0.2484 J0.4339 F1200.0
N26110 G01 X168.0237 Y-136.3213 F1200
N26120 G03 X168.1014 Y-136.2167 I-0.3591 J0.3479 F1200.0
N26130 G01 X168.3195 Y-135.8249 F1200
N26140 G03 X168.3606 Y-135.7286 I-0.4369 J0.2432 F1200.0
N26150 G01 X168.5146 Y-135.2273 F1200
N26160 G03 X168.5309 Y-135.1557 I-0.4780 J0.1468 F1200.0
N26170 G01 X168.5606 Y-134.9609 F1200
N26180 G00 Z1.0000
N26190 X164.6124 Y-126.3440
N26200 Z0.5000
N26210 G01 Z0.0000 F600
N26220 X164.3360 Y-126.3443 Z-0.0487
N26230 X164.3373 Y-126.0674 Z-0.0976
N26240 X164.6124 Y-126.0689 Z-0.1461
N26250 Y-126.3440 Z-0.1946
N26260 X164.3360 Y-126.3443 Z-0.2433
N26270 X164.3373 Y-126.0674 Z-0.2922
N26280 X164.6124 Y-126.0689 Z-0.3407
N26290 Y-126.3440 Z-0.3892
N26300 X164.3360 Y-126.3443 Z-0.4379
N26310 X164.3373 Y-126.0674 Z-0.4868
N26320 X164.6124 Y-126.0689 Z-0.5353
N26330 Y-126.3440 Z-0.5838
N26340 X164.3360 Y-126.3443 Z-0.6325
N26350 X164.3373 Y-126.0674 Z-0.6813
N26360 X164.6124 Y-126.0689 Z-0.7299
N26370 Y-126.3440 Z-0.7784
N26380 X164.3360 Y-126.3443 Z-0.8271
N26390 X164.3373 Y-126.0674 Z-0.8759
N26400 X164.6124 Y-126.0689 Z-0.9244
N26410 Y-126.3440 Z-0.9730
N26420 X164.3360 Y-126.3443 Z-1.0217
N26430 X164.3373 Y-126.0674 Z-1.0705
N26440 X164.6124 Y-126.0689 Z-1.1190
N26450 Y-126.3440 Z-1.1675
N26460 X164.3360 Y-126.3443 Z-1.2163
N26470 X164.3373 Y-126.0674 Z-1.2651
N26480 X164.6124 Y-126.0689 Z-1.3136
N26490 Y-126.3440 Z-1.3621
N26500 X164.3360 Y-126.3443 Z-1.4109
N26510 X164.3373 Y-126.0674 Z-1.4597
N26520 X164.5658 Y-126.0686 Z-1.5000
N26530 X164.6124 Y-126.0689 F1200
N26540 Y-126.3440 Z-1.5485 F600
N26550 X164.3360 Y-126.3443 Z-1.5973
N26560 X164.3373 Y-126.0674 Z-1.6461
N26570 X164.6124 Y-126.0689 Z-1.6946
N26580 Y-126.3440 Z-1.7431
N26590 X164.3360 Y-126.3443 Z-1.7918
N26600 X164.3373 Y-126.0674 Z-1.8407
N26610 X164.6124 Y-126.0689 Z-1.8892
N26620 Y-126.3440 Z-1.9377
N26630 X164.3360 Y-126.3443 Z-1.9864
N26640 X164.3373 Y-126.0674 Z-2.0353
N26650 X164.6124 Y-126.0689 Z-2.0838
N26660 Y-126.3440 Z-2.1323
N26670 X164.3360 Y-126.3443 Z-2.1810
N26680 X164.3373 Y-126.0674 Z-2.2299
N26690 X164.6124 Y-126.0689 Z-2.2784
N26700 Y-126.3440 Z-2.3269
N26710 X164.3360 Y-126.3443 Z-2.3756
N26720 X164.3373 Y-126.0674 Z-2.4244
N26730 X164.6124 Y-126.0689 Z-2.4730
N26740 Y-126.3440 Z-2.5215
N26750 X164.3360 Y-126.3443 Z-2.5702
N26760 X164.3373 Y-126.0674 Z-2.6190
N26770 X164.6124 Y-126.0689 Z-2.6675
N26780 Y-126.3440 Z-2.7161
N26790 X164.3360 Y-126.3443 Z-2.7648
N26800 X164.3373 Y-126.0674 Z-2.8136
N26810 X164.6124 Y-126.0689 Z-2.8621
N26820 Y-126.3440 Z-2.9106
N26830 X164.3360 Y-126.3443 Z-2.9594
N26840 X164.3371 Y-126.1140 Z-3.0000
N26850 X164.3373 Y-126.0674 F1200
N26860 X164.6124 Y-126.0689
N26870 Y-126.3440
N26880 X164.3360 Y-126.3443
N26890 X164.3371 Y-126.1140
N26900 G00 Z1.0000
N26910 X168.2573 Y-126.3440
N26920 Z0.5000
N26930 G01 Z0.0000 F600
N26940 X167.9798 Y-126.3444 Z-0.0489
N26950 X167.9811 Y-126.0667 Z-0.0979
N26960 X168.2573 Y-126.0678 Z-0.1466
N26970 Y-126.3440 Z-0.1953
N26980 X167.9798 Y-126.3444 Z-0.2442
N26990 X167.9811 Y-126.0667 Z-0.2932
N27000 X168.2573 Y-126.0678 Z-0.3419
N27010 Y-126.3440 Z-0.3906
N27020 X167.9798 Y-126.3444 Z-0.4395
N27030 X167.9811 Y-126.0667 Z-0.4885
N27040 X168.2573 Y-126.0678 Z-0.5372
N27050 Y-126.3440 Z-0.5859
N27060 X167.9798 Y-126.3444 Z-0.6348
N27070 X167.9811 Y-126.0667 Z-0.6838
N27080 X168.2573 Y-126.0678 Z-0.7325
N27090 Y-126.3440 Z-0.7812
N27100 X167.9798 Y-126.3444 Z-0.8301
N27110 X167.9811 Y-126.0667 Z-0.8791
N27120 X168.2573 Y-126.0678 Z-0.9278
N27130 Y-126.3440 Z-0.9765
N27140 X167.9798 Y-126.3444 Z-1.0254
N27150 X167.9811 Y-126.0667 Z-1.0744
N27160 X168.2573 Y-126.0678 Z-1.1231
N27170 Y-126.3440 Z-1.1718
N27180 X167.9798 Y-126.3444 Z-1.2207
N27190 X167.9811 Y-126.0667 Z-1.2696
N27200 X168.2573 Y-126.0678 Z-1.3184
N27210 Y-126.3440 Z-1.3671
N27220 X167.9798 Y-126.3444 Z-1.4160
N27230 X167.9811 Y-126.0667 Z-1.4649
N27240 X168.1799 Y-126.0675 Z-1.5000
N27250 X168.2573 Y-126.0678 F1200
N27260 Y-126.3440 Z-1.5487 F600
N27270 X167.9798 Y-126.3444 Z-1.5976
N27280 X167.9811 Y-126.0667 Z-1.6466
N27290 X168.2573 Y-126.0678 Z-1.6953
N27300 Y-126.3440 Z-1.7440
N27310 X167.9798 Y-126.3444 Z-1.7929
N27320 X167.9811 Y-126.0667 Z-1.8419
N27330 X168.2573 Y-126.0678 Z-1.8906
N27340 Y-126.3440 Z-1.9393
N27350 X167.9798 Y-126.3444 Z-1.9882
N27360 X167.9811 Y-126.0667 Z-2.0372
N27370 X168.2573 Y-126.0678 Z-2.0859
N27380 Y-126.3440 Z-2.1346
N27390 X167.9798 Y-126.3444 Z-2.1835
N27400 X167.9811 Y-126.0667 Z-2.2325
N27410 X168.2573 Y-126.0678 Z-2.2812
N27420 Y-126.3440 Z-2.3299
N27430 X167.9798 Y-126.3444 Z-2.3788
N27440 X167.9811 Y-126.0667 Z-2.4278
N27450 X168.2573 Y-126.0678 Z-2.4765
N27460 Y-126.3440 Z-2.5252
N27470 X167.9798 Y-126.3444 Z-2.5741
N27480 X167.9811 Y-126.0667 Z-2.6231
N27490 X168.2573 Y-126.0678 Z-2.6718
N27500 Y-126.3440 Z-2.7205
N27510 X167.9798 Y-126.3444 Z-2.7694
N27520 X167.9811 Y-126.0667 Z-2.8183
N27530 X168.2573 Y-126.0678 Z-2.8671
N27540 Y-126.3440 Z-2.9158
N27550 X167.9798 Y-126.3444 Z-2.9647
