N0010 (Filename: Wortuhr_mirrored_1mm.ngc)
N0020 (Post processor: LinuxCNC.scpost)
N0030 (Date: 20.11.2019)
N0040 G21 (Units: Metric)
N0050 G40 G90
N0060 F1
N0070 (Part: wortuhr_edit_hei_mirrored)
N0080 (Operation: Innen Versatz, cutout, T2: Fräser/Gravierer, 1 mm Durchmesser, 3 mm Tiefe)
N0090 M6 T2  (Fräser/Gravierer, 1 mm Durchmesser)
N0100 G43 H2
N0101 G61
N0110 G00 Z1.0000
N0120 M03 S1000
N0130 X111.9900 Y-116.9295
N0140 Z0.5000
N0150 G01 Z0.0000 F600
N0160 G02 X113.3062 Y-116.1064 Z-0.2768 I2.2138 J-2.0763 F600.0
N0170 G01 X113.3225 Y-116.1011 Z-0.2798 F600
N0180 X115.1391 Y-115.4696 Z-0.6189
N0190 X115.1627 Y-115.4607 Z-0.6234
N0200 X116.0060 Y-115.1189 Z-0.7838
N0210 G03 X116.0851 Y-115.0784 Z-0.7995 I-0.1878 J0.4634 F600.0
N0220 G01 X116.6119 Y-114.7459 Z-0.9094 F600
N0230 G03 X116.7503 Y-114.6159 Z-0.9430 I-0.2669 J0.4228 F600.0
N0240 G01 X117.0276 Y-114.2322 Z-1.0265 F600
N0250 G03 X117.1132 Y-114.0346 Z-1.0648 I-0.4053 J0.2929 F600.0
N0260 G01 X117.2076 Y-113.5485 Z-1.1521 F600
N0270 G03 X117.2058 Y-113.3491 Z-1.1875 I-0.4908 J0.0953 F600.0
N0280 G01 X117.0818 Y-112.7665 Z-1.2925 F600
N0290 G03 X116.9660 Y-112.5379 Z-1.3382 I-0.4890 J-0.1041 F600.0
N0300 G01 X116.5960 Y-112.1228 Z-1.4363 F600
N0310 G03 X116.4092 Y-111.9916 Z-1.4769 I-0.3733 J-0.3327 F600.0
N0320 G01 X116.2875 Y-111.9427 Z-1.5000 F600
N0330 X115.7894 Y-111.7425 F1200
N0340 G03 X115.6515 Y-111.7088 I-0.1865 J-0.4639 F1200.0
N0350 G01 X114.7872 Y-111.6244 F1200
N0360 G03 X114.7217 Y-111.6223 I-0.0486 J-0.4976 F1200.0
N0370 X112.3836 Y-112.0277 I0.2915 J-8.6249
N0380 G01 Y-111.8593 F1200
N0390 G02 X114.7531 Y-111.5255 I2.6347 J-10.1251 F1200.0
N0400 G01 X115.4400 Y-111.5675 F1200
N0410 X116.0527 Y-111.6905
N0420 G02 X117.5764 Y-113.6996 I-0.4899 J-1.9539 F1200.0
N0430 G01 X117.5765 Y-113.7321 F1200
N0440 G02 X116.8991 Y-115.0926 I-1.5853 J-0.0596 F1200.0
N0450 G01 X116.4793 Y-115.3527 F1200
N0460 X115.9541 Y-115.6089
N0470 X115.3076 Y-115.8723
N0480 X114.3404 Y-116.2213
N0490 X114.3189 Y-116.2296
N0500 X113.3302 Y-116.6389
N0510 G03 X113.2664 Y-116.6708 I0.1912 J-0.4620 F1200.0
N0520 G01 X112.6831 Y-117.0167 F1200
N0530 G03 X112.5399 Y-117.1445 I0.2550 J-0.4301 F1200.0
N0540 G01 X112.2546 Y-117.5203 F1200
N0550 G03 X112.1619 Y-117.7281 I0.3983 J-0.3023 F1200.0
N0560 G01 X112.0675 Y-118.2183 F1200
N0570 G03 X112.0617 Y-118.3692 I0.4910 J-0.0945 F1200.0
N0580 G01 X112.1003 Y-118.7095 F1200
N0590 G03 X112.1332 Y-118.8399 I0.4968 J0.0563 F1200.0
N0600 G01 X112.2562 Y-119.1455 F1200
N0610 G03 X112.3203 Y-119.2591 I0.4638 J0.1867 F1200.0
N0620 G01 X112.5201 Y-119.5251 F1200
N0630 G03 X112.6012 Y-119.6100 I0.3998 J0.3003 F1200.0
N0640 G01 X112.8823 Y-119.8426 F1200
N0650 G03 X112.9670 Y-119.8992 I0.3187 J0.3853 F1200.0
N0660 G01 X113.3163 Y-120.0842 F1200
N0670 G03 X113.3831 Y-120.1135 I0.2340 J0.4419 F1200.0
N0680 X116.5248 Y-120.1362 I1.6035 J4.5185
N0690 G01 X117.3660 Y-119.8674 F1200
N0700 X117.4052 Y-119.8531
N0710 X117.6406 Y-119.7556
N0720 Y-120.0593
N0730 X117.1057 Y-120.1923
N0740 X116.2937 Y-120.3503
N0750 X115.5818 Y-120.4454
N0760 X114.9707 Y-120.4742
N0770 X114.1936 Y-120.4304
N0780 X113.5166 Y-120.2969
N0790 X112.9358 Y-120.0799
N0800 X112.4472 Y-119.7861
N0810 X112.0686 Y-119.4358
N0820 X111.8060 Y-119.0419
N0830 X111.6370 Y-118.5649
N0840 G02 X111.9900 Y-116.9295 I1.8621 J0.4539 F1200.0
N0850 X113.3062 Y-116.1064 Z-1.7768 I2.2138 J-2.0763 F600.0
N0860 G01 X113.3225 Y-116.1011 Z-1.7798 F600
N0870 X115.1391 Y-115.4696 Z-2.1189
N0880 X115.1627 Y-115.4607 Z-2.1234
N0890 X116.0060 Y-115.1189 Z-2.2838
N0900 G03 X116.0851 Y-115.0784 Z-2.2995 I-0.1878 J0.4634 F600.0
N0910 G01 X116.6119 Y-114.7459 Z-2.4094 F600
N0920 G03 X116.7503 Y-114.6159 Z-2.4430 I-0.2669 J0.4228 F600.0
N0930 G01 X117.0276 Y-114.2322 Z-2.5265 F600
N0940 G03 X117.1132 Y-114.0346 Z-2.5648 I-0.4053 J0.2929 F600.0
N0950 G01 X117.2076 Y-113.5485 Z-2.6521 F600
N0960 G03 X117.2058 Y-113.3491 Z-2.6875 I-0.4908 J0.0953 F600.0
N0970 G01 X117.0818 Y-112.7665 Z-2.7925 F600
N0980 G03 X116.9660 Y-112.5379 Z-2.8382 I-0.4890 J-0.1041 F600.0
N0990 G01 X116.5960 Y-112.1228 Z-2.9363 F600
N1000 G03 X116.4092 Y-111.9916 Z-2.9769 I-0.3733 J-0.3327 F600.0
N1010 G01 X116.2875 Y-111.9427 Z-3.0000 F600
N1020 X115.7894 Y-111.7425 F1200
N1030 G03 X115.6515 Y-111.7088 I-0.1865 J-0.4639 F1200.0
N1040 G01 X114.7872 Y-111.6244 F1200
N1050 G03 X114.7217 Y-111.6223 I-0.0486 J-0.4976 F1200.0
N1060 X112.3836 Y-112.0277 I0.2915 J-8.6249
N1070 G01 Y-111.8593 F1200
N1080 G02 X114.7531 Y-111.5255 I2.6347 J-10.1251 F1200.0
N1090 G01 X115.4400 Y-111.5675 F1200
N1100 X116.0527 Y-111.6905
N1110 G02 X117.5764 Y-113.6996 I-0.4899 J-1.9539 F1200.0
N1120 G01 X117.5765 Y-113.7321 F1200
N1130 G02 X116.8991 Y-115.0926 I-1.5853 J-0.0596 F1200.0
N1140 G01 X116.4793 Y-115.3527 F1200
N1150 X115.9541 Y-115.6089
N1160 X115.3076 Y-115.8723
N1170 X114.3404 Y-116.2213
N1180 X114.3189 Y-116.2296
N1190 X113.3302 Y-116.6389
N1200 G03 X113.2664 Y-116.6708 I0.1912 J-0.4620 F1200.0
N1210 G01 X112.6831 Y-117.0167 F1200
N1220 G03 X112.5399 Y-117.1445 I0.2550 J-0.4301 F1200.0
N1230 G01 X112.2546 Y-117.5203 F1200
N1240 G03 X112.1619 Y-117.7281 I0.3983 J-0.3023 F1200.0
N1250 G01 X112.0675 Y-118.2183 F1200
N1260 G03 X112.0617 Y-118.3692 I0.4910 J-0.0945 F1200.0
N1270 G01 X112.1003 Y-118.7095 F1200
N1280 G03 X112.1332 Y-118.8399 I0.4968 J0.0563 F1200.0
N1290 G01 X112.2562 Y-119.1455 F1200
N1300 G03 X112.3203 Y-119.2591 I0.4638 J0.1867 F1200.0
N1310 G01 X112.5201 Y-119.5251 F1200
N1320 G03 X112.6012 Y-119.6100 I0.3998 J0.3003 F1200.0
N1330 G01 X112.8823 Y-119.8426 F1200
N1340 G03 X112.9670 Y-119.8992 I0.3187 J0.3853 F1200.0
N1350 G01 X113.3163 Y-120.0842 F1200
N1360 G03 X113.3831 Y-120.1135 I0.2340 J0.4419 F1200.0
N1370 X116.5248 Y-120.1362 I1.6035 J4.5185
N1380 G01 X117.3660 Y-119.8674 F1200
N1390 X117.4052 Y-119.8531
N1400 X117.6406 Y-119.7556
N1410 Y-120.0593
N1420 X117.1057 Y-120.1923
N1430 X116.2937 Y-120.3503
N1440 X115.5818 Y-120.4454
N1450 X114.9707 Y-120.4742
N1460 X114.1936 Y-120.4304
N1470 X113.5166 Y-120.2969
N1480 X112.9358 Y-120.0799
N1490 X112.4472 Y-119.7861
N1500 X112.0686 Y-119.4358
N1510 X111.8060 Y-119.0419
N1520 X111.6370 Y-118.5649
N1530 G02 X111.9900 Y-116.9295 I1.8621 J0.4539 F1200.0
N1540 X113.3062 Y-116.1064 I2.2138 J-2.0763
N1550 G01 X113.3225 Y-116.1011 F1200
N1560 X115.1391 Y-115.4696
N1570 X115.1627 Y-115.4607
N1580 X116.0060 Y-115.1189
N1590 G03 X116.0851 Y-115.0784 I-0.1878 J0.4634 F1200.0
N1600 G01 X116.6119 Y-114.7459 F1200
N1610 G03 X116.7503 Y-114.6159 I-0.2669 J0.4228 F1200.0
N1620 G01 X117.0276 Y-114.2322 F1200
N1630 G03 X117.1132 Y-114.0346 I-0.4053 J0.2929 F1200.0
N1640 G01 X117.2076 Y-113.5485 F1200
N1650 G03 X117.2058 Y-113.3491 I-0.4908 J0.0953 F1200.0
N1660 G01 X117.0818 Y-112.7665 F1200
N1670 G03 X116.9660 Y-112.5379 I-0.4890 J-0.1041 F1200.0
N1680 G01 X116.5960 Y-112.1228 F1200
N1690 G03 X116.4092 Y-111.9916 I-0.3733 J-0.3327 F1200.0
N1700 G01 X116.2875 Y-111.9427 F1200
N1710 G00 Z1.0000
N1720 X113.9958 Y-128.8203
N1730 Z0.5000
N1740 G01 Z0.0000 F600
N1750 X114.5938 Y-128.7725 Z-0.1058
N1760 X117.4936 Y-128.7565 Z-0.6171
N1770 X117.4910 Y-130.9359 Z-1.0014
N1780 X117.0321 Z-1.0823
N1790 Y-129.3509 Z-1.3618
N1800 G03 X116.5336 Y-128.8509 Z-1.5000 I-0.5000 J0.0000 F600.0
N1810 G01 X116.5321 F1200
N1820 X115.6401
N1830 X115.6248 Y-128.8512
N1840 X114.9861 Y-128.8708
N1850 X114.9492 Y-128.8733
N1860 X114.4148 Y-128.9295
N1870 G03 X114.3581 Y-128.9388 I0.0523 J-0.4973 F1200.0
N1880 G01 X113.9371 Y-129.0328 F1200
N1890 G03 X113.8490 Y-129.0613 I0.1090 J-0.4880 F1200.0
N1900 G01 X113.5358 Y-129.1956 F1200
N1910 G03 X113.4211 Y-129.2643 I0.1971 J-0.4595 F1200.0
N1920 G01 X113.1927 Y-129.4465 F1200
N1930 G03 X113.0849 Y-129.5655 I0.3118 J-0.3908 F1200.0
N1940 G01 X112.9233 Y-129.8150 F1200
N1950 G03 X112.8651 Y-129.9398 I0.4196 J-0.2718 F1200.0
N1960 G01 X112.7686 Y-130.2533 F1200
N1970 G03 X112.7484 Y-130.3571 I0.4779 J-0.1470 F1200.0
N1980 G01 X112.7156 Y-130.7343 F1200
N1990 X112.7139 Y-130.7662
N2000 G03 X113.6058 Y-132.5804 I2.1898 J-0.0498 F1200.0
N2010 G01 X113.6440 Y-132.6059 F1200
N2020 X114.0185 Y-132.8315
N2030 G03 X114.1021 Y-132.8719 I0.2581 J0.4283 F1200.0
N2040 G01 X114.5390 Y-133.0345 F1200
N2050 G03 X114.6169 Y-133.0565 I0.1744 J0.4686 F1200.0
N2060 G01 X115.1110 Y-133.1537 F1200
N2070 G03 X115.1804 Y-133.1623 I0.0965 J0.4906 F1200.0
N2080 G01 X115.7391 Y-133.1926 F1200
N2090 X115.7688 Y-133.1934
N2100 X117.4942 Y-133.1846
N2110 Y-137.2466
N2120 X117.0366
N2130 Y-133.7961
N2140 G03 X116.5366 Y-133.2961 I-0.5000 J0.0000 F1200.0
N2150 G01 X115.2198 F1200
N2160 G03 X114.8214 Y-133.4941 I0.0000 J-0.5000 F1200.0
N2170 G01 X111.9770 Y-137.2466 F1200
N2180 X111.4637
N2190 X114.1313 Y-133.7290
N2200 G03 X113.9777 Y-132.9908 I-0.3984 J0.3021 F1200.0
N2210 G01 X113.4785 Y-132.7106 F1200
N2220 X113.0659 Y-132.4264
N2230 G02 X112.1608 Y-130.5576 I1.3406 J1.8029 F1200.0
N2240 G01 Y-130.5281 F1200
N2250 G02 X113.1959 Y-129.0031 I1.5721 J0.0467 F1200.0
N2260 G01 X113.5386 Y-128.8976 F1200
N2270 X113.9958 Y-128.8203
N2280 X114.5938 Y-128.7725 Z-1.6058 F600
N2290 X117.4936 Y-128.7565 Z-2.1171
N2300 X117.4910 Y-130.9359 Z-2.5014
N2310 X117.0321 Z-2.5823
N2320 Y-129.3509 Z-2.8618
N2330 G03 X116.5336 Y-128.8509 Z-3.0000 I-0.5000 J0.0000 F600.0
N2340 G01 X116.5321 F1200
N2350 X115.6401
N2360 X115.6248 Y-128.8512
N2370 X114.9861 Y-128.8708
N2380 X114.9492 Y-128.8733
N2390 X114.4148 Y-128.9295
N2400 G03 X114.3581 Y-128.9388 I0.0523 J-0.4973 F1200.0
N2410 G01 X113.9371 Y-129.0328 F1200
N2420 G03 X113.8490 Y-129.0613 I0.1090 J-0.4880 F1200.0
N2430 G01 X113.5358 Y-129.1956 F1200
N2440 G03 X113.4211 Y-129.2643 I0.1971 J-0.4595 F1200.0
N2450 G01 X113.1927 Y-129.4465 F1200
N2460 G03 X113.0849 Y-129.5655 I0.3118 J-0.3908 F1200.0
N2470 G01 X112.9233 Y-129.8150 F1200
N2480 G03 X112.8651 Y-129.9398 I0.4196 J-0.2718 F1200.0
N2490 G01 X112.7686 Y-130.2533 F1200
N2500 G03 X112.7484 Y-130.3571 I0.4779 J-0.1470 F1200.0
N2510 G01 X112.7156 Y-130.7343 F1200
N2520 X112.7139 Y-130.7662
N2530 G03 X113.6058 Y-132.5804 I2.1898 J-0.0498 F1200.0
N2540 G01 X113.6440 Y-132.6059 F1200
N2550 X114.0185 Y-132.8315
N2560 G03 X114.1021 Y-132.8719 I0.2581 J0.4283 F1200.0
N2570 G01 X114.5390 Y-133.0345 F1200
N2580 G03 X114.6169 Y-133.0565 I0.1744 J0.4686 F1200.0
N2590 G01 X115.1110 Y-133.1537 F1200
N2600 G03 X115.1804 Y-133.1623 I0.0965 J0.4906 F1200.0
N2610 G01 X115.7391 Y-133.1926 F1200
N2620 X115.7688 Y-133.1934
N2630 X117.4942 Y-133.1846
N2640 Y-137.2466
N2650 X117.0366
N2660 Y-133.7961
N2670 G03 X116.5366 Y-133.2961 I-0.5000 J0.0000 F1200.0
N2680 G01 X115.2198 F1200
N2690 G03 X114.8214 Y-133.4941 I0.0000 J-0.5000 F1200.0
N2700 G01 X111.9770 Y-137.2466 F1200
N2710 X111.4637
N2720 X114.1313 Y-133.7290
N2730 G03 X113.9777 Y-132.9908 I-0.3984 J0.3021 F1200.0
N2740 G01 X113.4785 Y-132.7106 F1200
N2750 X113.0659 Y-132.4264
N2760 G02 X112.1608 Y-130.5576 I1.3406 J1.8029 F1200.0
N2770 G01 Y-130.5281 F1200
N2780 G02 X113.1959 Y-129.0031 I1.5721 J0.0467 F1200.0
N2790 G01 X113.5386 Y-128.8976 F1200
N2800 X113.9958 Y-128.8203
N2810 X114.5938 Y-128.7725
N2820 X117.4936 Y-128.7565
N2830 X117.4910 Y-130.9359
N2840 X117.0321
N2850 Y-129.3509
N2860 G03 X116.5336 Y-128.8509 I-0.5000 J0.0000 F1200.0
N2870 G00 Z1.0000
N2880 X100.1559 Y-128.7537
N2890 Z0.5000
N2900 G01 Z0.0000 F600
N2910 X100.6111 Z-0.0803
N2920 Y-136.8054 Z-1.5000
N2930 Y-137.2466 F1200
N2940 X100.1559
N2950 Y-133.5002
N2960 G03 X99.6559 Y-133.0002 I-0.5000 J0.0000 F1200.0
N2970 G01 X95.6390 F1200
N2980 G03 X95.1390 Y-133.5002 I0.0000 J-0.5000 F1200.0
N2990 G01 Y-137.2466 F1200
N3000 X94.6741
N3010 Y-128.7537
N3020 X95.1390
N3030 Y-132.4033
N3040 G03 X95.6390 Y-132.9033 I0.5000 J0.0000 F1200.0
N3050 G01 X99.6559 F1200
N3060 G03 X100.1559 Y-132.4033 I0.0000 J0.5000 F1200.0
N3070 G01 Y-128.7537 F1200
N3080 X100.6111 Z-1.5803 F600
N3090 Y-136.8054 Z-3.0000
N3100 Y-137.2466 F1200
N3110 X100.1559
N3120 Y-133.5002
N3130 G03 X99.6559 Y-133.0002 I-0.5000 J0.0000 F1200.0
N3140 G01 X95.6390 F1200
N3150 G03 X95.1390 Y-133.5002 I0.0000 J-0.5000 F1200.0
N3160 G01 Y-137.2466 F1200
N3170 X94.6741
N3180 Y-128.7537
N3190 X95.1390
N3200 Y-132.4033
N3210 G03 X95.6390 Y-132.9033 I0.5000 J0.0000 F1200.0
N3220 G01 X99.6559 F1200
N3230 G03 X100.1559 Y-132.4033 I0.0000 J0.5000 F1200.0
N3240 G01 Y-128.7537 F1200
N3250 X100.6111
N3260 Y-136.8054
N3270 G00 Z1.0000
N3280 X97.8757 Y-119.6509
N3290 Z0.5000
N3300 G01 Z0.0000 F600
N3310 G03 X98.3757 Y-120.1509 Z-0.1385 I0.5000 J0.0000 F600.0
N3320 G01 X100.4286 Z-0.5005 F600
N3330 Y-120.2451 Z-0.5171
N3340 X94.8601 Z-1.4989
N3350 Y-120.2390 Z-1.5000
N3360 Y-120.1509 F1200
N3370 X96.9123
N3380 G03 X97.4123 Y-119.6509 I0.0000 J0.5000 F1200.0
N3390 G01 Y-112.3523 F1200
N3400 G03 X96.9123 Y-111.8523 I-0.5000 J0.0000 F1200.0
N3410 G01 X94.8601 F1200
N3420 Y-111.7551
N3430 X100.4286
N3440 Y-111.8523
N3450 X98.3757
N3460 G03 X97.8757 Y-112.3523 I0.0000 J-0.5000 F1200.0
N3470 G01 Y-119.6509 F1200
N3480 G03 X98.3757 Y-120.1509 Z-1.6385 I0.5000 J0.0000 F600.0
N3490 G01 X100.4286 Z-2.0005 F600
N3500 Y-120.2451 Z-2.0171
N3510 X94.8601 Z-2.9989
N3520 Y-120.2390 Z-3.0000
N3530 Y-120.1509 F1200
N3540 X96.9123
N3550 G03 X97.4123 Y-119.6509 I0.0000 J0.5000 F1200.0
N3560 G01 Y-112.3523 F1200
N3570 G03 X96.9123 Y-111.8523 I-0.5000 J0.0000 F1200.0
N3580 G01 X94.8601 F1200
N3590 Y-111.7551
N3600 X100.4286
N3610 Y-111.8523
N3620 X98.3757
N3630 G03 X97.8757 Y-112.3523 I0.0000 J-0.5000 F1200.0
N3640 G01 Y-119.6509 F1200
N3650 G03 X98.3757 Y-120.1509 I0.5000 J0.0000 F1200.0
N3660 G01 X100.4286 F1200
N3670 Y-120.2451
N3680 X94.8601
N3690 Y-120.2390
N3700 G00 Z1.0000
N3710 X95.5453 Y-103.2451
N3720 Z0.5000
N3730 G01 Z0.0000 F600
N3740 X94.1643 Y-94.8510 Z-1.5000
N3750 X94.1487 Y-94.7561 F1200
N3760 X94.2393 Y-94.7560
N3770 X95.3962 Y-102.1283
N3780 G03 X96.3769 Y-102.1653 I0.4940 J0.0775 F1200.0
N3790 G01 X97.6486 Y-96.7586 F1200
N3800 X98.2543
N3810 X99.5280 Y-102.2142
N3820 X99.5312 Y-102.2270
N3830 X99.5412 Y-102.2655
N3840 G03 X100.5195 Y-102.2128 I0.4837 J0.1265 F1200.0
N3850 G01 X101.6320 Y-94.7549 F1200
N3860 X101.8602
N3870 X100.5987 Y-103.2446
N3880 X99.7388 Y-103.2437
N3890 X98.5091 Y-98.0603
N3900 G03 X97.5361 Y-98.0605 I-0.4865 J-0.1154 F1200.0
N3910 G01 X96.3079 Y-103.2451 F1200
N3920 X95.5453
N3930 X94.1643 Y-94.8510 Z-3.0000 F600
N3940 X94.1487 Y-94.7561 F1200
N3950 X94.2393 Y-94.7560
N3960 X95.3962 Y-102.1283
N3970 G03 X96.3769 Y-102.1653 I0.4940 J0.0775 F1200.0
N3980 G01 X97.6486 Y-96.7586 F1200
N3990 X98.2543
N4000 X99.5280 Y-102.2142
N4010 X99.5312 Y-102.2270
N4020 X99.5412 Y-102.2655
N4030 G03 X100.5195 Y-102.2128 I0.4837 J0.1265 F1200.0
N4040 G01 X101.6320 Y-94.7549 F1200
N4050 X101.8602
N4060 X100.5987 Y-103.2446
N4070 X99.7388 Y-103.2437
N4080 X98.5091 Y-98.0603
N4090 G03 X97.5361 Y-98.0605 I-0.4865 J-0.1154 F1200.0
N4100 G01 X96.3079 Y-103.2451 F1200
N4110 X95.5453
N4120 X94.1643 Y-94.8510
N4130 G00 Z1.0000
N4140 X84.2749 Y-100.8878
N4150 Z0.5000
N4160 G01 Z0.0000 F600
N4170 X84.2654 Y-100.9139 Z-0.0049
N4180 X83.8768 Y-100.4514 Z-0.1114
N4190 X84.0447 Y-99.4913 Z-0.2833
N4200 G03 X84.0522 Y-99.4051 Z-0.2986 I-0.4925 J0.0861 F600.0
N4210 G01 Y-97.5403 Z-0.6274 F600
N4220 G03 X84.0451 Y-97.4565 Z-0.6422 I-0.5000 J0.0000 F600.0
N4230 X82.6618 Y-94.9228 Z-1.1607 I-4.3758 J-0.7446
N4240 X82.6121 Y-94.8829 Z-1.1719 I-0.3371 J-0.3693
N4250 X80.8699 Y-94.3940 Z-1.4972 I-1.5649 J-2.2277
N4260 G01 X80.8537 Y-94.3944 Z-1.5000 F600
N4270 G03 X79.5367 Y-94.6654 I0.1048 J-3.8455 F1200.0
N4280 G01 X79.5234 Y-94.6709 F1200
N4290 X79.5026 Y-94.6799
N4300 G03 X79.3337 Y-94.7994 I0.1981 J-0.4591 F1200.0
N4310 G01 X79.3000 Y-94.8357 F1200
N4320 X79.2741 Y-94.8662
N4330 X79.2451 Y-94.9031
N4340 X79.1556 Y-94.7968
N4350 G02 X81.3316 Y-94.3107 I1.7802 J-2.8561 F1200.0
N4360 G01 X81.3673 Y-94.3137 F1200
N4370 G02 X82.9417 Y-94.6584 I-0.2219 J-4.7815 F1200.0
N4380 G01 X84.2824 Y-96.2819 F1200
N4390 G02 X84.2749 Y-100.8878 I-7.4356 J-2.2908 F1200.0
N4400 G01 X84.2654 Y-100.9139 Z-1.5049 F600
N4410 X83.8768 Y-100.4514 Z-1.6114
N4420 X84.0447 Y-99.4913 Z-1.7833
N4430 G03 X84.0522 Y-99.4051 Z-1.7986 I-0.4925 J0.0861 F600.0
N4440 G01 Y-97.5403 Z-2.1274 F600
N4450 G03 X84.0451 Y-97.4565 Z-2.1422 I-0.5000 J0.0000 F600.0
N4460 X82.6618 Y-94.9228 Z-2.6607 I-4.3758 J-0.7446
N4470 X82.6121 Y-94.8829 Z-2.6719 I-0.3371 J-0.3693
N4480 X80.8699 Y-94.3940 Z-2.9972 I-1.5649 J-2.2277
N4490 G01 X80.8537 Y-94.3944 Z-3.0000 F600
N4500 G03 X79.5367 Y-94.6654 I0.1048 J-3.8455 F1200.0
N4510 G01 X79.5234 Y-94.6709 F1200
N4520 X79.5026 Y-94.6799
N4530 G03 X79.3337 Y-94.7994 I0.1981 J-0.4591 F1200.0
N4540 G01 X79.3000 Y-94.8357 F1200
N4550 X79.2741 Y-94.8662
N4560 X79.2451 Y-94.9031
N4570 X79.1556 Y-94.7968
N4580 G02 X81.3316 Y-94.3107 I1.7802 J-2.8561 F1200.0
N4590 G01 X81.3673 Y-94.3137 F1200
N4600 G02 X82.9417 Y-94.6584 I-0.2219 J-4.7815 F1200.0
N4610 G01 X84.2824 Y-96.2819 F1200
N4620 G02 X84.2749 Y-100.8878 I-7.4356 J-2.2908 F1200.0
N4630 G01 X84.2654 Y-100.9139 F1200
N4640 X83.8768 Y-100.4514
N4650 X84.0447 Y-99.4913
N4660 G03 X84.0522 Y-99.4051 I-0.4925 J0.0861 F1200.0
N4670 G01 Y-97.5403 F1200
N4680 G03 X84.0451 Y-97.4565 I-0.5000 J0.0000 F1200.0
N4690 X82.6618 Y-94.9228 I-4.3758 J-0.7446
N4700 X82.6121 Y-94.8829 I-0.3371 J-0.3693
N4710 X80.8699 Y-94.3940 I-1.5649 J-2.2277
N4720 G01 X80.8537 Y-94.3944 F1200
N4730 G00 Z1.0000
N4740 X78.1741 Y-101.0761
N4750 Z0.5000
N4760 G01 Z0.0000 F600
N4770 G03 X78.2343 Y-101.2206 Z-0.0277 I0.4860 J0.1176 F600.0
N4780 G01 X78.2853 Y-101.3035 Z-0.0449 F600
N4790 X78.2937 Y-101.3167 Z-0.0476
N4800 X79.1316 Y-102.5875 Z-0.3160
N4810 G03 X79.3043 Y-102.7483 Z-0.3580 I0.4174 J0.2752 F600.0
N4820 X82.6085 Y-102.6594 Z-0.9700 I1.5776 J2.8110
N4830 X82.6929 Y-102.5920 Z-0.9891 I-0.2678 J0.4222
N4840 G01 X82.7121 Y-102.5730 Z-0.9938 F600
N4850 X82.8671 Y-102.7522 Z-1.0356
N4860 G02 X81.9450 Y-103.2451 Z-1.2204 I-2.4832 J3.5363 F600.0
N4870 G01 X80.3595 Z-1.5000 F600
N4880 X79.8706 F1200
N4890 G02 X77.4503 Y-99.7067 I1.9927 J3.9601 F1200.0
N4900 G01 X77.4489 Y-99.6945 F1200
N4910 G02 X77.5982 Y-96.7241 I8.7266 J1.0505 F1200.0
N4920 G01 X77.6883 Y-96.5708 F1200
N4930 X78.1100 Y-97.0767
N4940 G03 X78.1741 Y-101.0761 I8.9188 J-1.8573 F1200.0
N4950 X78.2343 Y-101.2206 Z-1.5277 I0.4860 J0.1176 F600.0
N4960 G01 X78.2853 Y-101.3035 Z-1.5449 F600
N4970 X78.2937 Y-101.3167 Z-1.5476
N4980 X79.1316 Y-102.5875 Z-1.8160
N4990 G03 X79.3043 Y-102.7483 Z-1.8580 I0.4174 J0.2752 F600.0
N5000 X82.6085 Y-102.6594 Z-2.4700 I1.5776 J2.8110
N5010 X82.6929 Y-102.5920 Z-2.4891 I-0.2678 J0.4222
N5020 G01 X82.7121 Y-102.5730 Z-2.4938 F600
N5030 X82.8671 Y-102.7522 Z-2.5356
N5040 G02 X81.9450 Y-103.2451 Z-2.7204 I-2.4832 J3.5363 F600.0
N5050 G01 X80.3595 Z-3.0000 F600
N5060 X79.8706 F1200
N5070 G02 X77.4503 Y-99.7067 I1.9927 J3.9601 F1200.0
N5080 G01 X77.4489 Y-99.6945 F1200
N5090 G02 X77.5982 Y-96.7241 I8.7266 J1.0505 F1200.0
N5100 G01 X77.6883 Y-96.5708 F1200
N5110 X78.1100 Y-97.0767
N5120 G03 X78.1741 Y-101.0761 I8.9188 J-1.8573 F1200.0
N5130 X78.2343 Y-101.2206 I0.4860 J0.1176
N5140 G01 X78.2853 Y-101.3035 F1200
N5150 X78.2937 Y-101.3167
N5160 X79.1316 Y-102.5875
N5170 G03 X79.3043 Y-102.7483 I0.4174 J0.2752 F1200.0
N5180 X82.6085 Y-102.6594 I1.5776 J2.8110
N5190 X82.6929 Y-102.5920 I-0.2678 J0.4222
N5200 G01 X82.7121 Y-102.5730 F1200
N5210 X82.8671 Y-102.7522
N5220 G02 X81.9450 Y-103.2451 I-2.4832 J3.5363 F1200.0
N5230 G01 X80.3595 F1200
N5240 G00 Z1.0000
N5250 X79.0396 Y-92.3291
N5260 Z0.5000
N5270 G01 Z0.0000 F600
N5280 Y-92.0535 Z-0.0486
N5290 X79.3161 Y-92.0524 Z-0.0974
N5300 X79.3174 Y-92.3294 Z-0.1462
N5310 X79.0396 Y-92.3291 Z-0.1952
N5320 Y-92.0535 Z-0.2438
N5330 X79.3161 Y-92.0524 Z-0.2925
N5340 X79.3174 Y-92.3294 Z-0.3414
N5350 X79.0396 Y-92.3291 Z-0.3904
N5360 Y-92.0535 Z-0.4390
N5370 X79.3161 Y-92.0524 Z-0.4877
N5380 X79.3174 Y-92.3294 Z-0.5366
N5390 X79.0396 Y-92.3291 Z-0.5856
N5400 Y-92.0535 Z-0.6341
N5410 X79.3161 Y-92.0524 Z-0.6829
N5420 X79.3174 Y-92.3294 Z-0.7318
N5430 X79.0396 Y-92.3291 Z-0.7807
N5440 Y-92.0535 Z-0.8293
N5450 X79.3161 Y-92.0524 Z-0.8781
N5460 X79.3174 Y-92.3294 Z-0.9269
N5470 X79.0396 Y-92.3291 Z-0.9759
N5480 Y-92.0535 Z-1.0245
N5490 X79.3161 Y-92.0524 Z-1.0733
N5500 X79.3174 Y-92.3294 Z-1.1221
N5510 X79.0396 Y-92.3291 Z-1.1711
N5520 Y-92.0535 Z-1.2197
N5530 X79.3161 Y-92.0524 Z-1.2685
N5540 X79.3174 Y-92.3294 Z-1.3173
N5550 X79.0396 Y-92.3291 Z-1.3663
N5560 Y-92.0535 Z-1.4149
N5570 X79.3161 Y-92.0524 Z-1.4637
N5580 X79.3171 Y-92.2585 Z-1.5000
N5590 X79.3174 Y-92.3294 F1200
N5600 X79.0396 Y-92.3291 Z-1.5490 F600
N5610 Y-92.0535 Z-1.5976
N5620 X79.3161 Y-92.0524 Z-1.6464
N5630 X79.3174 Y-92.3294 Z-1.6952
N5640 X79.0396 Y-92.3291 Z-1.7442
N5650 Y-92.0535 Z-1.7928
N5660 X79.3161 Y-92.0524 Z-1.8415
N5670 X79.3174 Y-92.3294 Z-1.8904
N5680 X79.0396 Y-92.3291 Z-1.9394
N5690 Y-92.0535 Z-1.9880
N5700 X79.3161 Y-92.0524 Z-2.0367
N5710 X79.3174 Y-92.3294 Z-2.0856
N5720 X79.0396 Y-92.3291 Z-2.1346
N5730 Y-92.0535 Z-2.1831
N5740 X79.3161 Y-92.0524 Z-2.2319
N5750 X79.3174 Y-92.3294 Z-2.2807
N5760 X79.0396 Y-92.3291 Z-2.3297
N5770 Y-92.0535 Z-2.3783
N5780 X79.3161 Y-92.0524 Z-2.4271
N5790 X79.3174 Y-92.3294 Z-2.4759
N5800 X79.0396 Y-92.3291 Z-2.5249
N5810 Y-92.0535 Z-2.5735
N5820 X79.3161 Y-92.0524 Z-2.6223
N5830 X79.3174 Y-92.3294 Z-2.6711
N5840 X79.0396 Y-92.3291 Z-2.7201
N5850 Y-92.0535 Z-2.7687
N5860 X79.3161 Y-92.0524 Z-2.8175
N5870 X79.3174 Y-92.3294 Z-2.8663
N5880 X79.0396 Y-92.3291 Z-2.9153
N5890 Y-92.0535 Z-2.9639
N5900 X79.2444 Y-92.0527 Z-3.0000
N5910 X79.3161 Y-92.0524 F1200
N5920 X79.3174 Y-92.3294
N5930 X79.0396 Y-92.3291
N5940 Y-92.0535
N5950 X79.2444 Y-92.0527
N5960 G00 Z1.0000
N5970 X82.6852 Y-92.0505
N5980 Z0.5000
N5990 G01 Z0.0000 F600
N6000 X82.9603 Z-0.0485
N6010 X82.9616 Y-92.3292 Z-0.0977
N6020 X82.6852 Y-92.3288 Z-0.1464
N6030 Y-92.0505 Z-0.1955
N6040 X82.9603 Z-0.2440
N6050 X82.9616 Y-92.3292 Z-0.2931
N6060 X82.6852 Y-92.3288 Z-0.3419
N6070 Y-92.0505 Z-0.3910
N6080 X82.9603 Z-0.4395
N6090 X82.9616 Y-92.3292 Z-0.4886
N6100 X82.6852 Y-92.3288 Z-0.5374
N6110 Y-92.0505 Z-0.5864
N6120 X82.9603 Z-0.6350
N6130 X82.9616 Y-92.3292 Z-0.6841
N6140 X82.6852 Y-92.3288 Z-0.7328
N6150 Y-92.0505 Z-0.7819
N6160 X82.9603 Z-0.8304
N6170 X82.9616 Y-92.3292 Z-0.8796
N6180 X82.6852 Y-92.3288 Z-0.9283
N6190 Y-92.0505 Z-0.9774
N6200 X82.9603 Z-1.0259
N6210 X82.9616 Y-92.3292 Z-1.0751
N6220 X82.6852 Y-92.3288 Z-1.1238
N6230 Y-92.0505 Z-1.1729
N6240 X82.9603 Z-1.2214
N6250 X82.9616 Y-92.3292 Z-1.2706
N6260 X82.6852 Y-92.3288 Z-1.3193
N6270 Y-92.0505 Z-1.3684
N6280 X82.9603 Z-1.4169
N6290 X82.9616 Y-92.3292 Z-1.4660
N6300 X82.7690 Y-92.3290 Z-1.5000
N6310 X82.6852 Y-92.3288 F1200
N6320 Y-92.0505 Z-1.5491 F600
N6330 X82.9603 Z-1.5976
N6340 X82.9616 Y-92.3292 Z-1.6467
N6350 X82.6852 Y-92.3288 Z-1.6955
N6360 Y-92.0505 Z-1.7446
N6370 X82.9603 Z-1.7931
N6380 X82.9616 Y-92.3292 Z-1.8422
N6390 X82.6852 Y-92.3288 Z-1.8910
N6400 Y-92.0505 Z-1.9400
N6410 X82.9603 Z-1.9886
N6420 X82.9616 Y-92.3292 Z-2.0377
N6430 X82.6852 Y-92.3288 Z-2.0864
N6440 Y-92.0505 Z-2.1355
N6450 X82.9603 Z-2.1840
N6460 X82.9616 Y-92.3292 Z-2.2332
N6470 X82.6852 Y-92.3288 Z-2.2819
N6480 Y-92.0505 Z-2.3310
N6490 X82.9603 Z-2.3795
N6500 X82.9616 Y-92.3292 Z-2.4287
N6510 X82.6852 Y-92.3288 Z-2.4774
N6520 Y-92.0505 Z-2.5265
N6530 X82.9603 Z-2.5750
N6540 X82.9616 Y-92.3292 Z-2.6242
N6550 X82.6852 Y-92.3288 Z-2.6729
N6560 Y-92.0505 Z-2.7220
N6570 X82.9603 Z-2.7705
N6580 X82.9616 Y-92.3292 Z-2.8196
N6590 X82.6852 Y-92.3288 Z-2.8684
N6600 Y-92.0505 Z-2.9175
N6610 X82.9603 Z-2.9660
N6620 X82.9612 Y-92.2435 Z-3.0000
N6630 X82.9616 Y-92.3292 F1200
N6640 X82.6852 Y-92.3288
N6650 Y-92.0505
N6660 X82.9603
N6670 X82.9612 Y-92.2435
N6680 G00 Z1.0000
N6690 X82.5494 Y-85.9309
N6700 Z0.5000
N6710 G01 Z0.0000 F600
N6720 X82.5881 Y-85.9055 Z-0.0082
N6730 G03 X82.7159 Y-85.8069 Z-0.0366 I-1.5837 J2.1848 F600.0
N6740 G01 X82.8675 Y-85.9821 Z-0.0775 F600
N6750 G02 X81.9454 Y-86.4747 Z-0.2623 I-2.4682 J3.5107 F600.0
N6760 G01 X79.8688 Z-0.6284 F600
N6770 G02 X77.4509 Y-82.9421 Z-1.4157 I2.0195 J3.9761 F600.0
N6780 G01 X77.4497 Y-82.9317 Z-1.4176 F600
N6790 G02 X77.4058 Y-82.4665 Z-1.5000 I8.7198 J1.0576 F600.0
N6800 X77.5982 Y-79.9545 I8.7637 J0.5924 F1200.0
N6810 G01 X77.6884 Y-79.8010 F1200
N6820 X78.1101 Y-80.3066
N6830 G03 X78.1743 Y-84.3063 I8.9146 J-1.8574 F1200.0
N6840 X78.2359 Y-84.4531 I0.4860 J0.1176
N6850 G01 X78.2941 Y-84.5465 F1200
N6860 X78.3015 Y-84.5580
N6870 X79.1379 Y-85.8219
N6880 G03 X79.3145 Y-85.9844 I0.4170 J0.2759 F1200.0
N6890 X82.5494 Y-85.9309 I1.5705 J2.8643
N6900 G01 F1200
N6910 X82.5881 Y-85.9055 Z-1.5082 F600
N6920 G03 X82.7159 Y-85.8069 Z-1.5366 I-1.5837 J2.1848 F600.0
N6930 G01 X82.8675 Y-85.9821 Z-1.5775 F600
N6940 G02 X81.9454 Y-86.4747 Z-1.7623 I-2.4682 J3.5107 F600.0
N6950 G01 X79.8688 Z-2.1284 F600
N6960 G02 X77.4509 Y-82.9421 Z-2.9157 I2.0195 J3.9761 F600.0
N6970 G01 X77.4497 Y-82.9317 Z-2.9176 F600
N6980 G02 X77.4058 Y-82.4665 Z-3.0000 I8.7198 J1.0576 F600.0
N6990 X77.5982 Y-79.9545 I8.7637 J0.5924 F1200.0
N7000 G01 X77.6884 Y-79.8010 F1200
N7010 X78.1101 Y-80.3066
N7020 G03 X78.1743 Y-84.3063 I8.9146 J-1.8574 F1200.0
N7030 X78.2359 Y-84.4531 I0.4860 J0.1176
N7040 G01 X78.2941 Y-84.5465 F1200
N7050 X78.3015 Y-84.5580
N7060 X79.1379 Y-85.8219
N7070 G03 X79.3145 Y-85.9844 I0.4170 J0.2759 F1200.0
N7080 X82.5494 Y-85.9309 I1.5705 J2.8643
N7090 G01 X82.5881 Y-85.9055 F1200
N7100 G03 X82.7159 Y-85.8069 I-1.5837 J2.1848 F1200.0
N7110 G01 X82.8675 Y-85.9821 F1200
N7120 G02 X81.9454 Y-86.4747 I-2.4682 J3.5107 F1200.0
N7130 G01 X79.8688 F1200
N7140 G02 X77.4509 Y-82.9421 I2.0195 J3.9761 F1200.0
N7150 G01 X77.4497 Y-82.9317 F1200
N7160 G02 X77.4058 Y-82.4665 I8.7198 J1.0576 F1200.0
N7170 G00 Z1.0000
N7180 X84.2779 Y-84.1068
N7190 Z0.5000
N7200 G01 Z0.0000 F600
N7210 X84.2623 Y-84.1402 Z-0.0065
N7220 X83.8768 Y-83.6811 Z-0.1122
N7230 X84.0447 Y-82.7225 Z-0.2838
N7240 G03 X84.0522 Y-82.6362 Z-0.2991 I-0.4925 J0.0862 F600.0
N7250 G01 Y-80.7700 Z-0.6282 F600
N7260 G03 X84.0451 Y-80.6862 Z-0.6430 I-0.5000 J0.0000 F600.0
N7270 X82.6655 Y-78.1563 Z-1.1605 I-4.3727 J-0.7435
N7280 X82.6110 Y-78.1131 Z-1.1728 I-0.3374 J-0.3690
N7290 X80.8556 Y-77.6234 Z-1.5000 I-1.5937 J-2.3221
N7300 X80.7200 Y-77.6345 I0.1617 J-2.8118 F1200.0
N7310 X79.5179 Y-77.9043 I0.1810 J-3.6199
N7320 G01 X79.5083 Y-77.9084 F1200
N7330 X79.4933 Y-77.9149
N7340 G03 X79.3012 Y-78.0633 I0.2004 J-0.4581 F1200.0
N7350 G01 X79.2452 Y-78.1343 F1200
N7360 X79.1604 Y-78.0334
N7370 G02 X81.5002 Y-77.5556 I1.8403 J-3.0438 F1200.0
N7380 G01 X81.5339 Y-77.5592 F1200
N7390 G02 X82.9415 Y-77.8874 I-0.3399 J-4.6398 F1200.0
N7400 G01 X84.2845 Y-79.5149 F1200
N7410 G02 X84.2779 Y-84.1068 I-7.5387 J-2.2852 F1200.0
N7420 G01 X84.2623 Y-84.1402 Z-1.5065 F600
N7430 X83.8768 Y-83.6811 Z-1.6122
N7440 X84.0447 Y-82.7225 Z-1.7838
N7450 G03 X84.0522 Y-82.6362 Z-1.7991 I-0.4925 J0.0862 F600.0
N7460 G01 Y-80.7700 Z-2.1282 F600
N7470 G03 X84.0451 Y-80.6862 Z-2.1430 I-0.5000 J0.0000 F600.0
N7480 X82.6655 Y-78.1563 Z-2.6605 I-4.3727 J-0.7435
N7490 X82.6110 Y-78.1131 Z-2.6728 I-0.3374 J-0.3690
N7500 X80.8556 Y-77.6234 Z-3.0000 I-1.5937 J-2.3221
N7510 X80.7200 Y-77.6345 I0.1617 J-2.8118 F1200.0
N7520 X79.5179 Y-77.9043 I0.1810 J-3.6199
N7530 G01 X79.5083 Y-77.9084 F1200
N7540 X79.4933 Y-77.9149
N7550 G03 X79.3012 Y-78.0633 I0.2004 J-0.4581 F1200.0
N7560 G01 X79.2452 Y-78.1343 F1200
N7570 X79.1604 Y-78.0334
N7580 G02 X81.5002 Y-77.5556 I1.8403 J-3.0438 F1200.0
N7590 G01 X81.5339 Y-77.5592 F1200
N7600 G02 X82.9415 Y-77.8874 I-0.3399 J-4.6398 F1200.0
N7610 G01 X84.2845 Y-79.5149 F1200
N7620 G02 X84.2779 Y-84.1068 I-7.5387 J-2.2852 F1200.0
N7630 G01 X84.2623 Y-84.1402 F1200
N7640 X83.8768 Y-83.6811
N7650 X84.0447 Y-82.7225
N7660 G03 X84.0522 Y-82.6362 I-0.4925 J0.0862 F1200.0
N7670 G01 Y-80.7700 F1200
N7680 G03 X84.0451 Y-80.6862 I-0.5000 J0.0000 F1200.0
N7690 X82.6655 Y-78.1563 I-4.3727 J-0.7435
N7700 X82.6110 Y-78.1131 I-0.3374 J-0.3690
N7710 X80.8556 Y-77.6234 I-1.5937 J-2.3221
N7720 G00 Z1.0000
N7730 X97.6482 Y-86.2440
N7740 Z0.5000
N7750 G01 Z0.0000 F600
N7760 X94.5203 Y-78.3330 Z-1.5000
N7770 X94.2919 Y-77.7554 F1200
N7780 X94.4540
N7790 X97.4219 Y-84.9865
N7800 G03 X98.3484 Y-84.9833 I0.4626 J0.1898 F1200.0
N7810 G01 X101.2560 Y-77.7554 F1200
N7820 X101.7248
N7830 X98.4297 Y-86.2444
N7840 X97.6482 Y-86.2440
N7850 X94.5203 Y-78.3330 Z-3.0000 F600
N7860 X94.2919 Y-77.7554 F1200
N7870 X94.4540
N7880 X97.4219 Y-84.9865
N7890 G03 X98.3484 Y-84.9833 I0.4626 J0.1898 F1200.0
N7900 G01 X101.2560 Y-77.7554 F1200
N7910 X101.7248
N7920 X98.4297 Y-86.2444
N7930 X97.6482 Y-86.2440
N7940 X94.5203 Y-78.3330
N7950 G00 Z1.0000
N7960 X117.3011 Y-77.7554
N7970 Z0.5000
N7980 G01 Z0.0000 F600
N7990 X117.7563 Z-0.0803
N8000 Y-85.8071 Z-1.5000
N8010 Y-86.2446 F1200
N8020 X117.3011
N8030 Y-82.4988
N8040 G03 X116.8011 Y-81.9988 I-0.5000 J0.0000 F1200.0
N8050 G01 X112.7835 F1200
N8060 G03 X112.2835 Y-82.4988 I0.0000 J-0.5000 F1200.0
N8070 G01 Y-86.2446 F1200
N8080 X111.8200
N8090 Y-77.7554
N8100 X112.2835
N8110 Y-81.4033
N8120 G03 X112.7835 Y-81.9033 I0.5000 J0.0000 F1200.0
N8130 G01 X116.8011 F1200
N8140 G03 X117.3011 Y-81.4033 I0.0000 J0.5000 F1200.0
N8150 G01 Y-77.7554 F1200
N8160 X117.7563 Z-1.5803 F600
N8170 Y-85.8071 Z-3.0000
N8180 Y-86.2446 F1200
N8190 X117.3011
N8200 Y-82.4988
N8210 G03 X116.8011 Y-81.9988 I-0.5000 J0.0000 F1200.0
N8220 G01 X112.7835 F1200
N8230 G03 X112.2835 Y-82.4988 I0.0000 J-0.5000 F1200.0
N8240 G01 Y-86.2446 F1200
N8250 X111.8200
N8260 Y-77.7554
N8270 X112.2835
N8280 Y-81.4033
N8290 G03 X112.7835 Y-81.9033 I0.5000 J0.0000 F1200.0
N8300 G01 X116.8011 F1200
N8310 G03 X117.3011 Y-81.4033 I0.0000 J0.5000 F1200.0
N8320 G01 Y-77.7554 F1200
N8330 X117.7563
N8340 Y-85.8071
N8350 G00 Z1.0000
N8360 X115.0216 Y-68.6485
N8370 Z0.5000
N8380 G01 Z0.0000 F600
N8390 G03 X115.5216 Y-69.1485 Z-0.1385 I0.5000 J0.0000 F600.0
N8400 G01 X117.5744 Z-0.5005 F600
N8410 Y-69.2454 Z-0.5175
N8420 X112.0050 Z-1.4996
N8430 Y-69.2431 Z-1.5000
N8440 Y-69.1485 F1200
N8450 X114.0575
N8460 G03 X114.5575 Y-68.6485 I0.0000 J0.5000 F1200.0
N8470 G01 Y-61.3501 F1200
N8480 G03 X114.0575 Y-60.8501 I-0.5000 J0.0000 F1200.0
N8490 G01 X112.0050 F1200
N8500 Y-60.7545
N8510 X117.5744
N8520 Y-60.8501
N8530 X115.5216
N8540 G03 X115.0216 Y-61.3501 I0.0000 J-0.5000 F1200.0
N8550 G01 Y-68.6485 F1200
N8560 G03 X115.5216 Y-69.1485 Z-1.6385 I0.5000 J0.0000 F600.0
N8570 G01 X117.5744 Z-2.0005 F600
N8580 Y-69.2454 Z-2.0175
N8590 X112.0050 Z-2.9996
N8600 Y-69.2431 Z-3.0000
N8610 Y-69.1485 F1200
N8620 X114.0575
N8630 G03 X114.5575 Y-68.6485 I0.0000 J0.5000 F1200.0
N8640 G01 Y-61.3501 F1200
N8650 G03 X114.0575 Y-60.8501 I-0.5000 J0.0000 F1200.0
N8660 G01 X112.0050 F1200
N8670 Y-60.7545
N8680 X117.5744
N8690 Y-60.8501
N8700 X115.5216
N8710 G03 X115.0216 Y-61.3501 I0.0000 J-0.5000 F1200.0
N8720 G01 Y-68.6485 F1200
N8730 G03 X115.5216 Y-69.1485 I0.5000 J0.0000 F1200.0
N8740 G01 X117.5744 F1200
N8750 Y-69.2454
N8760 X112.0050
N8770 Y-69.2431
N8780 G00 Z1.0000
N8790 X131.6476 Y-69.2447
N8800 Z0.5000
N8810 G01 Z0.0000 F600
N8820 X128.5230 Y-61.3324 Z-1.5000
N8830 X128.2948 Y-60.7545 F1200
N8840 X128.4531
N8850 X131.4223 Y-67.9864
N8860 G03 X132.3487 Y-67.9831 I0.4625 J0.1899 F1200.0
N8870 G01 X135.2564 Y-60.7545 F1200
N8880 X135.7252
N8890 X132.4304 Y-69.2452
N8900 X131.6476 Y-69.2447
N8910 X128.5230 Y-61.3324 Z-3.0000 F600
N8920 X128.2948 Y-60.7545 F1200
N8930 X128.4531
N8940 X131.4223 Y-67.9864
N8950 G03 X132.3487 Y-67.9831 I0.4625 J0.1899 F1200.0
N8960 G01 X135.2564 Y-60.7545 F1200
N8970 X135.7252
N8980 X132.4304 Y-69.2452
N8990 X131.6476 Y-69.2447
N9000 X128.5230 Y-61.3324
N9010 G00 Z1.0000
N9020 X135.3767 Y-82.5271
N9030 Z0.5000
N9040 G01 Z0.0000 F600
N9050 X135.3738 Y-82.5584 Z-0.0055
N9060 G02 X132.7414 Y-86.1644 Z-0.8369 I-4.1348 J0.2546 F600.0
N9070 X129.0336 Y-86.2385 Z-1.5000 I-1.9787 J6.2058
N9080 X128.6062 Y-86.1049 I1.7290 J6.2799 F1200.0
N9090 G01 Y-85.9625 F1200
N9100 G03 X130.4880 Y-86.2830 I2.1827 J7.1318 F1200.0
N9110 X134.5362 Y-83.6734 I0.1624 J4.1928
N9120 G01 X134.5434 Y-83.6547 F1200
N9130 G03 X134.5788 Y-80.2738 I-4.8211 J1.7410 F1200.0
N9140 X130.9691 Y-77.6218 I-3.6179 J-1.1417
N9150 G01 X130.9542 Y-77.6220 F1200
N9160 G03 X128.7330 Y-78.0412 I0.1975 J-7.1418 F1200.0
N9170 G01 Y-77.8394 F1200
N9180 X129.0511 Y-77.7543
N9190 X129.7200 Y-77.6241
N9200 G02 X133.1393 Y-78.0141 I1.1026 J-5.5173 F1200.0
N9210 X135.3767 Y-82.5271 I-2.2920 J-3.9474
N9220 G01 X135.3738 Y-82.5584 Z-1.5055 F600
N9230 G02 X132.7414 Y-86.1644 Z-2.3369 I-4.1348 J0.2546 F600.0
N9240 X129.0336 Y-86.2385 Z-3.0000 I-1.9787 J6.2058
N9250 X128.6062 Y-86.1049 I1.7290 J6.2799 F1200.0
N9260 G01 Y-85.9625 F1200
N9270 G03 X130.4880 Y-86.2830 I2.1827 J7.1318 F1200.0
N9280 X134.5362 Y-83.6734 I0.1624 J4.1928
N9290 G01 X134.5434 Y-83.6547 F1200
N9300 G03 X134.5788 Y-80.2738 I-4.8211 J1.7410 F1200.0
N9310 X130.9691 Y-77.6218 I-3.6179 J-1.1417
N9320 G01 X130.9542 Y-77.6220 F1200
N9330 G03 X128.7330 Y-78.0412 I0.1975 J-7.1418 F1200.0
N9340 G01 Y-77.8394 F1200
N9350 X129.0511 Y-77.7543
N9360 X129.7200 Y-77.6241
N9370 G02 X133.1393 Y-78.0141 I1.1026 J-5.5173 F1200.0
N9380 X135.3767 Y-82.5271 I-2.2920 J-3.9474
N9390 G01 X135.3738 Y-82.5584 F1200
N9400 G02 X132.7414 Y-86.1644 I-4.1348 J0.2546 F1200.0
N9410 X129.0336 Y-86.2385 I-1.9787 J6.2058
N9420 G00 Z1.0000
N9430 X135.1695 Y-94.7549
N9440 Z0.5000
N9450 G01 Z0.0000 F600
N9460 X132.3532 Y-98.6333 Z-0.8452
N9470 G03 X132.3617 Y-99.2322 Z-0.9584 I0.4046 J-0.2938 F600.0
N9480 G01 X134.2360 Y-101.6657 Z-1.5000 F600
N9490 X135.4526 Y-103.2451 F1200
N9500 X135.2951
N9510 X132.4625 Y-99.5765
N9520 G03 X131.6619 Y-99.5886 I-0.3958 J-0.3056 F1200.0
N9530 G01 X129.0101 Y-103.2451 F1200
N9540 X128.5128
N9550 X131.5858 Y-99.0150
N9560 G03 X131.5768 Y-98.4151 I-0.4045 J0.2939 F1200.0
N9570 G01 X128.7446 Y-94.7549 F1200
N9580 X128.8994
N9590 X131.4713 Y-98.0829
N9600 G03 X132.2714 Y-98.0711 I0.3956 J0.3057 F1200.0
N9610 G01 X134.6810 Y-94.7549 F1200
N9620 X135.1695
N9630 X132.3532 Y-98.6333 Z-2.3452 F600
N9640 G03 X132.3617 Y-99.2322 Z-2.4584 I0.4046 J-0.2938 F600.0
N9650 G01 X134.2360 Y-101.6657 Z-3.0000 F600
N9660 X135.4526 Y-103.2451 F1200
N9670 X135.2951
N9680 X132.4625 Y-99.5765
N9690 G03 X131.6619 Y-99.5886 I-0.3958 J-0.3056 F1200.0
N9700 G01 X129.0101 Y-103.2451 F1200
N9710 X128.5128
N9720 X131.5858 Y-99.0150
N9730 G03 X131.5768 Y-98.4151 I-0.4045 J0.2939 F1200.0
N9740 G01 X128.7446 Y-94.7549 F1200
N9750 X128.8994
N9760 X131.4713 Y-98.0829
N9770 G03 X132.2714 Y-98.0711 I0.3956 J0.3057 F1200.0
N9780 G01 X134.6810 Y-94.7549 F1200
N9790 X135.1695
N9800 X132.3532 Y-98.6333
N9810 G03 X132.3617 Y-99.2322 I0.4046 J-0.2938 F1200.0
N9820 G01 X134.2360 Y-101.6657 F1200
N9830 G00 Z1.0000
N9840 X151.4675 Y-100.9041
N9850 Z0.5000
N9860 G01 Z0.0000 F600
N9870 X151.4691 Y-95.3506 Z-0.9792
N9880 G03 X150.9628 Y-94.8505 Z-1.1189 I-0.5000 J0.0001 F600.0
N9890 G01 X149.5328 Y-94.8684 Z-1.3710 F600
N9900 X149.4973 Y-94.8701 Z-1.3773
N9910 X148.8803 Y-94.9218 Z-1.4865
N9920 X148.8323 Y-94.9281 Z-1.4950
N9930 X148.8045 Y-94.9332 Z-1.5000
N9940 X148.3486 Y-95.0163 F1200
N9950 G03 X148.2733 Y-95.0362 I0.0897 J-0.4919 F1200.0
N9960 G01 X147.9226 Y-95.1589 F1200
N9970 G03 X147.8043 Y-95.2189 I0.1651 J-0.4720 F1200.0
N9980 G01 X147.5528 Y-95.3918 F1200
N9990 G03 X147.4347 Y-95.5056 I0.2833 J-0.4120 F1200.0
N10000 G01 X147.2566 Y-95.7454 F1200
N10010 G03 X147.1870 Y-95.8757 I0.4014 J-0.2982 F1200.0
N10020 G01 X147.0785 Y-96.1803 F1200
N10030 G03 X147.0513 Y-96.3060 I0.4710 J-0.1678 F1200.0
N10040 G01 X147.0199 Y-96.6767 F1200
N10050 G03 X147.0250 Y-96.8014 I0.4982 J-0.0421 F1200.0
N10060 G01 X147.1001 Y-97.2497 F1200
N10070 G03 X147.1553 Y-97.4083 I0.4931 J0.0826 F1200.0
N10080 G01 X147.3551 Y-97.7710 F1200
N10090 G03 X147.4448 Y-97.8886 I0.4380 J0.2412 F1200.0
N10100 G01 X147.5665 Y-98.0067 F1200
N10110 X147.5139 Y-97.9826
N10120 G02 X146.5732 Y-96.0750 I0.7855 J1.5731 F1200.0
N10130 G01 X146.6949 Y-95.7228 F1200
N10140 X146.8816 Y-95.4535
N10150 X147.1497 Y-95.2235
N10160 X147.5252 Y-95.0294
N10170 X148.0194 Y-94.8811
N10180 X148.6354 Y-94.7877
N10190 X149.3785 Y-94.7549
N10200 X151.9285
N10210 X151.9249 Y-100.9041
N10220 X151.4675
N10230 X151.4691 Y-95.3506 Z-2.4792 F600
N10240 G03 X150.9628 Y-94.8505 Z-2.6189 I-0.5000 J0.0001 F600.0
N10250 G01 X149.5328 Y-94.8684 Z-2.8710 F600
N10260 X149.4973 Y-94.8701 Z-2.8773
N10270 X148.8803 Y-94.9218 Z-2.9865
N10280 X148.8323 Y-94.9281 Z-2.9950
N10290 X148.8045 Y-94.9332 Z-3.0000
N10300 X148.3486 Y-95.0163 F1200
N10310 G03 X148.2733 Y-95.0362 I0.0897 J-0.4919 F1200.0
N10320 G01 X147.9226 Y-95.1589 F1200
N10330 G03 X147.8043 Y-95.2189 I0.1651 J-0.4720 F1200.0
N10340 G01 X147.5528 Y-95.3918 F1200
N10350 G03 X147.4347 Y-95.5056 I0.2833 J-0.4120 F1200.0
N10360 G01 X147.2566 Y-95.7454 F1200
N10370 G03 X147.1870 Y-95.8757 I0.4014 J-0.2982 F1200.0
N10380 G01 X147.0785 Y-96.1803 F1200
N10390 G03 X147.0513 Y-96.3060 I0.4710 J-0.1678 F1200.0
N10400 G01 X147.0199 Y-96.6767 F1200
N10410 G03 X147.0250 Y-96.8014 I0.4982 J-0.0421 F1200.0
N10420 G01 X147.1001 Y-97.2497 F1200
N10430 G03 X147.1553 Y-97.4083 I0.4931 J0.0826 F1200.0
N10440 G01 X147.3551 Y-97.7710 F1200
N10450 G03 X147.4448 Y-97.8886 I0.4380 J0.2412 F1200.0
N10460 G01 X147.5665 Y-98.0067 F1200
N10470 X147.5139 Y-97.9826
N10480 G02 X146.5732 Y-96.0750 I0.7855 J1.5731 F1200.0
N10490 G01 X146.6949 Y-95.7228 F1200
N10500 X146.8816 Y-95.4535
N10510 X147.1497 Y-95.2235
N10520 X147.5252 Y-95.0294
N10530 X148.0194 Y-94.8811
N10540 X148.6354 Y-94.7877
N10550 X149.3785 Y-94.7549
N10560 X151.9285
N10570 X151.9249 Y-100.9041
N10580 X151.4675
N10590 X151.4691 Y-95.3506
N10600 G03 X150.9628 Y-94.8505 I-0.5000 J0.0001 F1200.0
N10610 G01 X149.5328 Y-94.8684 F1200
N10620 X149.4973 Y-94.8701
N10630 X148.8803 Y-94.9218
N10640 X148.8323 Y-94.9281
N10650 X148.8045 Y-94.9332
N10660 G00 Z1.0000
N10670 X149.4470 Y-98.8091
N10680 Z0.5000
N10690 G01 Z0.0000 F600
N10700 G03 X148.6668 Y-98.9850 Z-0.1412 I0.6473 J-4.6912 F600.0
N10710 X148.6968 Y-98.6658 Z-0.1987 I-0.4565 J0.2039
N10720 G01 X148.7196 Y-98.6721 Z-0.2029 F600
N10730 X149.1192 Y-98.7734 Z-0.2756
N10740 G03 X149.1974 Y-98.7867 Z-0.2896 I0.1228 J0.4847 F600.0
N10750 G01 X149.4470 Y-98.8091 Z-0.3338 F600
N10760 G03 X148.6668 Y-98.9850 Z-0.4750 I0.6473 J-4.6912 F600.0
N10770 X148.6968 Y-98.6658 Z-0.5325 I-0.4565 J0.2039
N10780 G01 X148.7196 Y-98.6721 Z-0.5367 F600
N10790 X149.1192 Y-98.7734 Z-0.6094
N10800 G03 X149.1974 Y-98.7867 Z-0.6234 I0.1228 J0.4847 F600.0
N10810 G01 X149.4470 Y-98.8091 Z-0.6676 F600
N10820 G03 X148.6668 Y-98.9850 Z-0.8088 I0.6473 J-4.6912 F600.0
N10830 X148.6968 Y-98.6658 Z-0.8663 I-0.4565 J0.2039
N10840 G01 X148.7196 Y-98.6721 Z-0.8705 F600
N10850 X149.1192 Y-98.7734 Z-0.9432
N10860 G03 X149.1974 Y-98.7867 Z-0.9572 I0.1228 J0.4847 F600.0
N10870 G01 X149.4470 Y-98.8091 Z-1.0014 F600
N10880 G03 X148.6668 Y-98.9850 Z-1.1426 I0.6473 J-4.6912 F600.0
N10890 X148.6968 Y-98.6658 Z-1.2001 I-0.4565 J0.2039
N10900 G01 X148.7196 Y-98.6721 Z-1.2043 F600
N10910 X149.1192 Y-98.7734 Z-1.2770
N10920 G03 X149.1974 Y-98.7867 Z-1.2910 I0.1228 J0.4847 F600.0
N10930 G01 X149.4470 Y-98.8091 Z-1.3352 F600
N10940 G03 X148.6668 Y-98.9850 Z-1.4764 I0.6473 J-4.6912 F600.0
N10950 X148.7045 Y-98.8568 Z-1.5000 I-0.4565 J0.2039
N10960 X148.6968 Y-98.6658 I-0.4942 J0.0757 F1200.0
N10970 G01 X148.7196 Y-98.6721 Z-1.5042 F600
N10980 X149.1192 Y-98.7734 Z-1.5769
N10990 G03 X149.1974 Y-98.7867 Z-1.5909 I0.1228 J0.4847 F600.0
N11000 G01 X149.4470 Y-98.8091 Z-1.6351 F600
N11010 G03 X148.6668 Y-98.9850 Z-1.7762 I0.6473 J-4.6912 F600.0
N11020 X148.6968 Y-98.6658 Z-1.8338 I-0.4565 J0.2039
N11030 G01 X148.7196 Y-98.6721 Z-1.8380 F600
N11040 X149.1192 Y-98.7734 Z-1.9107
N11050 G03 X149.1974 Y-98.7867 Z-1.9247 I0.1228 J0.4847 F600.0
N11060 G01 X149.4470 Y-98.8091 Z-1.9688 F600
N11070 G03 X148.6668 Y-98.9850 Z-2.1100 I0.6473 J-4.6912 F600.0
N11080 X148.6968 Y-98.6658 Z-2.1676 I-0.4565 J0.2039
N11090 G01 X148.7196 Y-98.6721 Z-2.1718 F600
N11100 X149.1192 Y-98.7734 Z-2.2445
N11110 G03 X149.1974 Y-98.7867 Z-2.2585 I0.1228 J0.4847 F600.0
N11120 G01 X149.4470 Y-98.8091 Z-2.3026 F600
N11130 G03 X148.6668 Y-98.9850 Z-2.4438 I0.6473 J-4.6912 F600.0
N11140 X148.6968 Y-98.6658 Z-2.5014 I-0.4565 J0.2039
N11150 G01 X148.7196 Y-98.6721 Z-2.5056 F600
N11160 X149.1192 Y-98.7734 Z-2.5782
N11170 G03 X149.1974 Y-98.7867 Z-2.5922 I0.1228 J0.4847 F600.0
N11180 G01 X149.4470 Y-98.8091 Z-2.6364 F600
N11190 G03 X148.6668 Y-98.9850 Z-2.7776 I0.6473 J-4.6912 F600.0
N11200 X148.6968 Y-98.6658 Z-2.8352 I-0.4565 J0.2039
N11210 G01 X148.7196 Y-98.6721 Z-2.8393 F600
N11220 X149.1192 Y-98.7734 Z-2.9120
N11230 G03 X149.1974 Y-98.7867 Z-2.9260 I0.1228 J0.4847 F600.0
N11240 G01 X149.4470 Y-98.8091 Z-2.9702 F600
N11250 G03 X149.2802 Y-98.8352 Z-3.0000 I0.6473 J-4.6912 F600.0
N11260 X148.6668 Y-98.9850 I0.8141 J-4.6651 F1200.0
N11270 X148.6968 Y-98.6658 I-0.4565 J0.2039
N11280 G01 X148.7196 Y-98.6721 F1200
N11290 X149.1192 Y-98.7734
N11300 G03 X149.1974 Y-98.7867 I0.1228 J0.4847 F1200.0
N11310 G01 X149.4470 Y-98.8091 F1200
N11320 G03 X149.2802 Y-98.8352 I0.6473 J-4.6912 F1200.0
N11330 G00 Z1.0000
N11340 X150.9674 Y-103.1502
N11350 Z0.5000
N11360 G01 Z0.0000 F600
N11370 X151.9265 Z-0.1691
N11380 X151.9269 Y-103.2451 Z-0.1859
N11390 X149.5742 Z-0.6007
N11400 X148.3491 Y-103.2112 Z-0.8168
N11410 X148.3005 Y-103.2122 Z-0.8254
N11420 G02 X146.2302 Y-102.0950 Z-1.2631 I-0.1531 J2.1929 F600.0
N11430 G01 X146.1051 Y-101.6929 Z-1.3373 F600
N11440 G02 X146.1456 Y-100.7811 Z-1.5000 I1.7724 J0.3781 F600.0
N11450 X146.8602 Y-99.8150 I1.7319 J-0.5338 F1200.0
N11460 G01 X147.2658 Y-99.5958 F1200
N11470 X147.6241 Y-99.4603
N11480 G03 X146.6261 Y-101.2587 I1.1788 J-1.8302 F1200.0
N11490 X146.6284 Y-101.3140 I0.4999 J-0.0073
N11500 G01 X146.6635 Y-101.6782 F1200
N11510 G03 X146.6857 Y-101.7847 I0.4977 J0.0480 F1200.0
N11520 G01 X146.7842 Y-102.0879 F1200
N11530 G03 X146.8523 Y-102.2231 I0.4755 J0.1545 F1200.0
N11540 G01 X147.0245 Y-102.4653 F1200
N11550 G03 X147.1307 Y-102.5745 I0.4075 J0.2898 F1200.0
N11560 G01 X147.3670 Y-102.7530 F1200
N11570 G03 X147.4846 Y-102.8190 I0.3013 J0.3990 F1200.0
N11580 G01 X147.8115 Y-102.9482 F1200
N11590 G03 X147.8933 Y-102.9726 I0.1838 J0.4650 F1200.0
N11600 G01 X148.3363 Y-103.0650 F1200
N11610 G03 X148.3888 Y-103.0730 I0.1020 J0.4895 F1200.0
N11620 G01 X148.9390 Y-103.1278 F1200
N11630 X148.9735 Y-103.1300
N11640 X149.6405 Y-103.1500
N11650 X149.6555 Y-103.1502
N11660 X150.9674
N11670 X151.9265 Z-1.6691 F600
N11680 X151.9269 Y-103.2451 Z-1.6859
N11690 X149.5742 Z-2.1007
N11700 X148.3491 Y-103.2112 Z-2.3168
N11710 X148.3005 Y-103.2122 Z-2.3254
N11720 G02 X146.2302 Y-102.0950 Z-2.7631 I-0.1531 J2.1929 F600.0
N11730 G01 X146.1051 Y-101.6929 Z-2.8373 F600
N11740 G02 X146.1456 Y-100.7811 Z-3.0000 I1.7724 J0.3781 F600.0
N11750 X146.8602 Y-99.8150 I1.7319 J-0.5338 F1200.0
N11760 G01 X147.2658 Y-99.5958 F1200
N11770 X147.6241 Y-99.4603
N11780 G03 X146.6261 Y-101.2587 I1.1788 J-1.8302 F1200.0
N11790 X146.6284 Y-101.3140 I0.4999 J-0.0073
N11800 G01 X146.6635 Y-101.6782 F1200
N11810 G03 X146.6857 Y-101.7847 I0.4977 J0.0480 F1200.0
N11820 G01 X146.7842 Y-102.0879 F1200
N11830 G03 X146.8523 Y-102.2231 I0.4755 J0.1545 F1200.0
N11840 G01 X147.0245 Y-102.4653 F1200
N11850 G03 X147.1307 Y-102.5745 I0.4075 J0.2898 F1200.0
N11860 G01 X147.3670 Y-102.7530 F1200
N11870 G03 X147.4846 Y-102.8190 I0.3013 J0.3990 F1200.0
N11880 G01 X147.8115 Y-102.9482 F1200
N11890 G03 X147.8933 Y-102.9726 I0.1838 J0.4650 F1200.0
N11900 G01 X148.3363 Y-103.0650 F1200
N11910 G03 X148.3888 Y-103.0730 I0.1020 J0.4895 F1200.0
N11920 G01 X148.9390 Y-103.1278 F1200
N11930 X148.9735 Y-103.1300
N11940 X149.6405 Y-103.1500
N11950 X149.6555 Y-103.1502
N11960 X150.9674
N11970 X151.9265
N11980 X151.9269 Y-103.2451
N11990 X149.5742
N12000 X148.3491 Y-103.2112
N12010 X148.3005 Y-103.2122
N12020 G02 X146.2302 Y-102.0950 I-0.1531 J2.1929 F1200.0
N12030 G01 X146.1051 Y-101.6929 F1200
N12040 G02 X146.1456 Y-100.7811 I1.7724 J0.3781 F1200.0
N12050 G00 Z1.0000
N12060 X163.4663 Y-111.7551
N12070 Z0.5000
N12080 G01 Z0.0000 F600
N12090 X168.8783 Z-0.9543
N12100 Y-114.8500 Z-1.5000
N12110 Y-120.2451 F1200
N12120 X163.1269
N12130 Y-120.1509
N12140 X167.9207
N12150 G03 X168.4207 Y-119.6509 I0.0000 J0.5000 F1200.0
N12160 G01 Y-116.3219 F1200
N12170 G03 X167.9207 Y-115.8219 I-0.5000 J0.0000 F1200.0
N12180 G01 X164.2211 F1200
N12190 Y-115.7281
N12200 X167.9207
N12210 G03 X168.4207 Y-115.2281 I0.0000 J0.5000 F1200.0
N12220 G01 Y-112.3523 F1200
N12230 G03 X167.9207 Y-111.8523 I-0.5000 J0.0000 F1200.0
N12240 G01 X163.4663 F1200
N12250 Y-111.7551
N12260 X168.8783 Z-2.4543 F600
N12270 Y-114.8500 Z-3.0000
N12280 Y-120.2451 F1200
N12290 X163.1269
N12300 Y-120.1509
N12310 X167.9207
N12320 G03 X168.4207 Y-119.6509 I0.0000 J0.5000 F1200.0
N12330 G01 Y-116.3219 F1200
N12340 G03 X167.9207 Y-115.8219 I-0.5000 J0.0000 F1200.0
N12350 G01 X164.2211 F1200
N12360 Y-115.7281
N12370 X167.9207
N12380 G03 X168.4207 Y-115.2281 I0.0000 J0.5000 F1200.0
N12390 G01 Y-112.3523 F1200
N12400 G03 X167.9207 Y-111.8523 I-0.5000 J0.0000 F1200.0
N12410 G01 X163.4663 F1200
N12420 Y-111.7551
N12430 X168.8783
N12440 Y-114.8500
N12450 G00 Z1.0000
N12460 X149.2319 Y-119.6509
N12470 Z0.5000
N12480 G01 Z0.0000 F600
N12490 G03 X149.7319 Y-120.1509 Z-0.1385 I0.5000 J0.0000 F600.0
N12500 G01 X151.7851 Z-0.5005 F600
N12510 Y-120.2451 Z-0.5171
N12520 X146.2160 Z-1.4991
N12530 Y-120.2400 Z-1.5000
N12540 Y-120.1509 F1200
N12550 X148.2705
N12560 G03 X148.7705 Y-119.6509 I0.0000 J0.5000 F1200.0
N12570 G01 Y-112.3523 F1200
N12580 G03 X148.2705 Y-111.8523 I-0.5000 J0.0000 F1200.0
N12590 G01 X146.2160 F1200
N12600 Y-111.7551
N12610 X151.7851
N12620 Y-111.8523
N12630 X149.7319
N12640 G03 X149.2319 Y-112.3523 I0.0000 J-0.5000 F1200.0
N12650 G01 Y-119.6509 F1200
N12660 G03 X149.7319 Y-120.1509 Z-1.6385 I0.5000 J0.0000 F600.0
N12670 G01 X151.7851 Z-2.0005 F600
N12680 Y-120.2451 Z-2.0171
N12690 X146.2160 Z-2.9991
N12700 Y-120.2400 Z-3.0000
N12710 Y-120.1509 F1200
N12720 X148.2705
N12730 G03 X148.7705 Y-119.6509 I0.0000 J0.5000 F1200.0
N12740 G01 Y-112.3523 F1200
N12750 G03 X148.2705 Y-111.8523 I-0.5000 J0.0000 F1200.0
N12760 G01 X146.2160 F1200
N12770 Y-111.7551
N12780 X151.7851
N12790 Y-111.8523
N12800 X149.7319
N12810 G03 X149.2319 Y-112.3523 I0.0000 J-0.5000 F1200.0
N12820 G01 Y-119.6509 F1200
N12830 G03 X149.7319 Y-120.1509 I0.5000 J0.0000 F1200.0
N12840 G01 X151.7851 F1200
N12850 Y-120.2451
N12860 X146.2160
N12870 Y-120.2400
N12880 G00 Z1.0000
N12890 X146.4651 Y-128.7537
N12900 Z0.5000
N12910 G01 Z0.0000 F600
N12920 X151.8778 Z-0.9544
N12930 Y-131.8479 Z-1.5000
N12940 Y-137.2466 F1200
N12950 X146.1254
N12960 Y-137.1494
N12970 X150.9195
N12980 G03 X151.4195 Y-136.6494 I0.0000 J0.5000 F1200.0
N12990 G01 Y-133.3235 F1200
N13000 G03 X150.9195 Y-132.8235 I-0.5000 J0.0000 F1200.0
N13010 G01 X147.2202 F1200
N13020 Y-132.7266
N13030 X150.9195
N13040 G03 X151.4195 Y-132.2266 I0.0000 J0.5000 F1200.0
N13050 G01 Y-129.3509 F1200
N13060 G03 X150.9195 Y-128.8509 I-0.5000 J0.0000 F1200.0
N13070 G01 X146.4651 F1200
N13080 Y-128.7537
N13090 X151.8778 Z-2.4544 F600
N13100 Y-131.8479 Z-3.0000
N13110 Y-137.2466 F1200
N13120 X146.1254
N13130 Y-137.1494
N13140 X150.9195
N13150 G03 X151.4195 Y-136.6494 I0.0000 J0.5000 F1200.0
N13160 G01 Y-133.3235 F1200
N13170 G03 X150.9195 Y-132.8235 I-0.5000 J0.0000 F1200.0
N13180 G01 X147.2202 F1200
N13190 Y-132.7266
N13200 X150.9195
N13210 G03 X151.4195 Y-132.2266 I0.0000 J0.5000 F1200.0
N13220 G01 Y-129.3509 F1200
N13230 G03 X150.9195 Y-128.8509 I-0.5000 J0.0000 F1200.0
N13240 G01 X146.4651 F1200
N13250 Y-128.7537
N13260 X151.8778
N13270 Y-131.8479
N13280 G00 Z1.0000
N13290 X132.2316 Y-136.6494
N13300 Z0.5000
N13310 G01 Z0.0000 F600
N13320 G03 X132.7316 Y-137.1494 Z-0.1385 I0.5000 J0.0000 F600.0
N13330 G01 X134.7865 Z-0.5008 F600
N13340 Y-137.2466 Z-0.5180
N13350 X129.2171 Z-1.5000
N13360 X129.2146 F1200
N13370 Y-137.1494
N13380 X131.2692
N13390 G03 X131.7692 Y-136.6494 I0.0000 J0.5000 F1200.0
N13400 G01 Y-129.3509 F1200
N13410 G03 X131.2692 Y-128.8509 I-0.5000 J0.0000 F1200.0
N13420 G01 X129.2146 F1200
N13430 Y-128.7537
N13440 X134.7865
N13450 Y-128.8509
N13460 X132.7316
N13470 G03 X132.2316 Y-129.3509 I0.0000 J-0.5000 F1200.0
N13480 G01 Y-136.6494 F1200
N13490 G03 X132.7316 Y-137.1494 Z-1.6385 I0.5000 J0.0000 F600.0
N13500 G01 X134.7865 Z-2.0008 F600
N13510 Y-137.2466 Z-2.0180
N13520 X129.2171 Z-3.0000
N13530 X129.2146 F1200
N13540 Y-137.1494
N13550 X131.2692
N13560 G03 X131.7692 Y-136.6494 I0.0000 J0.5000 F1200.0
N13570 G01 Y-129.3509 F1200
N13580 G03 X131.2692 Y-128.8509 I-0.5000 J0.0000 F1200.0
N13590 G01 X129.2146 F1200
N13600 Y-128.7537
N13610 X134.7865
N13620 Y-128.8509
N13630 X132.7316
N13640 G03 X132.2316 Y-129.3509 I0.0000 J-0.5000 F1200.0
N13650 G01 Y-136.6494 F1200
N13660 G03 X132.7316 Y-137.1494 I0.5000 J0.0000 F1200.0
N13670 G01 X134.7865 F1200
N13680 Y-137.2466
N13690 X129.2171
N13700 G00 Z1.0000
N13710 X129.4640 Y-145.7542
N13720 Z0.5000
N13730 G01 Z0.0000 F600
N13740 X134.8767 Z-0.9544
N13750 Y-148.8484 Z-1.5000
N13760 Y-154.2461 F1200
N13770 X129.1244
N13780 Y-154.1492
N13790 X133.9209
N13800 G03 X134.4209 Y-153.6492 I0.0000 J0.5000 F1200.0
N13810 G01 Y-150.3233 F1200
N13820 G03 X133.9209 Y-149.8233 I-0.5000 J0.0000 F1200.0
N13830 G01 X130.2185 F1200
N13840 Y-149.7271
N13850 X133.9209
N13860 G03 X134.4209 Y-149.2271 I0.0000 J0.5000 F1200.0
N13870 G01 Y-146.3504 F1200
N13880 G03 X133.9209 Y-145.8504 I-0.5000 J0.0000 F1200.0
N13890 G01 X129.4640 F1200
N13900 Y-145.7542
N13910 X134.8767 Z-2.4544 F600
N13920 Y-148.8484 Z-3.0000
N13930 Y-154.2461 F1200
N13940 X129.1244
N13950 Y-154.1492
N13960 X133.9209
N13970 G03 X134.4209 Y-153.6492 I0.0000 J0.5000 F1200.0
N13980 G01 Y-150.3233 F1200
N13990 G03 X133.9209 Y-149.8233 I-0.5000 J0.0000 F1200.0
N14000 G01 X130.2185 F1200
N14010 Y-149.7271
N14020 X133.9209
N14030 G03 X134.4209 Y-149.2271 I0.0000 J0.5000 F1200.0
N14040 G01 Y-146.3504 F1200
N14050 G03 X133.9209 Y-145.8504 I-0.5000 J0.0000 F1200.0
N14060 G01 X129.4640 F1200
N14070 Y-145.7542
N14080 X134.8767
N14090 Y-148.8484
N14100 G00 Z1.0000
N14110 X117.2662 Y-150.9232
N14120 Z0.5000
N14130 G01 Z0.0000 F600
N14140 X117.2667 Y-150.9014 Z-0.0038
N14150 Y-145.6398 Z-0.9316
N14160 X117.7219 Z-1.0119
N14170 Y-148.4081 Z-1.5000
N14180 Y-150.8662 F1200
N14190 X117.6732 Y-151.7664
N14200 X117.5214 Y-152.5329
N14210 G02 X115.5150 Y-154.2997 I-2.2987 J0.5878 F1200.0
N14220 G01 X114.7257 Y-154.3592 F1200
N14230 X114.2712 Y-154.3358
N14240 G02 X112.2329 Y-152.9969 I0.2376 J2.5827 F1200.0
N14250 G01 X112.0753 Y-152.6084 F1200
N14260 X111.9579 Y-152.0980
N14270 X111.8835 Y-151.4439
N14280 X111.8582 Y-150.6437
N14290 Y-145.6398
N14300 X112.1312
N14310 Y-150.8652
N14320 X112.1316 Y-150.8861
N14330 X112.1616 Y-151.6034
N14340 G03 X112.1668 Y-151.6575 I0.4996 J0.0209 F1200.0
N14350 G01 X112.2595 Y-152.2683 F1200
N14360 G03 X112.2762 Y-152.3412 I0.4943 J0.0750 F1200.0
N14370 G01 X112.4316 Y-152.8428 F1200
N14380 X112.4439 Y-152.8779
N14390 G03 X114.1571 Y-154.2186 I1.9951 J0.7844 F1200.0
N14400 G01 X114.1845 Y-154.2214 F1200
N14410 X114.7089 Y-154.2618
N14420 G03 X114.7878 Y-154.2616 I0.0383 J0.4985 F1200.0
N14430 G01 X115.2825 Y-154.2213 F1200
N14440 X115.3184 Y-154.2170
N14450 G03 X116.9669 Y-152.8701 I-0.3215 J2.0757 F1200.0
N14460 G01 X116.9764 Y-152.8419 F1200
N14470 X117.1266 Y-152.3472
N14480 G03 X117.1429 Y-152.2746 I-0.4784 J0.1453 F1200.0
N14490 G01 X117.2307 Y-151.6765 F1200
N14500 G03 X117.2356 Y-151.6256 I-0.4947 J0.0727 F1200.0
N14510 G01 X117.2662 Y-150.9232 F1200
N14520 X117.2667 Y-150.9014 Z-1.5038 F600
N14530 Y-145.6398 Z-2.4316
N14540 X117.7219 Z-2.5119
N14550 Y-148.4081 Z-3.0000
N14560 Y-150.8662 F1200
N14570 X117.6732 Y-151.7664
N14580 X117.5214 Y-152.5329
N14590 G02 X115.5150 Y-154.2997 I-2.2987 J0.5878 F1200.0
N14600 G01 X114.7257 Y-154.3592 F1200
N14610 X114.2712 Y-154.3358
N14620 G02 X112.2329 Y-152.9969 I0.2376 J2.5827 F1200.0
N14630 G01 X112.0753 Y-152.6084 F1200
N14640 X111.9579 Y-152.0980
N14650 X111.8835 Y-151.4439
N14660 X111.8582 Y-150.6437
N14670 Y-145.6398
N14680 X112.1312
N14690 Y-150.8652
N14700 X112.1316 Y-150.8861
N14710 X112.1616 Y-151.6034
N14720 G03 X112.1668 Y-151.6575 I0.4996 J0.0209 F1200.0
N14730 G01 X112.2595 Y-152.2683 F1200
N14740 G03 X112.2762 Y-152.3412 I0.4943 J0.0750 F1200.0
N14750 G01 X112.4316 Y-152.8428 F1200
N14760 X112.4439 Y-152.8779
N14770 G03 X114.1571 Y-154.2186 I1.9951 J0.7844 F1200.0
N14780 G01 X114.1845 Y-154.2214 F1200
N14790 X114.7089 Y-154.2618
N14800 G03 X114.7878 Y-154.2616 I0.0383 J0.4985 F1200.0
N14810 G01 X115.2825 Y-154.2213 F1200
N14820 X115.3184 Y-154.2170
N14830 G03 X116.9669 Y-152.8701 I-0.3215 J2.0757 F1200.0
N14840 G01 X116.9764 Y-152.8419 F1200
N14850 X117.1266 Y-152.3472
N14860 G03 X117.1429 Y-152.2746 I-0.4784 J0.1453 F1200.0
N14870 G01 X117.2307 Y-151.6765 F1200
N14880 G03 X117.2356 Y-151.6256 I-0.4947 J0.0727 F1200.0
N14890 G01 X117.2662 Y-150.9232 F1200
N14900 X117.2667 Y-150.9014
N14910 Y-145.6398
N14920 X117.7219
N14930 Y-148.4081
N14940 G00 Z1.0000
N14950 X111.4600 Y-171.1480
N14960 Z0.5000
N14970 G01 Z0.0000 F600
N14980 X116.9665 Z-0.9709
N14990 G03 X117.3541 Y-170.3321 Z-1.1697 I0.0000 J0.5000 F600.0
N15000 G01 X116.1709 Y-168.8801 Z-1.5000 F600
N15010 X111.5206 Y-163.1734 F1200
N15020 X111.5198 Y-162.7561
N15030 X117.7585 Y-162.7555
N15040 X117.7584 Y-162.8493
N15050 X112.6660 Y-162.8497
N15060 G03 X112.2787 Y-163.6659 I0.0000 J-0.5000 F1200.0
N15070 G01 X118.1222 Y-170.8261 F1200
N15080 Y-171.2452
N15090 X111.4600 Y-171.2441
N15100 Y-171.1480
N15110 X116.9665 Z-2.4709 F600
N15120 G03 X117.3541 Y-170.3321 Z-2.6697 I0.0000 J0.5000 F600.0
N15130 G01 X116.1709 Y-168.8801 Z-3.0000 F600
N15140 X111.5206 Y-163.1734 F1200
N15150 X111.5198 Y-162.7561
N15160 X117.7585 Y-162.7555
N15170 X117.7584 Y-162.8493
N15180 X112.6660 Y-162.8497
N15190 G03 X112.2787 Y-163.6659 I0.0000 J-0.5000 F1200.0
N15200 G01 X118.1222 Y-170.8261 F1200
N15210 Y-171.2452
N15220 X111.4600 Y-171.2441
N15230 Y-171.1480
N15240 X116.9665
N15250 G03 X117.3541 Y-170.3321 I0.0000 J0.5000 F1200.0
N15260 G01 X116.1709 Y-168.8801 F1200
N15270 G00 Z1.0000
N15280 X111.9902 Y-184.9271
N15290 Z0.5000
N15300 G01 Z0.0000 F600
N15310 G02 X113.3051 Y-184.1053 Z-0.2765 I2.1987 J-2.0553 F600.0
N15320 G01 X113.3221 Y-184.0998 Z-0.2797 F600
N15330 X115.1387 Y-183.4700 Z-0.6187
N15340 X115.1637 Y-183.4606 Z-0.6234
N15350 X116.0070 Y-183.1168 Z-0.7840
N15360 G03 X116.0861 Y-183.0760 Z-0.7997 I-0.1888 J0.4630 F600.0
N15370 G01 X116.6129 Y-182.7418 Z-0.9097 F600
N15380 G03 X116.7489 Y-182.6144 Z-0.9428 I-0.2678 J0.4222 F600.0
N15390 G01 X117.0262 Y-182.2344 Z-1.0257 F600
N15400 G03 X117.1133 Y-182.0344 Z-1.0645 I-0.4039 J0.2948 F600.0
N15410 G01 X117.2077 Y-181.5456 Z-1.1523 F600
N15420 G03 X117.2058 Y-181.3466 Z-1.1876 I-0.4909 J0.0948 F600.0
N15430 G01 X117.0817 Y-180.7644 Z-1.2926 F600
N15440 G03 X116.9660 Y-180.5359 Z-1.3382 I-0.4890 J-0.1042 F600.0
N15450 G01 X116.5960 Y-180.1207 Z-1.4363 F600
N15460 G03 X116.4096 Y-179.9897 Z-1.4768 I-0.3733 J-0.3327 F600.0
N15470 G01 X116.2876 Y-179.9405 Z-1.5000 F600
N15480 X115.7898 Y-179.7399 F1200
N15490 G03 X115.6513 Y-179.7060 I-0.1869 J-0.4638 F1200.0
N15500 G01 X114.7870 Y-179.6219 F1200
N15510 G03 X114.7207 Y-179.6199 I-0.0484 J-0.4977 F1200.0
N15520 X112.3836 Y-180.0266 I0.3118 J-8.7096
N15530 G01 Y-179.8540 F1200
N15540 G02 X115.4381 Y-179.5653 I2.3990 J-9.0814 F1200.0
N15550 G01 X116.0219 Y-179.6810 F1200
N15560 X116.5253 Y-179.8766
N15570 G02 X117.5767 Y-181.6899 I-0.8901 J-1.7276 F1200.0
N15580 G01 X117.5766 Y-181.7316 F1200
N15590 G02 X116.8997 Y-183.0905 I-1.5774 J-0.0623 F1200.0
N15600 G01 X116.4794 Y-183.3503 F1200
N15610 X115.9555 Y-183.6065
N15620 X115.3075 Y-183.8699
N15630 X114.3426 Y-184.2194
N15640 X114.3222 Y-184.2273
N15650 X113.3328 Y-184.6355
N15660 G03 X113.2687 Y-184.6675 I0.1907 J-0.4622 F1200.0
N15670 G01 X112.6834 Y-185.0141 F1200
N15680 G03 X112.5401 Y-185.1417 I0.2547 J-0.4302 F1200.0
N15690 G01 X112.2549 Y-185.5169 F1200
N15700 G03 X112.1619 Y-185.7252 I0.3980 J-0.3026 F1200.0
N15710 G01 X112.0675 Y-186.2168 F1200
N15720 G03 X112.0619 Y-186.3696 I0.4910 J-0.0943 F1200.0
N15730 G01 X112.1022 Y-186.7117 F1200
N15740 G03 X112.1346 Y-186.8389 I0.4966 J0.0585 F1200.0
N15750 G01 X112.2558 Y-187.1421 F1200
N15760 G03 X112.3201 Y-187.2565 I0.4642 J0.1857 F1200.0
N15770 G01 X112.5200 Y-187.5228 F1200
N15780 G03 X112.6006 Y-187.6075 I0.3999 J0.3001 F1200.0
N15790 G01 X112.8818 Y-187.8407 F1200
N15800 G03 X112.9680 Y-187.8983 I0.3193 J0.3848 F1200.0
N15810 G01 X113.3174 Y-188.0823 F1200
N15820 G03 X113.3838 Y-188.1113 I0.2330 J0.4424 F1200.0
N15830 X116.5248 Y-188.1362 I1.6066 J4.5466
N15840 G01 X117.3673 Y-187.8646 F1200
N15850 X117.4047 Y-187.8509
N15860 X117.6430 Y-187.7525
N15870 Y-188.0567
N15880 X117.0916 Y-188.1931
N15890 G02 X114.2007 Y-188.4297 I-2.1550 J8.5479 F1200.0
N15900 G01 X113.5163 Y-188.2947 F1200
N15910 X112.9382 Y-188.0795
N15920 X112.4475 Y-187.7839
N15930 X112.0684 Y-187.4326
N15940 X111.8060 Y-187.0403
N15950 X111.6371 Y-186.5620
N15960 G02 X111.9902 Y-184.9271 I1.8604 J0.4537 F1200.0
N15970 G01 F1200
N15980 G02 X113.3051 Y-184.1053 Z-1.7765 I2.1987 J-2.0553 F600.0
N15990 G01 X113.3221 Y-184.0998 Z-1.7797 F600
N16000 X115.1387 Y-183.4700 Z-2.1187
N16010 X115.1637 Y-183.4606 Z-2.1234
N16020 X116.0070 Y-183.1168 Z-2.2840
N16030 G03 X116.0861 Y-183.0760 Z-2.2997 I-0.1888 J0.4630 F600.0
N16040 G01 X116.6129 Y-182.7418 Z-2.4097 F600
N16050 G03 X116.7489 Y-182.6144 Z-2.4428 I-0.2678 J0.4222 F600.0
N16060 G01 X117.0262 Y-182.2344 Z-2.5257 F600
N16070 G03 X117.1133 Y-182.0344 Z-2.5645 I-0.4039 J0.2948 F600.0
N16080 G01 X117.2077 Y-181.5456 Z-2.6523 F600
N16090 G03 X117.2058 Y-181.3466 Z-2.6876 I-0.4909 J0.0948 F600.0
N16100 G01 X117.0817 Y-180.7644 Z-2.7926 F600
N16110 G03 X116.9660 Y-180.5359 Z-2.8382 I-0.4890 J-0.1042 F600.0
N16120 G01 X116.5960 Y-180.1207 Z-2.9363 F600
N16130 G03 X116.4096 Y-179.9897 Z-2.9768 I-0.3733 J-0.3327 F600.0
N16140 G01 X116.2876 Y-179.9405 Z-3.0000 F600
N16150 X115.7898 Y-179.7399 F1200
N16160 G03 X115.6513 Y-179.7060 I-0.1869 J-0.4638 F1200.0
N16170 G01 X114.7870 Y-179.6219 F1200
N16180 G03 X114.7207 Y-179.6199 I-0.0484 J-0.4977 F1200.0
N16190 X112.3836 Y-180.0266 I0.3118 J-8.7096
N16200 G01 Y-179.8540 F1200
N16210 G02 X115.4381 Y-179.5653 I2.3990 J-9.0814 F1200.0
N16220 G01 X116.0219 Y-179.6810 F1200
N16230 X116.5253 Y-179.8766
N16240 G02 X117.5767 Y-181.6899 I-0.8901 J-1.7276 F1200.0
N16250 G01 X117.5766 Y-181.7316 F1200
N16260 G02 X116.8997 Y-183.0905 I-1.5774 J-0.0623 F1200.0
N16270 G01 X116.4794 Y-183.3503 F1200
N16280 X115.9555 Y-183.6065
N16290 X115.3075 Y-183.8699
N16300 X114.3426 Y-184.2194
N16310 X114.3222 Y-184.2273
N16320 X113.3328 Y-184.6355
N16330 G03 X113.2687 Y-184.6675 I0.1907 J-0.4622 F1200.0
N16340 G01 X112.6834 Y-185.0141 F1200
N16350 G03 X112.5401 Y-185.1417 I0.2547 J-0.4302 F1200.0
N16360 G01 X112.2549 Y-185.5169 F1200
N16370 G03 X112.1619 Y-185.7252 I0.3980 J-0.3026 F1200.0
N16380 G01 X112.0675 Y-186.2168 F1200
N16390 G03 X112.0619 Y-186.3696 I0.4910 J-0.0943 F1200.0
N16400 G01 X112.1022 Y-186.7117 F1200
N16410 G03 X112.1346 Y-186.8389 I0.4966 J0.0585 F1200.0
N16420 G01 X112.2558 Y-187.1421 F1200
N16430 G03 X112.3201 Y-187.2565 I0.4642 J0.1857 F1200.0
N16440 G01 X112.5200 Y-187.5228 F1200
N16450 G03 X112.6006 Y-187.6075 I0.3999 J0.3001 F1200.0
N16460 G01 X112.8818 Y-187.8407 F1200
N16470 G03 X112.9680 Y-187.8983 I0.3193 J0.3848 F1200.0
N16480 G01 X113.3174 Y-188.0823 F1200
N16490 G03 X113.3838 Y-188.1113 I0.2330 J0.4424 F1200.0
N16500 X116.5248 Y-188.1362 I1.6066 J4.5466
N16510 G01 X117.3673 Y-187.8646 F1200
N16520 X117.4047 Y-187.8509
N16530 X117.6430 Y-187.7525
N16540 Y-188.0567
N16550 X117.0916 Y-188.1931
N16560 G02 X114.2007 Y-188.4297 I-2.1550 J8.5479 F1200.0
N16570 G01 X113.5163 Y-188.2947 F1200
N16580 X112.9382 Y-188.0795
N16590 X112.4475 Y-187.7839
N16600 X112.0684 Y-187.4326
N16610 X111.8060 Y-187.0403
N16620 X111.6371 Y-186.5620
N16630 G02 X111.9902 Y-184.9271 I1.8604 J0.4537 F1200.0
N16640 X113.3051 Y-184.1053 I2.1987 J-2.0553
N16650 G01 X113.3221 Y-184.0998 F1200
N16660 X115.1387 Y-183.4700
N16670 X115.1637 Y-183.4606
N16680 X116.0070 Y-183.1168
N16690 G03 X116.0861 Y-183.0760 I-0.1888 J0.4630 F1200.0
N16700 G01 X116.6129 Y-182.7418 F1200
N16710 G03 X116.7489 Y-182.6144 I-0.2678 J0.4222 F1200.0
N16720 G01 X117.0262 Y-182.2344 F1200
N16730 G03 X117.1133 Y-182.0344 I-0.4039 J0.2948 F1200.0
N16740 G01 X117.2077 Y-181.5456 F1200
N16750 G03 X117.2058 Y-181.3466 I-0.4909 J0.0948 F1200.0
N16760 G01 X117.0817 Y-180.7644 F1200
N16770 G03 X116.9660 Y-180.5359 I-0.4890 J-0.1042 F1200.0
N16780 G01 X116.5960 Y-180.1207 F1200
N16790 G03 X116.4096 Y-179.9897 I-0.3733 J-0.3327 F1200.0
N16800 G01 X116.2876 Y-179.9405 F1200
N16810 G00 Z1.0000
N16820 X112.2246 Y-196.7402
N16830 Z0.5000
N16840 G01 Z0.0000 F600
N16850 Y-203.1435 Z-1.1291
N16860 G03 X113.1471 Y-203.4109 Z-1.3563 I0.5000 J0.0000 F600.0
N16870 G01 X113.5829 Y-202.7222 Z-1.5000 F600
N16880 X117.3687 Y-196.7402 F1200
N16890 X117.9701
N16900 Y-205.2597
N16910 X117.7850
N16920 Y-198.8061
N16930 G03 X117.2850 Y-198.3061 I-0.5000 J0.0000 F1200.0
N16940 G01 X117.2609 F1200
N16950 G03 X116.8380 Y-198.5394 I0.0000 J-0.5000 F1200.0
N16960 G01 X112.5997 Y-205.2597 F1200
N16970 X112.0305
N16980 Y-196.7402
N16990 X112.2246
N17000 Y-203.1435 Z-2.6291 F600
N17010 G03 X113.1471 Y-203.4109 Z-2.8563 I0.5000 J0.0000 F600.0
N17020 G01 X113.5829 Y-202.7222 Z-3.0000 F600
N17030 X117.3687 Y-196.7402 F1200
N17040 X117.9701
N17050 Y-205.2597
N17060 X117.7850
N17070 Y-198.8061
N17080 G03 X117.2850 Y-198.3061 I-0.5000 J0.0000 F1200.0
N17090 G01 X117.2609 F1200
N17100 G03 X116.8380 Y-198.5394 I0.0000 J-0.5000 F1200.0
N17110 G01 X112.5997 Y-205.2597 F1200
N17120 X112.0305
N17130 Y-196.7402
N17140 X112.2246
N17150 Y-203.1435
N17160 G03 X113.1471 Y-203.4109 I0.5000 J0.0000 F1200.0
N17170 G01 X113.5829 Y-202.7222 F1200
N17180 G00 Z1.0000
N17190 X100.0629 Y-184.7543
N17200 Z0.5000
N17210 G01 Z0.0000 F600
N17220 X100.0620 Y-184.7238 Z-0.0054
N17230 X100.0595 Y-184.6835 Z-0.0125
N17240 G03 X99.5605 Y-184.2140 Z-0.1456 I-0.4991 J-0.0305 F600.0
N17250 G01 X95.5437 Z-0.8539 F600
N17260 Y-184.1240 Z-0.8697
N17270 X99.1181 Y-184.1175 Z-1.5000
N17280 X99.5580 Y-184.1167 F1200
N17290 G03 X100.0571 Y-183.6176 I-0.0009 J0.5000 F1200.0
N17300 G01 X100.0629 Y-180.3513 F1200
N17310 G03 X99.5630 Y-179.8504 I-0.5000 J0.0009 F1200.0
N17320 G01 X94.7671 Y-179.8499 F1200
N17330 Y-179.7584
N17340 X100.5199 Y-179.7548
N17350 X100.5202 Y-188.2450
N17360 X100.0629 Y-188.2444
N17370 Y-184.7543
N17380 X100.0620 Y-184.7238 Z-1.5054 F600
N17390 X100.0595 Y-184.6835 Z-1.5125
N17400 G03 X99.5605 Y-184.2140 Z-1.6456 I-0.4991 J-0.0305 F600.0
N17410 G01 X95.5437 Z-2.3539 F600
N17420 Y-184.1240 Z-2.3697
N17430 X99.1181 Y-184.1175 Z-3.0000
N17440 X99.5580 Y-184.1167 F1200
N17450 G03 X100.0571 Y-183.6176 I-0.0009 J0.5000 F1200.0
N17460 G01 X100.0629 Y-180.3513 F1200
N17470 G03 X99.5630 Y-179.8504 I-0.5000 J0.0009 F1200.0
N17480 G01 X94.7671 Y-179.8499 F1200
N17490 Y-179.7584
N17500 X100.5199 Y-179.7548
N17510 X100.5202 Y-188.2450
N17520 X100.0629 Y-188.2444
N17530 Y-184.7543
N17540 X100.0620 Y-184.7238
N17550 X100.0595 Y-184.6835
N17560 G03 X99.5605 Y-184.2140 I-0.4991 J-0.0305 F1200.0
N17570 G01 X95.5437 F1200
N17580 Y-184.1240
N17590 X99.1181 Y-184.1175
N17600 G00 Z1.0000
N17610 X81.3548 Y-186.2397
N17620 Z0.5000
N17630 G01 Z0.0000 F600
N17640 X80.8408 Z-0.0906
N17650 X78.8139 Y-180.4353 Z-1.1747
N17660 G03 X77.8418 Y-180.5992 Z-1.4219 I-0.4720 J-0.1648 F600.0
N17670 G01 X77.8409 Y-181.0422 Z-1.5000 F600
N17680 X77.8265 Y-188.2458 F1200
N17690 X77.6356
N17700 X77.6359 Y-179.7549
N17710 X78.6092 Y-179.7556
N17720 X80.5414 Y-185.2643
N17730 G03 X81.4837 Y-185.2680 I0.4718 J0.1655 F1200.0
N17740 G01 X83.4663 Y-179.7545 F1200
N17750 X84.3654
N17760 Y-188.2458
N17770 X84.3533
N17780 Y-181.6192
N17790 X84.3495 Y-180.7706
N17800 G03 X83.3790 Y-180.6038 I-0.5000 J-0.0022 F1200.0
N17810 G01 X81.3548 Y-186.2397 F1200
N17820 X80.8408 Z-1.5906 F600
N17830 X78.8139 Y-180.4353 Z-2.6747
N17840 G03 X77.8418 Y-180.5992 Z-2.9219 I-0.4720 J-0.1648 F600.0
N17850 G01 X77.8409 Y-181.0422 Z-3.0000 F600
N17860 X77.8265 Y-188.2458 F1200
N17870 X77.6356
N17880 X77.6359 Y-179.7549
N17890 X78.6092 Y-179.7556
N17900 X80.5414 Y-185.2643
N17910 G03 X81.4837 Y-185.2680 I0.4718 J0.1655 F1200.0
N17920 G01 X83.4663 Y-179.7545 F1200
N17930 X84.3654
N17940 Y-188.2458
N17950 X84.3533
N17960 Y-181.6192
N17970 X84.3495 Y-180.7706
N17980 G03 X83.3790 Y-180.6038 I-0.5000 J-0.0022 F1200.0
N17990 G01 X81.3548 Y-186.2397 F1200
N18000 X80.8408
N18010 X78.8139 Y-180.4353
N18020 G03 X77.8418 Y-180.5992 I-0.4720 J-0.1648 F1200.0
N18030 G01 X77.8409 Y-181.0422 F1200
N18040 G00 Z1.0000
N18050 X79.2706 Y-201.2779
N18060 Z0.5000
N18070 G01 Z0.0000 F600
N18080 X79.7161 Y-201.0958 Z-0.0848
N18090 X81.5203 Y-200.4691 Z-0.4216
N18100 X81.5442 Y-200.4601 Z-0.4261
N18110 X82.3876 Y-200.1180 Z-0.5866
N18120 G03 X82.4679 Y-200.0766 Z-0.6026 I-0.1879 J0.4633 F600.0
N18130 G01 X82.9950 Y-199.7414 Z-0.7127 F600
N18140 G03 X83.1310 Y-199.6136 Z-0.7458 I-0.2683 J0.4219 F600.0
N18150 G01 X83.4080 Y-199.2329 Z-0.8288 F600
N18160 G03 X83.4950 Y-199.0317 Z-0.8678 I-0.4043 J0.2942 F600.0
N18170 G01 X83.5873 Y-198.5435 Z-0.9554 F600
N18180 G03 X83.5852 Y-198.3472 Z-0.9903 I-0.4913 J0.0929 F600.0
N18190 G01 X83.4626 Y-197.7670 Z-1.0948 F600
N18200 G03 X83.3466 Y-197.5377 Z-1.1406 I-0.4892 J-0.1034 F600.0
N18210 G01 X82.9752 Y-197.1212 Z-1.2390 F600
N18220 G03 X82.7895 Y-196.9904 Z-1.2794 I-0.3732 J-0.3328 F600.0
N18230 G01 X82.1722 Y-196.7407 Z-1.3969 F600
N18240 G03 X82.0331 Y-196.7065 Z-1.4222 I-0.1875 J-0.4635 F600.0
N18250 G01 X81.5939 Y-196.6637 Z-1.5000 F600
N18260 X81.1698 Y-196.6224 F1200
N18270 G03 X81.1031 Y-196.6204 I-0.0485 J-0.4976 F1200.0
N18280 X78.7640 Y-197.0271 I0.3192 J-8.7670
N18290 G01 Y-196.8535 F1200
N18300 G02 X81.8181 Y-196.5647 I2.3961 J-9.0461 F1200.0
N18310 G01 X82.4012 Y-196.6832 F1200
N18320 X82.9111 Y-196.8803
N18330 G02 X83.9087 Y-198.1762 I-0.8034 J-1.6504 F1200.0
N18340 G01 X83.9564 Y-198.7123 F1200
N18350 X83.9243 Y-199.1013
N18360 G02 X83.2833 Y-200.0871 I-1.4419 J0.2363 F1200.0
N18370 G01 X82.8607 Y-200.3503 F1200
N18380 X82.3357 Y-200.6060
N18390 X81.6868 Y-200.8690
N18400 X80.7218 Y-201.2197
N18410 X80.7019 Y-201.2275
N18420 X79.7124 Y-201.6357
N18430 G03 X79.6466 Y-201.6687 I0.1907 J-0.4622 F1200.0
N18440 G01 X79.0644 Y-202.0167 F1200
N18450 G03 X78.9237 Y-202.1423 I0.2565 J-0.4292 F1200.0
N18460 G01 X78.6377 Y-202.5164 F1200
N18470 G03 X78.5442 Y-202.7243 I0.3973 J-0.3036 F1200.0
N18480 G01 X78.4484 Y-203.2152 F1200
N18490 G03 X78.4426 Y-203.3690 I0.4907 J-0.0957 F1200.0
N18500 G01 X78.4825 Y-203.7108 F1200
N18510 G03 X78.5139 Y-203.8358 I0.4966 J0.0581 F1200.0
N18520 G01 X78.6331 Y-204.1386 F1200
N18530 G03 X78.6998 Y-204.2575 I0.4653 J0.1831 F1200.0
N18540 G01 X78.9024 Y-204.5248 F1200
N18550 G03 X78.9840 Y-204.6096 I0.3985 J0.3020 F1200.0
N18560 G01 X79.2665 Y-204.8411 F1200
N18570 G03 X79.3487 Y-204.8958 I0.3169 J0.3867 F1200.0
N18580 G01 X79.6967 Y-205.0808 F1200
N18590 G03 X79.7645 Y-205.1107 I0.2347 J0.4415 F1200.0
N18600 X82.9067 Y-205.1363 I1.6082 J4.5431
N18610 G01 X83.7493 Y-204.8640 F1200
N18620 X83.7863 Y-204.8504
N18630 X84.0251 Y-204.7519
N18640 Y-205.0593
N18650 X83.4875 Y-205.1928
N18660 X82.6764 Y-205.3508
N18670 X81.9631 Y-205.4453
N18680 X81.3526 Y-205.4747
N18690 X80.5732 Y-205.4293
N18700 X79.8976 Y-205.2946
N18710 X79.3166 Y-205.0799
N18720 X78.8295 Y-204.7847
N18730 X78.4498 Y-204.4337
N18740 X78.1882 Y-204.0422
N18750 X78.0198 Y-203.5642
N18760 G02 X78.8860 Y-201.4863 I1.8701 J0.4399 F1200.0
N18770 G01 X79.2706 Y-201.2779 F1200
N18780 X79.7161 Y-201.0958 Z-1.5848 F600
N18790 X81.5203 Y-200.4691 Z-1.9216
N18800 X81.5442 Y-200.4601 Z-1.9261
N18810 X82.3876 Y-200.1180 Z-2.0866
N18820 G03 X82.4679 Y-200.0766 Z-2.1026 I-0.1879 J0.4633 F600.0
N18830 G01 X82.9950 Y-199.7414 Z-2.2127 F600
N18840 G03 X83.1310 Y-199.6136 Z-2.2458 I-0.2683 J0.4219 F600.0
N18850 G01 X83.4080 Y-199.2329 Z-2.3288 F600
N18860 G03 X83.4950 Y-199.0317 Z-2.3678 I-0.4043 J0.2942 F600.0
N18870 G01 X83.5873 Y-198.5435 Z-2.4554 F600
N18880 G03 X83.5852 Y-198.3472 Z-2.4903 I-0.4913 J0.0929 F600.0
N18890 G01 X83.4626 Y-197.7670 Z-2.5948 F600
N18900 G03 X83.3466 Y-197.5377 Z-2.6406 I-0.4892 J-0.1034 F600.0
N18910 G01 X82.9752 Y-197.1212 Z-2.7390 F600
N18920 G03 X82.7895 Y-196.9904 Z-2.7794 I-0.3732 J-0.3328 F600.0
N18930 G01 X82.1722 Y-196.7407 Z-2.8969 F600
N18940 G03 X82.0331 Y-196.7065 Z-2.9222 I-0.1875 J-0.4635 F600.0
N18950 G01 X81.5939 Y-196.6637 Z-3.0000 F600
N18960 X81.1698 Y-196.6224 F1200
N18970 G03 X81.1031 Y-196.6204 I-0.0485 J-0.4976 F1200.0
N18980 X78.7640 Y-197.0271 I0.3192 J-8.7670
N18990 G01 Y-196.8535 F1200
N19000 G02 X81.8181 Y-196.5647 I2.3961 J-9.0461 F1200.0
N19010 G01 X82.4012 Y-196.6832 F1200
N19020 X82.9111 Y-196.8803
N19030 G02 X83.9087 Y-198.1762 I-0.8034 J-1.6504 F1200.0
N19040 G01 X83.9564 Y-198.7123 F1200
N19050 X83.9243 Y-199.1013
N19060 G02 X83.2833 Y-200.0871 I-1.4419 J0.2363 F1200.0
N19070 G01 X82.8607 Y-200.3503 F1200
N19080 X82.3357 Y-200.6060
N19090 X81.6868 Y-200.8690
N19100 X80.7218 Y-201.2197
N19110 X80.7019 Y-201.2275
N19120 X79.7124 Y-201.6357
N19130 G03 X79.6466 Y-201.6687 I0.1907 J-0.4622 F1200.0
N19140 G01 X79.0644 Y-202.0167 F1200
N19150 G03 X78.9237 Y-202.1423 I0.2565 J-0.4292 F1200.0
N19160 G01 X78.6377 Y-202.5164 F1200
N19170 G03 X78.5442 Y-202.7243 I0.3973 J-0.3036 F1200.0
N19180 G01 X78.4484 Y-203.2152 F1200
N19190 G03 X78.4426 Y-203.3690 I0.4907 J-0.0957 F1200.0
N19200 G01 X78.4825 Y-203.7108 F1200
N19210 G03 X78.5139 Y-203.8358 I0.4966 J0.0581 F1200.0
N19220 G01 X78.6331 Y-204.1386 F1200
N19230 G03 X78.6998 Y-204.2575 I0.4653 J0.1831 F1200.0
N19240 G01 X78.9024 Y-204.5248 F1200
N19250 G03 X78.9840 Y-204.6096 I0.3985 J0.3020 F1200.0
N19260 G01 X79.2665 Y-204.8411 F1200
N19270 G03 X79.3487 Y-204.8958 I0.3169 J0.3867 F1200.0
N19280 G01 X79.6967 Y-205.0808 F1200
N19290 G03 X79.7645 Y-205.1107 I0.2347 J0.4415 F1200.0
N19300 X82.9067 Y-205.1363 I1.6082 J4.5431
N19310 G01 X83.7493 Y-204.8640 F1200
N19320 X83.7863 Y-204.8504
N19330 X84.0251 Y-204.7519
N19340 Y-205.0593
N19350 X83.4875 Y-205.1928
N19360 X82.6764 Y-205.3508
N19370 X81.9631 Y-205.4453
N19380 X81.3526 Y-205.4747
N19390 X80.5732 Y-205.4293
N19400 X79.8976 Y-205.2946
N19410 X79.3166 Y-205.0799
N19420 X78.8295 Y-204.7847
N19430 X78.4498 Y-204.4337
N19440 X78.1882 Y-204.0422
N19450 X78.0198 Y-203.5642
N19460 G02 X78.8860 Y-201.4863 I1.8701 J0.4399 F1200.0
N19470 G01 X79.2706 Y-201.2779 F1200
N19480 X79.7161 Y-201.0958
N19490 X81.5203 Y-200.4691
N19500 X81.5442 Y-200.4601
N19510 X82.3876 Y-200.1180
N19520 G03 X82.4679 Y-200.0766 I-0.1879 J0.4633 F1200.0
N19530 G01 X82.9950 Y-199.7414 F1200
N19540 G03 X83.1310 Y-199.6136 I-0.2683 J0.4219 F1200.0
N19550 G01 X83.4080 Y-199.2329 F1200
N19560 G03 X83.4950 Y-199.0317 I-0.4043 J0.2942 F1200.0
N19570 G01 X83.5873 Y-198.5435 F1200
N19580 G03 X83.5852 Y-198.3472 I-0.4913 J0.0929 F1200.0
N19590 G01 X83.4626 Y-197.7670 F1200
N19600 G03 X83.3466 Y-197.5377 I-0.4892 J-0.1034 F1200.0
N19610 G01 X82.9752 Y-197.1212 F1200
N19620 G03 X82.7895 Y-196.9904 I-0.3732 J-0.3328 F1200.0
N19630 G01 X82.1722 Y-196.7407 F1200
N19640 G03 X82.0331 Y-196.7065 I-0.1875 J-0.4635 F1200.0
N19650 G01 X81.5939 Y-196.6637 F1200
N19660 G00 Z1.0000
N19670 X66.3292 Y-196.7547
N19680 Z0.5000
N19690 G01 Z0.0000 F600
N19700 X66.7851 Z-0.0804
N19710 Y-204.8057 Z-1.5000
N19720 Y-205.2452 F1200
N19730 X61.2160
N19740 Y-205.1504
N19750 X65.8292
N19760 G03 X66.3292 Y-204.6504 I0.0000 J0.5000 F1200.0
N19770 G01 Y-196.7547 F1200
N19780 X66.7851 Z-1.5804 F600
N19790 Y-204.8057 Z-3.0000
N19800 Y-205.2452 F1200
N19810 X61.2160
N19820 Y-205.1504
N19830 X65.8292
N19840 G03 X66.3292 Y-204.6504 I0.0000 J0.5000 F1200.0
N19850 G01 Y-196.7547 F1200
N19860 X66.7851
N19870 Y-204.8057
N19880 G00 Z1.0000
N19890 X66.4752 Y-184.9236
N19900 Z0.5000
N19910 G01 Z0.0000 F600
N19920 X66.4756 Y-184.9021 Z-0.0038
N19930 Y-179.6401 Z-0.9316
N19940 X66.9326 Z-1.0122
N19950 Y-182.4067 Z-1.5000
N19960 Y-184.8661 F1200
N19970 X66.8826 Y-185.7662
N19980 X66.7310 Y-186.5336
N19990 G02 X64.7257 Y-188.3007 I-2.2965 J0.5847 F1200.0
N20000 G01 X63.9352 Y-188.3592 F1200
N20010 X63.4996 Y-188.3371
N20020 X63.0843 Y-188.2665
N20030 G02 X61.1695 Y-186.1251 I0.5844 J2.4493 F1200.0
N20040 G01 X61.0925 Y-185.4444 F1200
N20050 X61.0682 Y-184.6427
N20060 Y-179.6401
N20070 X61.3412
N20080 Y-184.8649
N20090 X61.3416 Y-184.8855
N20100 X61.3712 Y-185.6034
N20110 G03 X61.3765 Y-185.6580 I0.4996 J0.0206 F1200.0
N20120 G01 X61.4695 Y-186.2692 F1200
N20130 G03 X61.4859 Y-186.3407 I0.4943 J0.0752 F1200.0
N20140 G01 X61.6398 Y-186.8423 F1200
N20150 X61.6531 Y-186.8801
N20160 G03 X63.3691 Y-188.2166 I1.9957 J0.7925 F1200.0
N20170 G01 X63.3931 Y-188.2192 F1200
N20180 X63.9154 Y-188.2622
N20190 G03 X63.9999 Y-188.2620 I0.0411 J0.4983 F1200.0
N20200 G01 X64.4942 Y-188.2190 F1200
N20210 X64.5243 Y-188.2154
N20220 G03 X66.1763 Y-186.8680 I-0.3061 J2.0617 F1200.0
N20230 G01 X66.1848 Y-186.8426 F1200
N20240 X66.3357 Y-186.3482
N20250 G03 X66.3522 Y-186.2750 I-0.4782 J0.1460 F1200.0
N20260 G01 X66.4400 Y-185.6776 F1200
N20270 G03 X66.4449 Y-185.6264 I-0.4947 J0.0727 F1200.0
N20280 G01 X66.4752 Y-184.9236 F1200
N20290 X66.4756 Y-184.9021 Z-1.5038 F600
N20300 Y-179.6401 Z-2.4316
N20310 X66.9326 Z-2.5122
N20320 Y-182.4067 Z-3.0000
N20330 Y-184.8661 F1200
N20340 X66.8826 Y-185.7662
N20350 X66.7310 Y-186.5336
N20360 G02 X64.7257 Y-188.3007 I-2.2965 J0.5847 F1200.0
N20370 G01 X63.9352 Y-188.3592 F1200
N20380 X63.4996 Y-188.3371
N20390 X63.0843 Y-188.2665
N20400 G02 X61.1695 Y-186.1251 I0.5844 J2.4493 F1200.0
N20410 G01 X61.0925 Y-185.4444 F1200
N20420 X61.0682 Y-184.6427
N20430 Y-179.6401
N20440 X61.3412
N20450 Y-184.8649
N20460 X61.3416 Y-184.8855
N20470 X61.3712 Y-185.6034
N20480 G03 X61.3765 Y-185.6580 I0.4996 J0.0206 F1200.0
N20490 G01 X61.4695 Y-186.2692 F1200
N20500 G03 X61.4859 Y-186.3407 I0.4943 J0.0752 F1200.0
N20510 G01 X61.6398 Y-186.8423 F1200
N20520 X61.6531 Y-186.8801
N20530 G03 X63.3691 Y-188.2166 I1.9957 J0.7925 F1200.0
N20540 G01 X63.3931 Y-188.2192 F1200
N20550 X63.9154 Y-188.2622
N20560 G03 X63.9999 Y-188.2620 I0.0411 J0.4983 F1200.0
N20570 G01 X64.4942 Y-188.2190 F1200
N20580 X64.5243 Y-188.2154
N20590 G03 X66.1763 Y-186.8680 I-0.3061 J2.0617 F1200.0
N20600 G01 X66.1848 Y-186.8426 F1200
N20610 X66.3357 Y-186.3482
N20620 G03 X66.3522 Y-186.2750 I-0.4782 J0.1460 F1200.0
N20630 G01 X66.4400 Y-185.6776 F1200
N20640 G03 X66.4449 Y-185.6264 I-0.4947 J0.0727 F1200.0
N20650 G01 X66.4752 Y-184.9236 F1200
N20660 X66.4756 Y-184.9021
N20670 Y-179.6401
N20680 X66.9326
N20690 Y-182.4067
N20700 G00 Z1.0000
N20710 X49.5117 Y-179.7545
N20720 Z0.5000
N20730 G01 Z0.0000 F600
N20740 X49.9706 Z-0.0809
N20750 Y-187.8024 Z-1.5000
N20760 Y-188.2458 F1200
N20770 X49.5117
N20780 Y-184.4993
N20790 G03 X49.0117 Y-183.9993 I-0.5000 J0.0000 F1200.0
N20800 G01 X44.9954 F1200
N20810 G03 X44.4954 Y-184.4993 I0.0000 J-0.5000 F1200.0
N20820 G01 Y-188.2458 F1200
N20830 X44.0298
N20840 Y-179.7545
N20850 X44.4954
N20860 Y-183.4024
N20870 G03 X44.9954 Y-183.9024 I0.5000 J0.0000 F1200.0
N20880 G01 X49.0117 F1200
N20890 G03 X49.5117 Y-183.4024 I0.0000 J0.5000 F1200.0
N20900 G01 Y-179.7545 F1200
N20910 X49.9706 Z-1.5809 F600
N20920 Y-187.8024 Z-3.0000
N20930 Y-188.2458 F1200
N20940 X49.5117
N20950 Y-184.4993
N20960 G03 X49.0117 Y-183.9993 I-0.5000 J0.0000 F1200.0
N20970 G01 X44.9954 F1200
N20980 G03 X44.4954 Y-184.4993 I0.0000 J-0.5000 F1200.0
N20990 G01 Y-188.2458 F1200
N21000 X44.0298
N21010 Y-179.7545
N21020 X44.4954
N21030 Y-183.4024
N21040 G03 X44.9954 Y-183.9024 I0.5000 J0.0000 F1200.0
N21050 G01 X49.0117 F1200
N21060 G03 X49.5117 Y-183.4024 I0.0000 J0.5000 F1200.0
N21070 G01 Y-179.7545 F1200
N21080 X49.9706
N21090 Y-187.8024
N21100 G00 Z1.0000
N21110 X46.7701 Y-162.8189
N21120 Z0.5000
N21130 G01 Z0.0000 F600
N21140 X47.3688 Y-162.7711 Z-0.1059
N21150 X50.2682 Y-162.7574 Z-0.6172
N21160 X50.2649 Y-164.9362 Z-1.0014
N21170 X49.8086 Z-1.0818
N21180 Y-163.3492 Z-1.3616
N21190 G03 X49.3094 Y-162.8492 Z-1.5000 I-0.5000 J0.0000 F600.0
N21200 G01 X49.3086 F1200
N21210 X48.4143
N21220 X48.3989 Y-162.8494
N21230 X47.7595 Y-162.8691
N21240 X47.7222 Y-162.8716
N21250 X47.1889 Y-162.9281
N21260 G03 X47.1323 Y-162.9374 I0.0527 J-0.4972 F1200.0
N21270 G01 X46.7018 Y-163.0339 F1200
N21280 G03 X45.5257 Y-164.3280 I0.3687 J-1.5165 F1200.0
N21290 G01 X45.5225 Y-164.3564 F1200
N21300 X45.4901 Y-164.7326
N21310 X45.4884 Y-164.7635
N21320 G03 X46.3839 Y-166.5788 I2.1819 J-0.0521 F1200.0
N21330 G01 X46.4188 Y-166.6021 F1200
N21340 X46.7916 Y-166.8288
N21350 G03 X46.8764 Y-166.8699 I0.2598 J0.4272 F1200.0
N21360 G01 X47.3125 Y-167.0329 F1200
N21370 G03 X47.3916 Y-167.0552 I0.1750 J0.4684 F1200.0
N21380 G01 X47.8884 Y-167.1524 F1200
N21390 G03 X47.9565 Y-167.1609 I0.0960 J0.4907 F1200.0
N21400 G01 X48.5125 Y-167.1919 F1200
N21410 X48.5430 Y-167.1927
N21420 X50.2690 Y-167.1836
N21430 Y-171.2452
N21440 X49.8107
N21450 Y-167.7968
N21460 G03 X49.3107 Y-167.2968 I-0.5000 J0.0000 F1200.0
N21470 G01 X47.9974 F1200
N21480 G03 X47.5992 Y-167.4945 I0.0000 J-0.5000 F1200.0
N21490 G01 X44.7513 Y-171.2452 F1200
N21500 X44.2376
N21510 X46.9042 Y-167.7260
N21520 G03 X46.7502 Y-166.9879 I-0.3985 J0.3020 F1200.0
N21530 G01 X46.2523 Y-166.7088 F1200
N21540 X45.8406 Y-166.4268
N21550 G02 X44.9346 Y-164.5778 I1.3812 J1.8232 F1200.0
N21560 G01 X45.0080 Y-164.0142 F1200
N21570 X45.1978 Y-163.6031
N21580 X45.5193 Y-163.2677
N21590 X46.0116 Y-162.9884
N21600 X46.3120 Y-162.8953
N21610 X46.7701 Y-162.8189
N21620 X47.3688 Y-162.7711 Z-1.6059 F600
N21630 X50.2682 Y-162.7574 Z-2.1172
N21640 X50.2649 Y-164.9362 Z-2.5014
N21650 X49.8086 Z-2.5818
N21660 Y-163.3492 Z-2.8616
N21670 G03 X49.3094 Y-162.8492 Z-3.0000 I-0.5000 J0.0000 F600.0
N21680 G01 X49.3086 F1200
N21690 X48.4143
N21700 X48.3989 Y-162.8494
N21710 X47.7595 Y-162.8691
N21720 X47.7222 Y-162.8716
N21730 X47.1889 Y-162.9281
N21740 G03 X47.1323 Y-162.9374 I0.0527 J-0.4972 F1200.0
N21750 G01 X46.7018 Y-163.0339 F1200
N21760 G03 X45.5257 Y-164.3280 I0.3687 J-1.5165 F1200.0
N21770 G01 X45.5225 Y-164.3564 F1200
N21780 X45.4901 Y-164.7326
N21790 X45.4884 Y-164.7635
N21800 G03 X46.3839 Y-166.5788 I2.1819 J-0.0521 F1200.0
N21810 G01 X46.4188 Y-166.6021 F1200
N21820 X46.7916 Y-166.8288
N21830 G03 X46.8764 Y-166.8699 I0.2598 J0.4272 F1200.0
N21840 G01 X47.3125 Y-167.0329 F1200
N21850 G03 X47.3916 Y-167.0552 I0.1750 J0.4684 F1200.0
N21860 G01 X47.8884 Y-167.1524 F1200
N21870 G03 X47.9565 Y-167.1609 I0.0960 J0.4907 F1200.0
N21880 G01 X48.5125 Y-167.1919 F1200
N21890 X48.5430 Y-167.1927
N21900 X50.2690 Y-167.1836
N21910 Y-171.2452
N21920 X49.8107
N21930 Y-167.7968
N21940 G03 X49.3107 Y-167.2968 I-0.5000 J0.0000 F1200.0
N21950 G01 X47.9974 F1200
N21960 G03 X47.5992 Y-167.4945 I0.0000 J-0.5000 F1200.0
N21970 G01 X44.7513 Y-171.2452 F1200
N21980 X44.2376
N21990 X46.9042 Y-167.7260
N22000 G03 X46.7502 Y-166.9879 I-0.3985 J0.3020 F1200.0
N22010 G01 X46.2523 Y-166.7088 F1200
N22020 X45.8406 Y-166.4268
N22030 G02 X44.9346 Y-164.5778 I1.3812 J1.8232 F1200.0
N22040 G01 X45.0080 Y-164.0142 F1200
N22050 X45.1978 Y-163.6031
N22060 X45.5193 Y-163.2677
N22070 X46.0116 Y-162.9884
N22080 X46.3120 Y-162.8953
N22090 X46.7701 Y-162.8189
N22100 X47.3688 Y-162.7711
N22110 X50.2682 Y-162.7574
N22120 X50.2649 Y-164.9362
N22130 X49.8086
N22140 Y-163.3492
N22150 G03 X49.3094 Y-162.8492 I-0.5000 J0.0000 F1200.0
N22160 G00 Z1.0000
N22170 X61.2227 Y-162.7388
N22180 Z0.5000
N22190 G01 Z0.0000 F600
N22200 Y-169.1418 Z-1.1290
N22210 G03 X62.1451 Y-169.4093 Z-1.3562 I0.5000 J0.0000 F600.0
N22220 G01 X62.5814 Y-168.7204 Z-1.5000 F600
N22230 X66.3697 Y-162.7388 F1200
N22240 X66.9687
N22250 Y-171.2611
N22260 X66.7850
N22270 Y-164.8041
N22280 G03 X66.2850 Y-164.3041 I-0.5000 J0.0000 F1200.0
N22290 G01 X66.2619 F1200
N22300 G03 X65.8389 Y-164.5375 I0.0000 J-0.5000 F1200.0
N22310 G01 X61.6015 Y-171.2611 F1200
N22320 X61.0314
N22330 Y-162.7388
N22340 X61.2227
N22350 Y-169.1418 Z-2.6290 F600
N22360 G03 X62.1451 Y-169.4093 Z-2.8562 I0.5000 J0.0000 F600.0
N22370 G01 X62.5814 Y-168.7204 Z-3.0000 F600
N22380 X66.3697 Y-162.7388 F1200
N22390 X66.9687
N22400 Y-171.2611
N22410 X66.7850
N22420 Y-164.8041
N22430 G03 X66.2850 Y-164.3041 I-0.5000 J0.0000 F1200.0
N22440 G01 X66.2619 F1200
N22450 G03 X65.8389 Y-164.5375 I0.0000 J-0.5000 F1200.0
N22460 G01 X61.6015 Y-171.2611 F1200
N22470 X61.0314
N22480 Y-162.7388
N22490 X61.2227
N22500 Y-169.1418
N22510 G03 X62.1451 Y-169.4093 I0.5000 J0.0000 F1200.0
N22520 G01 X62.5814 Y-168.7204 F1200
N22530 G00 Z1.0000
N22540 X64.2330 Y-153.6492
N22550 Z0.5000
N22560 G01 Z0.0000 F600
N22570 G03 X64.7330 Y-154.1492 Z-0.1385 I0.5000 J0.0000 F600.0
N22580 G01 X66.7855 Z-0.5004 F600
N22590 Y-154.2461 Z-0.5175
N22600 X61.2164 Z-1.4995
N22610 Y-154.2431 Z-1.5000
N22620 Y-154.1492 F1200
N22630 X63.2692
N22640 G03 X63.7692 Y-153.6492 I0.0000 J0.5000 F1200.0
N22650 G01 Y-146.3504 F1200
N22660 G03 X63.2692 Y-145.8504 I-0.5000 J0.0000 F1200.0
N22670 G01 X61.2164 F1200
N22680 Y-145.7542
N22690 X66.7855
N22700 Y-145.8504
N22710 X64.7330
N22720 G03 X64.2330 Y-146.3504 I0.0000 J-0.5000 F1200.0
N22730 G01 Y-153.6492 F1200
N22740 G03 X64.7330 Y-154.1492 Z-1.6385 I0.5000 J0.0000 F600.0
N22750 G01 X66.7855 Z-2.0004 F600
N22760 Y-154.2461 Z-2.0175
N22770 X61.2164 Z-2.9995
N22780 Y-154.2431 Z-3.0000
N22790 Y-154.1492 F1200
N22800 X63.2692
N22810 G03 X63.7692 Y-153.6492 I0.0000 J0.5000 F1200.0
N22820 G01 Y-146.3504 F1200
N22830 G03 X63.2692 Y-145.8504 I-0.5000 J0.0000 F1200.0
N22840 G01 X61.2164 F1200
N22850 Y-145.7542
N22860 X66.7855
N22870 Y-145.8504
N22880 X64.7330
N22890 G03 X64.2330 Y-146.3504 I0.0000 J-0.5000 F1200.0
N22900 G01 Y-153.6492 F1200
N22910 G03 X64.7330 Y-154.1492 I0.5000 J0.0000 F1200.0
N22920 G01 X66.7855 F1200
N22930 Y-154.2461
N22940 X61.2164
N22950 Y-154.2431
N22960 G00 Z1.0000
N22970 X80.6491 Y-154.2457
N22980 Z0.5000
N22990 G01 Z0.0000 F600
N23000 X77.5127 Y-146.3381 Z-1.5000
N23010 X77.2822 Y-145.7570 F1200
N23020 X77.4544 Y-145.7561
N23030 X80.4213 Y-152.9875
N23040 G03 X81.3477 Y-152.9843 I0.4626 J0.1898 F1200.0
N23050 G01 X84.2567 Y-145.7542 F1200
N23060 X84.7255
N23070 X81.4322 Y-154.2460
N23080 X80.6491 Y-154.2457
N23090 X77.5127 Y-146.3381 Z-3.0000 F600
N23100 X77.2822 Y-145.7570 F1200
N23110 X77.4544 Y-145.7561
N23120 X80.4213 Y-152.9875
N23130 G03 X81.3477 Y-152.9843 I0.4626 J0.1898 F1200.0
N23140 G01 X84.2567 Y-145.7542 F1200
N23150 X84.7255
N23160 X81.4322 Y-154.2460
N23170 X80.6491 Y-154.2457
N23180 X77.5127 Y-146.3381
N23190 G00 Z1.0000
N23200 X83.5120 Y-162.7550
N23210 Z0.5000
N23220 G01 Z0.0000 F600
N23230 X83.9679 Z-0.0804
N23240 Y-170.8061 Z-1.5000
N23250 Y-171.2452 F1200
N23260 X83.5120
N23270 Y-167.4988
N23280 G03 X83.0120 Y-166.9988 I-0.5000 J0.0000 F1200.0
N23290 G01 X78.9964 F1200
N23300 G03 X78.4964 Y-167.4988 I0.0000 J-0.5000 F1200.0
N23310 G01 Y-171.2452 F1200
N23320 X78.0315
N23330 Y-162.7550
N23340 X78.4964
N23350 Y-166.4033
N23360 G03 X78.9964 Y-166.9033 I0.5000 J0.0000 F1200.0
N23370 G01 X83.0120 F1200
N23380 G03 X83.5120 Y-166.4033 I0.0000 J0.5000 F1200.0
N23390 G01 Y-162.7550 F1200
N23400 X83.9679 Z-1.5804 F600
N23410 Y-170.8061 Z-3.0000
N23420 Y-171.2452 F1200
N23430 X83.5120
N23440 Y-167.4988
N23450 G03 X83.0120 Y-166.9988 I-0.5000 J0.0000 F1200.0
N23460 G01 X78.9964 F1200
N23470 G03 X78.4964 Y-167.4988 I0.0000 J-0.5000 F1200.0
N23480 G01 Y-171.2452 F1200
N23490 X78.0315
N23500 Y-162.7550
N23510 X78.4964
N23520 Y-166.4033
N23530 G03 X78.9964 Y-166.9033 I0.5000 J0.0000 F1200.0
N23540 G01 X83.0120 F1200
N23550 G03 X83.5120 Y-166.4033 I0.0000 J0.5000 F1200.0
N23560 G01 Y-162.7550 F1200
N23570 X83.9679
N23580 Y-170.8061
N23590 G00 Z1.0000
N23600 X95.1068 Y-162.7550
N23610 Z0.5000
N23620 G01 Z0.0000 F600
N23630 X100.5202 Z-0.9545
N23640 Y-165.8486 Z-1.5000
N23650 Y-171.2452 F1200
N23660 X94.7671
N23670 Y-171.1480
N23680 X99.5629
N23690 G03 X100.0629 Y-170.6480 I0.0000 J0.5000 F1200.0
N23700 G01 Y-167.3224 F1200
N23710 G03 X99.5629 Y-166.8224 I-0.5000 J0.0000 F1200.0
N23720 G01 X95.8613 F1200
N23730 Y-166.7252
N23740 X99.5629
N23750 G03 X100.0629 Y-166.2252 I0.0000 J0.5000 F1200.0
N23760 G01 Y-163.3492 F1200
N23770 G03 X99.5629 Y-162.8492 I-0.5000 J0.0000 F1200.0
N23780 G01 X95.1068 F1200
N23790 Y-162.7550
N23800 X100.5202 Z-2.4545 F600
N23810 Y-165.8486 Z-3.0000
N23820 Y-171.2452 F1200
N23830 X94.7671
N23840 Y-171.1480
N23850 X99.5629
N23860 G03 X100.0629 Y-170.6480 I0.0000 J0.5000 F1200.0
N23870 G01 Y-167.3224 F1200
N23880 G03 X99.5629 Y-166.8224 I-0.5000 J0.0000 F1200.0
N23890 G01 X95.8613 F1200
N23900 Y-166.7252
N23910 X99.5629
N23920 G03 X100.0629 Y-166.2252 I0.0000 J0.5000 F1200.0
N23930 G01 Y-163.3492 F1200
N23940 G03 X99.5629 Y-162.8492 I-0.5000 J0.0000 F1200.0
N23950 G01 X95.1068 F1200
N23960 Y-162.7550
N23970 X100.5202
N23980 Y-165.8486
N23990 G00 Z1.0000
N24000 X94.8654 Y-145.7390
N24010 Z0.5000
N24020 G01 Z0.0000 F600
N24030 Y-152.1416 Z-1.1289
N24040 G03 X95.7879 Y-152.4091 Z-1.3562 I0.5000 J0.0000 F600.0
N24050 G01 X96.2242 Y-151.7198 Z-1.5000 F600
N24060 X100.0104 Y-145.7390 F1200
N24070 X100.6111
N24080 Y-154.2609
N24090 X100.4295
N24100 Y-147.8046
N24110 G03 X99.9295 Y-147.3046 I-0.5000 J0.0000 F1200.0
N24120 G01 X99.9054 F1200
N24130 G03 X99.4824 Y-147.5380 I0.0000 J-0.5000 F1200.0
N24140 G01 X95.2446 Y-154.2609 F1200
N24150 X94.6741
N24160 Y-145.7390
N24170 X94.8654
N24180 Y-152.1416 Z-2.6289 F600
N24190 G03 X95.7879 Y-152.4091 Z-2.8562 I0.5000 J0.0000 F600.0
N24200 G01 X96.2242 Y-151.7198 Z-3.0000 F600
N24210 X100.0104 Y-145.7390 F1200
N24220 X100.6111
N24230 Y-154.2609
N24240 X100.4295
N24250 Y-147.8046
N24260 G03 X99.9295 Y-147.3046 I-0.5000 J0.0000 F1200.0
N24270 G01 X99.9054 F1200
N24280 G03 X99.4824 Y-147.5380 I0.0000 J-0.5000 F1200.0
N24290 G01 X95.2446 Y-154.2609 F1200
N24300 X94.6741
N24310 Y-145.7390
N24320 X94.8654
N24330 Y-152.1416
N24340 G03 X95.7879 Y-152.4091 I0.5000 J0.0000 F1200.0
N24350 G01 X96.2242 Y-151.7198 F1200
N24360 G00 Z1.0000
N24370 X83.4197 Y-133.7650
N24380 Z0.5000
N24390 G01 Z0.0000 F600
N24400 X83.4192 Y-133.7456 Z-0.0034
N24410 X83.4170 Y-133.6928 Z-0.0127
N24420 G03 X82.9174 Y-133.2141 Z-0.1475 I-0.4995 J-0.0213 F600.0
N24430 G01 X78.9025 Z-0.8554 F600
N24440 Y-133.1248 Z-0.8712
N24450 X82.4688 Y-133.1184 Z-1.5000
N24460 X82.9152 Y-133.1176 F1200
N24470 G03 X83.4143 Y-132.6184 I-0.0009 J0.5000 F1200.0
N24480 G01 X83.4197 Y-129.3518 F1200
N24490 G03 X82.9197 Y-128.8509 I-0.5000 J0.0008 F1200.0
N24500 G01 X78.1239 Y-128.8504 F1200
N24510 Y-128.7575
N24520 X83.8774 Y-128.7540
N24530 X83.8776 Y-137.2466
N24540 X83.4329
N24550 X83.4197 Y-133.7650
N24560 X83.4192 Y-133.7456 Z-1.5034 F600
N24570 X83.4170 Y-133.6928 Z-1.5127
N24580 G03 X82.9174 Y-133.2141 Z-1.6475 I-0.4995 J-0.0213 F600.0
N24590 G01 X78.9025 Z-2.3554 F600
N24600 Y-133.1248 Z-2.3712
N24610 X82.4688 Y-133.1184 Z-3.0000
N24620 X82.9152 Y-133.1176 F1200
N24630 G03 X83.4143 Y-132.6184 I-0.0009 J0.5000 F1200.0
N24640 G01 X83.4197 Y-129.3518 F1200
N24650 G03 X82.9197 Y-128.8509 I-0.5000 J0.0008 F1200.0
N24660 G01 X78.1239 Y-128.8504 F1200
N24670 Y-128.7575
N24680 X83.8774 Y-128.7540
N24690 X83.8776 Y-137.2466
N24700 X83.4329
N24710 X83.4197 Y-133.7650
N24720 X83.4192 Y-133.7456
N24730 X83.4170 Y-133.6928
N24740 G03 X82.9174 Y-133.2141 I-0.4995 J-0.0213 F1200.0
N24750 G01 X78.9025 F1200
N24760 Y-133.1248
N24770 X82.4688 Y-133.1184
N24780 G00 Z1.0000
N24790 X66.4752 Y-133.8105
N24800 Z0.5000
N24810 G01 Z0.0000 F600
N24820 X66.4756 Y-133.7889 Z-0.0038
N24830 Y-128.5249 Z-0.9320
N24840 X66.9326 Z-1.0126
N24850 Y-131.2893 Z-1.5000
N24860 Y-133.7530 F1200
N24870 X66.8826 Y-134.6530
N24880 X66.7309 Y-135.4199
N24890 G02 X64.7257 Y-137.1865 I-2.2935 J0.5820 F1200.0
N24900 G01 X63.9352 Y-137.2460 F1200
N24910 X63.4809 Y-137.2223
N24920 G02 X61.4417 Y-135.8837 I0.2446 J2.5950 F1200.0
N24930 G01 X61.2845 Y-135.4951 F1200
N24940 X61.1666 Y-134.9850
N24950 X61.0925 Y-134.3312
N24960 X61.0682 Y-133.5288
N24970 Y-128.5249
N24980 X61.3412
N24990 Y-133.7517
N25000 X61.3416 Y-133.7723
N25010 X61.3712 Y-134.4903
N25020 G03 X61.3765 Y-134.5449 I0.4996 J0.0206 F1200.0
N25030 G01 X61.4695 Y-135.1557 F1200
N25040 G03 X61.4859 Y-135.2273 I0.4943 J0.0753 F1200.0
N25050 G01 X61.6399 Y-135.7286 F1200
N25060 G03 X61.6810 Y-135.8249 I0.4780 J0.1468 F1200.0
N25070 G01 X61.8990 Y-136.2167 F1200
N25080 G03 X61.9768 Y-136.3213 I0.4369 J0.2432 F1200.0
N25090 G01 X62.2637 Y-136.6176 F1200
N25100 G03 X62.3745 Y-136.7037 I0.3591 J0.3479 F1200.0
N25110 G01 X62.7411 Y-136.9135 F1200
N25120 G03 X62.8510 Y-136.9600 I0.2484 J0.4339 F1200.0
N25130 G01 X63.2958 Y-137.0881 F1200
N25140 G03 X63.3941 Y-137.1061 I0.1384 J0.4805 F1200.0
N25150 G01 X63.9164 Y-137.1481 F1200
N25160 G03 X63.9988 Y-137.1479 I0.0401 J0.4984 F1200.0
N25170 G01 X64.4932 Y-137.1059 F1200
N25180 X64.5260 Y-137.1020
N25190 G03 X66.1756 Y-135.7570 I-0.3149 J2.0703 F1200.0
N25200 G01 X66.1849 Y-135.7295 F1200
N25210 X66.3358 Y-135.2341
N25220 G03 X66.3522 Y-135.1611 I-0.4783 J0.1457 F1200.0
N25230 G01 X66.4400 Y-134.5638 F1200
N25240 G03 X66.4449 Y-134.5126 I-0.4947 J0.0727 F1200.0
N25250 G01 X66.4752 Y-133.8105 F1200
N25260 X66.4756 Y-133.7889 Z-1.5038 F600
N25270 Y-128.5249 Z-2.4320
N25280 X66.9326 Z-2.5126
N25290 Y-131.2893 Z-3.0000
N25300 Y-133.7530 F1200
N25310 X66.8826 Y-134.6530
N25320 X66.7309 Y-135.4199
N25330 G02 X64.7257 Y-137.1865 I-2.2935 J0.5820 F1200.0
N25340 G01 X63.9352 Y-137.2460 F1200
N25350 X63.4809 Y-137.2223
N25360 G02 X61.4417 Y-135.8837 I0.2446 J2.5950 F1200.0
N25370 G01 X61.2845 Y-135.4951 F1200
N25380 X61.1666 Y-134.9850
N25390 X61.0925 Y-134.3312
N25400 X61.0682 Y-133.5288
N25410 Y-128.5249
N25420 X61.3412
N25430 Y-133.7517
N25440 X61.3416 Y-133.7723
N25450 X61.3712 Y-134.4903
N25460 G03 X61.3765 Y-134.5449 I0.4996 J0.0206 F1200.0
N25470 G01 X61.4695 Y-135.1557 F1200
N25480 G03 X61.4859 Y-135.2273 I0.4943 J0.0753 F1200.0
N25490 G01 X61.6399 Y-135.7286 F1200
N25500 G03 X61.6810 Y-135.8249 I0.4780 J0.1468 F1200.0
N25510 G01 X61.8990 Y-136.2167 F1200
N25520 G03 X61.9768 Y-136.3213 I0.4369 J0.2432 F1200.0
N25530 G01 X62.2637 Y-136.6176 F1200
N25540 G03 X62.3745 Y-136.7037 I0.3591 J0.3479 F1200.0
N25550 G01 X62.7411 Y-136.9135 F1200
N25560 G03 X62.8510 Y-136.9600 I0.2484 J0.4339 F1200.0
N25570 G01 X63.2958 Y-137.0881 F1200
N25580 G03 X63.3941 Y-137.1061 I0.1384 J0.4805 F1200.0
N25590 G01 X63.9164 Y-137.1481 F1200
N25600 G03 X63.9988 Y-137.1479 I0.0401 J0.4984 F1200.0
N25610 G01 X64.4932 Y-137.1059 F1200
N25620 X64.5260 Y-137.1020
N25630 G03 X66.1756 Y-135.7570 I-0.3149 J2.0703 F1200.0
N25640 G01 X66.1849 Y-135.7295 F1200
N25650 X66.3358 Y-135.2341
N25660 G03 X66.3522 Y-135.1611 I-0.4783 J0.1457 F1200.0
N25670 G01 X66.4400 Y-134.5638 F1200
N25680 G03 X66.4449 Y-134.5126 I-0.4947 J0.0727 F1200.0
N25690 G01 X66.4752 Y-133.8105 F1200
N25700 X66.4756 Y-133.7889
N25710 Y-128.5249
N25720 X66.9326
N25730 Y-131.2893
N25740 G00 Z1.0000
N25750 X65.3880 Y-126.3440
N25760 Z0.5000
N25770 G01 Z0.0000 F600
N25780 Y-126.0689 Z-0.0485
N25790 X65.6631 Y-126.0674 Z-0.0970
N25800 X65.6645 Y-126.3443 Z-0.1458
N25810 X65.3880 Y-126.3440 Z-0.1946
N25820 Y-126.0689 Z-0.2431
N25830 X65.6631 Y-126.0674 Z-0.2916
N25840 X65.6645 Y-126.3443 Z-0.3404
N25850 X65.3880 Y-126.3440 Z-0.3892
N25860 Y-126.0689 Z-0.4377
N25870 X65.6631 Y-126.0674 Z-0.4862
N25880 X65.6645 Y-126.3443 Z-0.5350
N25890 X65.3880 Y-126.3440 Z-0.5838
N25900 Y-126.0689 Z-0.6323
N25910 X65.6631 Y-126.0674 Z-0.6808
N25920 X65.6645 Y-126.3443 Z-0.7296
N25930 X65.3880 Y-126.3440 Z-0.7784
N25940 Y-126.0689 Z-0.8269
N25950 X65.6631 Y-126.0674 Z-0.8754
N25960 X65.6645 Y-126.3443 Z-0.9242
N25970 X65.3880 Y-126.3440 Z-0.9730
N25980 Y-126.0689 Z-1.0215
N25990 X65.6631 Y-126.0674 Z-1.0700
N26000 X65.6645 Y-126.3443 Z-1.1188
N26010 X65.3880 Y-126.3440 Z-1.1675
N26020 Y-126.0689 Z-1.2161
N26030 X65.6631 Y-126.0674 Z-1.2646
N26040 X65.6645 Y-126.3443 Z-1.3134
N26050 X65.3880 Y-126.3440 Z-1.3621
N26060 Y-126.0689 Z-1.4106
N26070 X65.6631 Y-126.0674 Z-1.4592
N26080 X65.6642 Y-126.2990 Z-1.5000
N26090 X65.6645 Y-126.3443 F1200
N26100 X65.3880 Y-126.3440 Z-1.5487 F600
N26110 Y-126.0689 Z-1.5973
N26120 X65.6631 Y-126.0674 Z-1.6458
N26130 X65.6645 Y-126.3443 Z-1.6946
N26140 X65.3880 Y-126.3440 Z-1.7433
N26150 Y-126.0689 Z-1.7918
N26160 X65.6631 Y-126.0674 Z-1.8404
N26170 X65.6645 Y-126.3443 Z-1.8892
N26180 X65.3880 Y-126.3440 Z-1.9379
N26190 Y-126.0689 Z-1.9864
N26200 X65.6631 Y-126.0674 Z-2.0349
N26210 X65.6645 Y-126.3443 Z-2.0838
N26220 X65.3880 Y-126.3440 Z-2.1325
N26230 Y-126.0689 Z-2.1810
N26240 X65.6631 Y-126.0674 Z-2.2295
N26250 X65.6645 Y-126.3443 Z-2.2784
N26260 X65.3880 Y-126.3440 Z-2.3271
N26270 Y-126.0689 Z-2.3756
N26280 X65.6631 Y-126.0674 Z-2.4241
N26290 X65.6645 Y-126.3443 Z-2.4730
N26300 X65.3880 Y-126.3440 Z-2.5217
N26310 Y-126.0689 Z-2.5702
N26320 X65.6631 Y-126.0674 Z-2.6187
N26330 X65.6645 Y-126.3443 Z-2.6675
N26340 X65.3880 Y-126.3440 Z-2.7163
N26350 Y-126.0689 Z-2.7648
N26360 X65.6631 Y-126.0674 Z-2.8133
N26370 X65.6645 Y-126.3443 Z-2.8621
N26380 X65.3880 Y-126.3440 Z-2.9109
N26390 Y-126.0689 Z-2.9594
N26400 X65.6183 Y-126.0677 Z-3.0000
N26410 X65.6631 Y-126.0674 F1200
N26420 X65.6645 Y-126.3443
N26430 X65.3880 Y-126.3440
N26440 Y-126.0689
N26450 X65.6183 Y-126.0677
N26460 G00 Z1.0000
N26470 X61.7431 Y-126.3440
N26480 Z0.5000
N26490 G01 Z0.0000 F600
N26500 Y-126.0678 Z-0.0487
N26510 X62.0193 Y-126.0667 Z-0.0974
N26520 X62.0206 Y-126.3444 Z-0.1464
N26530 X61.7431 Y-126.3440 Z-0.1953
N26540 Y-126.0678 Z-0.2440
N26550 X62.0193 Y-126.0667 Z-0.2927
N26560 X62.0206 Y-126.3444 Z-0.3417
N26570 X61.7431 Y-126.3440 Z-0.3906
N26580 Y-126.0678 Z-0.4393
N26590 X62.0193 Y-126.0667 Z-0.4880
N26600 X62.0206 Y-126.3444 Z-0.5369
N26610 X61.7431 Y-126.3440 Z-0.5859
N26620 Y-126.0678 Z-0.6346
N26630 X62.0193 Y-126.0667 Z-0.6833
N26640 X62.0206 Y-126.3444 Z-0.7322
N26650 X61.7431 Y-126.3440 Z-0.7812
N26660 Y-126.0678 Z-0.8299
N26670 X62.0193 Y-126.0667 Z-0.8786
N26680 X62.0206 Y-126.3444 Z-0.9275
N26690 X61.7431 Y-126.3440 Z-0.9765
N26700 Y-126.0678 Z-1.0252
N26710 X62.0193 Y-126.0667 Z-1.0739
N26720 X62.0206 Y-126.3444 Z-1.1228
N26730 X61.7431 Y-126.3440 Z-1.1718
N26740 Y-126.0678 Z-1.2205
N26750 X62.0193 Y-126.0667 Z-1.2692
N26760 X62.0206 Y-126.3444 Z-1.3181
N26770 X61.7431 Y-126.3440 Z-1.3671
N26780 Y-126.0678 Z-1.4158
N26790 X62.0193 Y-126.0667 Z-1.4645
N26800 X62.0203 Y-126.2683 Z-1.5000
N26810 X62.0206 Y-126.3444 F1200
N26820 X61.7431 Y-126.3440 Z-1.5489 F600
N26830 Y-126.0678 Z-1.5976
N26840 X62.0193 Y-126.0667 Z-1.6463
N26850 X62.0206 Y-126.3444 Z-1.6953
N26860 X61.7431 Y-126.3440 Z-1.7442
N26870 Y-126.0678 Z-1.7929
N26880 X62.0193 Y-126.0667 Z-1.8416
N26890 X62.0206 Y-126.3444 Z-1.8906
N26900 X61.7431 Y-126.3440 Z-1.9395
N26910 Y-126.0678 Z-1.9882
N26920 X62.0193 Y-126.0667 Z-2.0369
N26930 X62.0206 Y-126.3444 Z-2.0859
N26940 X61.7431 Y-126.3440 Z-2.1348
N26950 Y-126.0678 Z-2.1835
N26960 X62.0193 Y-126.0667 Z-2.2322
N26970 X62.0206 Y-126.3444 Z-2.2812
N26980 X61.7431 Y-126.3440 Z-2.3301
N26990 Y-126.0678 Z-2.3788
N27000 X62.0193 Y-126.0667 Z-2.4275
N27010 X62.0206 Y-126.3444 Z-2.4765
N27020 X61.7431 Y-126.3440 Z-2.5254
N27030 Y-126.0678 Z-2.5741
N27040 X62.0193 Y-126.0667 Z-2.6228
N27050 X62.0206 Y-126.3444 Z-2.6718
N27060 X61.7431 Y-126.3440 Z-2.7207
N27070 Y-126.0678 Z-2.7694
N27080 X62.0193 Y-126.0667 Z-2.8181
N27090 X62.0206 Y-126.3444 Z-2.8671
N27100 X61.7431 Y-126.3440 Z-2.9160
N27110 Y-126.0678 Z-2.9647
N27120 X61.9434 Y-126.0670 Z-3.0000
N27130 X62.0193 Y-126.0667 F1200
N27140 X62.0206 Y-126.3444
N27150 X61.7431 Y-126.3440
N27160 Y-126.0678
N27170 X61.9434 Y-126.0670
N27180 G00 Z1.0000
N27190 X66.4678 Y-117.9062
N27200 Z0.5000
N27210 G01 Z0.0000 F600
N27220 X66.4691 Y-112.3524 Z-0.9793
N27230 G03 X65.9630 Y-111.8524 Z-1.1189 I-0.5000 J0.0001 F600.0
N27240 G01 X64.5332 Y-111.8699 Z-1.3710 F600
N27250 X64.4977 Y-111.8716 Z-1.3773
N27260 X63.8803 Y-111.9233 Z-1.4865
N27270 X63.8323 Y-111.9297 Z-1.4950
N27280 X63.8047 Y-111.9347 Z-1.5000
N27290 X63.3469 Y-112.0182 F1200
N27300 G03 X63.2723 Y-112.0379 I0.0897 J-0.4919 F1200.0
N27310 G01 X62.9209 Y-112.1602 F1200
N27320 G03 X62.7998 Y-112.2219 I0.1644 J-0.4722 F1200.0
N27330 G01 X62.5500 Y-112.3955 F1200
N27340 G03 X62.4363 Y-112.5049 I0.2854 J-0.4105 F1200.0
N27350 G01 X62.2564 Y-112.7433 F1200
N27360 G03 X62.1827 Y-112.8820 I0.3992 J-0.3011 F1200.0
N27370 G01 X62.0776 Y-113.1879 F1200
N27380 G03 X62.0526 Y-113.3048 I0.4729 J-0.1624 F1200.0
N27390 G01 X62.0188 Y-113.6742 F1200
N27400 G03 X62.0241 Y-113.8048 I0.4979 J-0.0455 F1200.0
N27410 G01 X62.1012 Y-114.2516 F1200
N27420 G03 X62.1550 Y-114.4059 I0.4927 J0.0851 F1200.0
N27430 G01 X62.3538 Y-114.7704 F1200
N27440 G03 X62.4447 Y-114.8900 I0.4390 J0.2394 F1200.0
N27450 G01 X62.5695 Y-115.0110 F1200
N27460 X62.5130 Y-114.9850
N27470 G02 X61.5764 Y-113.0517 I0.7936 J1.5779 F1200.0
N27480 X62.4908 Y-112.0417 I1.3721 J-0.3232
N27490 G01 X63.0198 Y-111.8828 F1200
N27500 X63.6360 Y-111.7885
N27510 X64.3784 Y-111.7551
N27520 X66.9298
N27530 X66.9257 Y-117.9062
N27540 X66.4678
N27550 X66.4691 Y-112.3524 Z-2.4793 F600
N27560 G03 X65.9630 Y-111.8524 Z-2.6189 I-0.5000 J0.0001 F600.0
N27570 G01 X64.5332 Y-111.8699 Z-2.8710 F600
N27580 X64.4977 Y-111.8716 Z-2.8773
N27590 X63.8803 Y-111.9233 Z-2.9865
N27600 X63.8323 Y-111.9297 Z-2.9950
N27610 X63.8047 Y-111.9347 Z-3.0000
N27620 X63.3469 Y-112.0182 F1200
N27630 G03 X63.2723 Y-112.0379 I0.0897 J-0.4919 F1200.0
N27640 G01 X62.9209 Y-112.1602 F1200
N27650 G03 X62.7998 Y-112.2219 I0.1644 J-0.4722 F1200.0
N27660 G01 X62.5500 Y-112.3955 F1200
N27670 G03 X62.4363 Y-112.5049 I0.2854 J-0.4105 F1200.0
N27680 G01 X62.2564 Y-112.7433 F1200
N27690 G03 X62.1827 Y-112.8820 I0.3992 J-0.3011 F1200.0
N27700 G01 X62.0776 Y-113.1879 F1200
N27710 G03 X62.0526 Y-113.3048 I0.4729 J-0.1624 F1200.0
N27720 G01 X62.0188 Y-113.6742 F1200
N27730 G03 X62.0241 Y-113.8048 I0.4979 J-0.0455 F1200.0
N27740 G01 X62.1012 Y-114.2516 F1200
N27750 G03 X62.1550 Y-114.4059 I0.4927 J0.0851 F1200.0
N27760 G01 X62.3538 Y-114.7704 F1200
N27770 G03 X62.4447 Y-114.8900 I0.4390 J0.2394 F1200.0
N27780 G01 X62.5695 Y-115.0110 F1200
N27790 X62.5130 Y-114.9850
N27800 G02 X61.5764 Y-113.0517 I0.7936 J1.5779 F1200.0
N27810 X62.4908 Y-112.0417 I1.3721 J-0.3232
N27820 G01 X63.0198 Y-111.8828 F1200
N27830 X63.6360 Y-111.7885
N27840 X64.3784 Y-111.7551
N27850 X66.9298
N27860 X66.9257 Y-117.9062
N27870 X66.4678
N27880 X66.4691 Y-112.3524
N27890 G03 X65.9630 Y-111.8524 I-0.5000 J0.0001 F1200.0
N27900 G01 X64.5332 Y-111.8699 F1200
N27910 X64.4977 Y-111.8716
N27920 X63.8803 Y-111.9233
N27930 X63.8323 Y-111.9297
N27940 X63.8047 Y-111.9347
N27950 G00 Z1.0000
N27960 X64.4451 Y-115.8105
N27970 Z0.5000
N27980 G01 Z0.0000 F600
N27990 X64.4033 Y-115.8142 Z-0.0074
N28000 G03 X64.3316 Y-115.8257 Z-0.0202 I0.0434 J-0.4981 F600.0
N28010 G01 X63.8159 Y-115.9477 Z-0.1137 F600
N28020 G03 X63.7677 Y-115.9617 Z-0.1225 I0.1151 J-0.4866 F600.0
N28030 G01 X63.6622 Y-115.9981 Z-0.1422 F600
N28040 G03 X63.6981 Y-115.6679 Z-0.2019 I-0.4509 J0.2160 F600.0
N28050 G01 X63.7170 Y-115.6731 Z-0.2053 F600
N28060 X64.1201 Y-115.7754 Z-0.2787
N28070 G03 X64.1993 Y-115.7889 Z-0.2928 I0.1230 J0.4846 F600.0
N28080 G01 X64.4451 Y-115.8105 Z-0.3364 F600
N28090 X64.4033 Y-115.8142 Z-0.3438
N28100 G03 X64.3316 Y-115.8257 Z-0.3566 I0.0434 J-0.4981 F600.0
N28110 G01 X63.8159 Y-115.9477 Z-0.4500 F600
N28120 G03 X63.7677 Y-115.9617 Z-0.4589 I0.1151 J-0.4866 F600.0
N28130 G01 X63.6622 Y-115.9981 Z-0.4786 F600
N28140 G03 X63.6981 Y-115.6679 Z-0.5383 I-0.4509 J0.2160 F600.0
N28150 G01 X63.7170 Y-115.6731 Z-0.5417 F600
N28160 X64.1201 Y-115.7754 Z-0.6150
N28170 G03 X64.1993 Y-115.7889 Z-0.6292 I0.1230 J0.4846 F600.0
N28180 G01 X64.4451 Y-115.8105 Z-0.6727 F600
N28190 X64.4033 Y-115.8142 Z-0.6801
N28200 G03 X64.3316 Y-115.8257 Z-0.6930 I0.0434 J-0.4981 F600.0
N28210 G01 X63.8159 Y-115.9477 Z-0.7864 F600
N28220 G03 X63.7677 Y-115.9617 Z-0.7953 I0.1151 J-0.4866 F600.0
N28230 G01 X63.6622 Y-115.9981 Z-0.8149 F600
N28240 G03 X63.6981 Y-115.6679 Z-0.8746 I-0.4509 J0.2160 F600.0
N28250 G01 X63.7170 Y-115.6731 Z-0.8781 F600
N28260 X64.1201 Y-115.7754 Z-0.9514
N28270 G03 X64.1993 Y-115.7889 Z-0.9656 I0.1230 J0.4846 F600.0
N28280 G01 X64.4451 Y-115.8105 Z-1.0091 F600
N28290 X64.4033 Y-115.8142 Z-1.0165
N28300 G03 X64.3316 Y-115.8257 Z-1.0293 I0.0434 J-0.4981 F600.0
N28310 G01 X63.8159 Y-115.9477 Z-1.1228 F600
